P3
215 120
255
204 226 255
204 226 255
204 226 255
204 226 255
204 226 255
204 226 255
204 226 255
204 226 255
204 226 255
204 226 255
203 226 255
203 226 255
203 226 255
203 226 255
203 225 255
203 225 255
203 225 255
203 225 255
202 225 255
202 225 255
202 225 255
202 225 255
202 225 255
202 225 255
202 225 255
202 225 255
202 225 255
201 225 255
201 225 255
201 224 255
201 224 255
201 224 255
201 224 255
201 224 255
201 224 255
200 224 255
200 224 255
200 224 255
200 224 255
200 224 255
200 224 255
200 224 255
200 224 255
199 224 255
199 223 255
199 223 255
199 223 255
199 223 255
199 223 255
199 223 255
198 223 255
198 223 255
198 223 255
198 223 255
198 223 255
198 223 255
198 223 255
198 223 255
197 222 255
197 222 255
197 222 255
197 222 255
197 222 255
197 222 255
197 222 255
197 222 255
196 222 255
196 222 255
196 222 255
196 222 255
196 222 255
196 222 255
196 222 255
196 222 255
195 221 255
195 221 255
195 221 255
195 221 255
195 221 255
195 221 255
195 221 255
195 221 255
195 221 255
195 221 255
194 221 255
194 221 255
194 221 255
194 221 255
194 221 255
194 221 255
194 221 255
194 221 255
194 221 255
194 221 255
194 221 255
194 221 255
194 220 255
194 220 255
194 220 255
194 220 255
194 220 255
194 220 255
193 220 255
193 220 255
193 220 255
193 220 255
193 220 255
193 220 255
193 220 255
193 220 255
193 220 255
193 220 255
193 220 255
194 220 255
194 220 255
194 220 255
194 220 255
194 220 255
194 221 255
194 221 255
194 221 255
194 221 255
194 221 255
194 221 255
194 221 255
194 221 255
194 221 255
194 221 255
194 221 255
194 221 255
194 221 255
195 221 255
195 221 255
195 221 255
195 221 255
195 221 255
195 221 255
195 221 255
195 221 255
195 221 255
195 221 255
196 222 255
196 222 255
196 222 255
196 222 255
196 222 255
196 222 255
196 222 255
196 222 255
197 222 255
197 222 255
197 222 255
197 222 255
197 222 255
197 222 255
197 222 255
197 222 255
198 223 255
198 223 255
198 223 255
198 223 255
198 223 255
198 223 255
198 223 255
198 223 255
199 223 255
199 223 255
199 223 255
199 223 255
199 223 255
199 223 255
199 224 255
200 224 255
200 224 255
200 224 255
200 224 255
200 224 255
200 224 255
200 224 255
200 224 255
201 224 255
201 224 255
201 224 255
201 224 255
201 224 255
201 224 255
201 225 255
201 225 255
202 225 255
202 225 255
202 225 255
202 225 255
202 225 255
202 225 255
202 225 255
202 225 255
203 225 255
203 225 255
203 225 255
203 225 255
203 225 255
203 226 255
203 226 255
203 226 255
203 226 255
204 226 255
204 226 255
204 226 255
204 226 255
204 226 255
204 226 255
204 226 255
204 226 255
204 226 255
204 226 255
205 226 255
205 226 255
204 226 255
204 226 255
204 226 255
204 226 255
204 226 255
204 226 255
204 226 255
204 226 255
204 226 255
204 226 255
203 226 255
203 226 255
203 226 255
203 226 255
203 225 255
203 225 255
203 225 255
203 225 255
203 225 255
202 225 255
202 225 255
202 225 255
202 225 255
202 225 255
202 225 255
202 225 255
202 225 255
201 225 255
201 225 255
201 224 255
201 224 255
201 224 255
201 224 255
201 224 255
201 224 255
200 224 255
200 224 255
200 224 255
200 224 255
200 224 255
200 224 255
200 224 255
200 224 255
199 224 255
199 223 255
199 223 255
199 223 255
199 223 255
199 223 255
199 223 255
198 223 255
198 223 255
198 223 255
198 223 255
198 223 255
198 223 255
198 223 255
198 223 255
197 222 255
197 222 255
197 222 255
197 222 255
197 222 255
197 222 255
197 222 255
197 222 255
196 222 255
196 222 255
196 222 255
196 222 255
196 222 255
196 222 255
196 222 255
196 222 255
196 221 255
195 221 255
195 221 255
195 221 255
195 221 255
195 221 255
195 221 255
195 221 255
195 221 255
195 221 255
195 221 255
194 221 255
194 221 255
194 221 255
194 221 255
194 221 255
194 221 255
194 221 255
194 221 255
194 221 255
194 221 255
194 221 255
194 221 255
194 221 255
194 221 255
194 221 255
194 221 255
194 221 255
194 221 255
194 221 255
194 221 255
194 221 255
194 221 255
194 221 255
194 221 255
194 221 255
194 221 255
194 221 255
194 221 255
194 221 255
194 221 255
194 221 255
194 221 255
194 221 255
194 221 255
194 221 255
194 221 255
194 221 255
194 221 255
194 221 255
194 221 255
194 221 255
195 221 255
195 221 255
195 221 255
195 221 255
195 221 255
195 221 255
195 221 255
195 221 255
195 221 255
195 221 255
196 221 255
196 222 255
196 222 255
196 222 255
196 222 255
196 222 255
196 222 255
196 222 255
196 222 255
197 222 255
197 222 255
197 222 255
197 222 255
197 222 255
197 222 255
197 222 255
197 222 255
198 223 255
198 223 255
198 223 255
198 223 255
198 223 255
198 223 255
198 223 255
198 223 255
199 223 255
199 223 255
199 223 255
199 223 255
199 223 255
199 223 255
199 224 255
200 224 255
200 224 255
200 224 255
200 224 255
200 224 255
200 224 255
200 224 255
200 224 255
201 224 255
201 224 255
201 224 255
201 224 255
201 224 255
201 224 255
201 225 255
201 225 255
202 225 255
202 225 255
202 225 255
202 225 255
202 225 255
202 225 255
202 225 255
202 225 255
203 225 255
203 225 255
203 225 255
203 225 255
203 225 255
203 226 255
203 226 255
203 226 255
203 226 255
204 226 255
204 226 255
204 226 255
204 226 255
204 226 255
204 226 255
204 226 255
204 226 255
204 226 255
204 226 255
205 226 255
205 226 255
205 227 255
205 226 255
205 226 255
205 226 255
205 226 255
204 226 255
204 226 255
204 226 255
204 226 255
204 226 255
204 226 255
204 226 255
204 226 255
204 226 255
203 226 255
203 226 255
203 226 255
203 226 255
203 225 255
203 225 255
203 225 255
203 225 255
203 225 255
202 225 255
202 225 255
202 225 255
202 225 255
202 225 255
202 225 255
202 225 255
202 225 255
201 225 255
201 225 255
201 225 255
201 224 255
201 224 255
201 224 255
201 224 255
201 224 255
200 224 255
200 224 255
200 224 255
200 224 255
200 224 255
200 224 255
200 224 255
200 224 255
199 224 255
199 223 255
199 223 255
199 223 255
199 223 255
199 223 255
199 223 255
198 223 255
198 223 255
198 223 255
198 223 255
198 223 255
198 223 255
198 223 255
198 223 255
197 222 255
197 222 255
197 222 255
197 222 255
197 222 255
197 222 255
197 222 255
197 222 255
196 222 255
196 222 255
196 222 255
196 222 255
196 222 255
196 222 255
196 222 255
196 222 255
196 221 255
195 221 255
195 221 255
195 221 255
195 221 255
195 221 255
195 221 255
195 221 255
195 221 255
195 221 255
195 221 255
195 221 255
195 221 255
194 221 255
194 221 255
194 221 255
194 221 255
194 221 255
194 221 255
194 221 255
194 221 255
194 221 255
194 221 255
194 221 255
194 221 255
194 221 255
194 221 255
194 221 255
194 221 255
194 221 255
194 221 255
194 221 255
194 221 255
194 221 255
194 221 255
194 221 255
194 221 255
194 221 255
194 221 255
194 221 255
194 221 255
194 221 255
194 221 255
194 221 255
194 221 255
194 221 255
195 221 255
195 221 255
195 221 255
195 221 255
195 221 255
195 221 255
195 221 255
195 221 255
195 221 255
195 221 255
195 221 255
195 221 255
196 222 255
196 222 255
196 222 255
196 222 255
196 222 255
196 222 255
196 222 255
196 222 255
196 222 255
197 222 255
197 222 255
197 222 255
197 222 255
197 222 255
197 222 255
197 222 255
197 222 255
198 223 255
198 223 255
198 223 255
198 223 255
198 223 255
198 223 255
198 223 255
198 223 255
199 223 255
199 223 255
199 223 255
199 223 255
199 223 255
199 223 255
199 224 255
200 224 255
200 224 255
200 224 255
200 224 255
200 224 255
200 224 255
200 224 255
200 224 255
201 224 255
201 224 255
201 224 255
201 224 255
201 224 255
201 224 255
201 225 255
201 225 255
202 225 255
202 225 255
202 225 255
202 225 255
202 225 255
202 225 255
202 225 255
202 225 255
203 225 255
203 225 255
203 225 255
203 225 255
203 225 255
203 226 255
203 226 255
203 226 255
203 226 255
204 226 255
204 226 255
204 226 255
204 226 255
204 226 255
204 226 255
204 226 255
204 226 255
204 226 255
205 226 255
205 226 255
205 226 255
205 226 255
205 227 255
205 227 255
205 227 255
205 227 255
205 226 255
205 226 255
205 226 255
205 226 255
204 226 255
204 226 255
204 226 255
204 226 255
204 226 255
204 226 255
204 226 255
204 226 255
204 226 255
203 226 255
203 226 255
203 226 255
203 226 255
203 225 255
203 225 255
203 225 255
203 225 255
203 225 255
202 225 255
202 225 255
202 225 255
202 225 255
202 225 255
202 225 255
202 225 255
202 225 255
201 225 255
201 225 255
201 225 255
201 224 255
201 224 255
201 224 255
201 224 255
201 224 255
200 224 255
200 224 255
200 224 255
200 224 255
200 224 255
200 224 255
200 224 255
200 224 255
199 224 255
199 223 255
199 223 255
199 223 255
199 223 255
199 223 255
199 223 255
199 223 255
198 223 255
198 223 255
198 223 255
198 223 255
198 223 255
198 223 255
198 223 255
197 223 255
197 222 255
197 222 255
197 222 255
197 222 255
197 222 255
197 222 255
197 222 255
197 222 255
196 222 255
196 222 255
196 222 255
196 222 255
196 222 255
196 222 255
196 222 255
196 222 255
196 221 255
195 221 255
195 221 255
195 221 255
195 221 255
195 221 255
195 221 255
195 221 255
195 221 255
195 221 255
195 221 255
195 221 255
195 221 255
195 221 255
195 221 255
194 221 255
194 221 255
194 221 255
194 221 255
194 221 255
194 221 255
194 221 255
194 221 255
194 221 255
194 221 255
194 221 255
194 221 255
194 221 255
194 221 255
194 221 255
194 221 255
194 221 255
194 221 255
194 221 255
194 221 255
194 221 255
194 221 255
194 221 255
195 221 255
195 221 255
195 221 255
195 221 255
195 221 255
195 221 255
195 221 255
195 221 255
195 221 255
195 221 255
195 221 255
195 221 255
195 221 255
195 221 255
196 221 255
196 222 255
196 222 255
196 222 255
196 222 255
196 222 255
196 222 255
196 222 255
196 222 255
197 222 255
197 222 255
197 222 255
197 222 255
197 222 255
197 222 255
197 222 255
197 222 255
197 223 255
198 223 255
198 223 255
198 223 255
198 223 255
198 223 255
198 223 255
198 223 255
198 223 255
199 223 255
199 223 255
199 223 255
199 223 255
199 223 255
199 223 255
199 224 255
200 224 255
200 224 255
200 224 255
200 224 255
200 224 255
200 224 255
200 224 255
200 224 255
201 224 255
201 224 255
201 224 255
201 224 255
201 224 255
201 225 255
201 225 255
201 225 255
202 225 255
202 225 255
202 225 255
202 225 255
202 225 255
202 225 255
202 225 255
202 225 255
203 225 255
203 225 255
203 225 255
203 225 255
203 225 255
203 226 255
203 226 255
203 226 255
203 226 255
204 226 255
204 226 255
204 226 255
204 226 255
204 226 255
204 226 255
204 226 255
204 226 255
204 226 255
205 226 255
205 226 255
205 226 255
205 226 255
205 227 255
205 227 255
205 227 255
205 227 255
205 227 255
205 227 255
205 227 255
205 227 255
205 227 255
205 226 255
205 226 255
205 226 255
205 226 255
204 226 255
204 226 255
204 226 255
204 226 255
204 226 255
204 226 255
204 226 255
204 226 255
204 226 255
203 226 255
203 226 255
203 226 255
203 226 255
203 225 255
203 225 255
203 225 255
203 225 255
202 225 255
202 225 255
202 225 255
202 225 255
202 225 255
202 225 255
202 225 255
202 225 255
201 225 255
201 225 255
201 225 255
201 224 255
201 224 255
201 224 255
201 224 255
201 224 255
200 224 255
200 224 255
200 224 255
200 224 255
200 224 255
200 224 255
200 224 255
200 224 255
199 224 255
199 223 255
199 223 255
199 223 255
199 223 255
199 223 255
199 223 255
199 223 255
198 223 255
198 223 255
198 223 255
198 223 255
198 223 255
198 223 255
198 223 255
197 223 255
197 222 255
197 222 255
197 222 255
197 222 255
197 222 255
197 222 255
197 222 255
197 222 255
196 222 255
196 222 255
196 222 255
196 222 255
196 222 255
196 222 255
196 222 255
196 222 255
196 222 255
196 221 255
195 221 255
195 221 255
195 221 255
195 221 255
195 221 255
195 221 255
195 221 255
195 221 255
195 221 255
195 221 255
195 221 255
195 221 255
195 221 255
195 221 255
195 221 255
195 221 255
195 221 255
195 221 255
195 221 255
195 221 255
195 221 255
195 221 255
195 221 255
195 221 255
195 221 255
195 221 255
195 221 255
195 221 255
195 221 255
195 221 255
195 221 255
195 221 255
195 221 255
195 221 255
195 221 255
195 221 255
195 221 255
195 221 255
195 221 255
195 221 255
195 221 255
195 221 255
195 221 255
195 221 255
195 221 255
196 221 255
196 222 255
196 222 255
196 222 255
196 222 255
196 222 255
196 222 255
196 222 255
196 222 255
196 222 255
197 222 255
197 222 255
197 222 255
197 222 255
197 222 255
197 222 255
197 222 255
197 222 255
198 223 255
198 223 255
198 223 255
198 223 255
198 223 255
198 223 255
198 223 255
198 223 255
199 223 255
199 223 255
199 223 255
199 223 255
199 223 255
199 223 255
199 223 255
199 224 255
200 224 255
200 224 255
200 224 255
200 224 255
200 224 255
200 224 255
200 224 255
200 224 255
201 224 255
201 224 255
201 224 255
201 224 255
201 224 255
201 225 255
201 225 255
201 225 255
202 225 255
202 225 255
202 225 255
202 225 255
202 225 255
202 225 255
202 225 255
202 225 255
203 225 255
203 225 255
203 225 255
203 225 255
203 226 255
203 226 255
203 226 255
203 226 255
204 226 255
204 226 255
204 226 255
204 226 255
204 226 255
204 226 255
204 226 255
204 226 255
204 226 255
205 226 255
205 226 255
205 226 255
205 226 255
205 227 255
205 227 255
205 227 255
205 227 255
205 227 255
205 227 255
206 227 255
206 227 255
205 227 255
205 227 255
205 227 255
205 227 255
205 227 255
205 227 255
205 226 255
205 226 255
205 226 255
205 226 255
204 226 255
204 226 255
204 226 255
204 226 255
204 226 255
204 226 255
204 226 255
204 226 255
204 226 255
203 226 255
203 226 255
203 226 255
203 226 255
203 225 255
203 225 255
203 225 255
203 225 255
203 225 255
202 225 255
202 225 255
202 225 255
202 225 255
202 225 255
202 225 255
202 225 255
202 225 255
201 225 255
201 225 255
201 224 255
201 224 255
201 224 255
201 224 255
201 224 255
201 224 255
200 224 255
200 224 255
200 224 255
200 224 255
200 224 255
200 224 255
200 224 255
199 224 255
199 223 255
199 223 255
199 223 255
199 223 255
199 223 255
199 223 255
199 223 255
198 223 255
198 223 255
198 223 255
198 223 255
198 223 255
198 223 255
198 223 255
198 223 255
197 222 255
197 222 255
197 222 255
197 222 255
197 222 255
197 222 255
197 222 255
197 222 255
197 222 255
196 222 255
196 222 255
196 222 255
196 222 255
196 222 255
196 222 255
196 222 255
196 222 255
196 222 255
196 222 255
196 221 255
195 221 255
195 221 255
195 221 255
195 221 255
195 221 255
195 221 255
195 221 255
195 221 255
195 221 255
195 221 255
195 221 255
195 221 255
195 221 255
195 221 255
195 221 255
195 221 255
195 221 255
195 221 255
195 221 255
195 221 255
195 221 255
195 221 255
195 221 255
195 221 255
195 221 255
195 221 255
195 221 255
195 221 255
195 221 255
195 221 255
195 221 255
195 221 255
195 221 255
195 221 255
195 221 255
195 221 255
195 221 255
196 221 255
196 222 255
196 222 255
196 222 255
196 222 255
196 222 255
196 222 255
196 222 255
196 222 255
196 222 255
196 222 255
197 222 255
197 222 255
197 222 255
197 222 255
197 222 255
197 222 255
197 222 255
197 222 255
197 222 255
198 223 255
198 223 255
198 223 255
198 223 255
198 223 255
198 223 255
198 223 255
198 223 255
199 223 255
199 223 255
199 223 255
199 223 255
199 223 255
199 223 255
199 223 255
199 224 255
200 224 255
200 224 255
200 224 255
200 224 255
200 224 255
200 224 255
200 224 255
200 224 255
201 224 255
201 224 255
201 224 255
201 224 255
201 224 255
201 225 255
201 225 255
202 225 255
202 225 255
202 225 255
202 225 255
202 225 255
202 225 255
202 225 255
202 225 255
203 225 255
203 225 255
203 225 255
203 225 255
203 225 255
203 226 255
203 226 255
203 226 255
203 226 255
204 226 255
204 226 255
204 226 255
204 226 255
204 226 255
204 226 255
204 226 255
204 226 255
204 226 255
205 226 255
205 226 255
205 226 255
205 226 255
205 227 255
205 227 255
205 227 255
205 227 255
205 227 255
205 227 255
206 227 255
206 227 255
206 227 255
206 227 255
206 227 255
206 227 255
206 227 255
205 227 255
205 227 255
205 227 255
205 227 255
205 227 255
205 227 255
205 226 255
205 226 255
205 226 255
204 226 255
204 226 255
204 226 255
204 226 255
204 226 255
204 226 255
204 226 255
204 226 255
204 226 255
203 226 255
203 226 255
203 226 255
203 226 255
203 225 255
203 225 255
203 225 255
203 225 255
203 225 255
202 225 255
202 225 255
202 225 255
202 225 255
202 225 255
202 225 255
202 225 255
202 225 255
201 225 255
201 225 255
201 224 255
201 224 255
201 224 255
201 224 255
201 224 255
201 224 255
200 224 255
200 224 255
200 224 255
200 224 255
200 224 255
200 224 255
200 224 255
199 224 255
199 224 255
199 223 255
199 223 255
199 223 255
199 223 255
199 223 255
199 223 255
198 223 255
198 223 255
198 223 255
198 223 255
198 223 255
198 223 255
198 223 255
198 223 255
197 223 255
197 222 255
197 222 255
197 222 255
197 222 255
197 222 255
197 222 255
197 222 255
197 222 255
197 222 255
196 222 255
196 222 255
196 222 255
196 222 255
196 222 255
196 222 255
196 222 255
196 222 255
196 222 255
196 222 255
196 222 255
196 221 255
195 221 255
195 221 255
195 221 255
195 221 255
195 221 255
195 221 255
195 221 255
195 221 255
195 221 255
195 221 255
195 221 255
195 221 255
195 221 255
195 221 255
195 221 255
195 221 255
195 221 255
195 221 255
195 221 255
195 221 255
195 221 255
195 221 255
195 221 255
195 221 255
195 221 255
195 221 255
195 221 255
195 221 255
195 221 255
196 221 255
196 222 255
196 222 255
196 222 255
196 222 255
196 222 255
196 222 255
196 222 255
196 222 255
196 222 255
196 222 255
196 222 255
197 222 255
197 222 255
197 222 255
197 222 255
197 222 255
197 222 255
197 222 255
197 222 255
197 222 255
198 223 255
198 223 255
198 223 255
198 223 255
198 223 255
198 223 255
198 223 255
198 223 255
198 223 255
199 223 255
199 223 255
199 223 255
199 223 255
199 223 255
199 223 255
199 224 255
199 224 255
200 224 255
200 224 255
200 224 255
200 224 255
200 224 255
200 224 255
200 224 255
201 224 255
201 224 255
201 224 255
201 224 255
201 224 255
201 224 255
201 225 255
201 225 255
202 225 255
202 225 255
202 225 255
202 225 255
202 225 255
202 225 255
202 225 255
202 225 255
203 225 255
203 225 255
203 225 255
203 225 255
203 225 255
203 226 255
203 226 255
203 226 255
203 226 255
204 226 255
204 226 255
204 226 255
204 226 255
204 226 255
204 226 255
204 226 255
204 226 255
205 226 255
205 226 255
205 226 255
205 226 255
205 227 255
205 227 255
205 227 255
205 227 255
205 227 255
205 227 255
206 227 255
206 227 255
206 227 255
206 227 255
206 227 255
206 227 255
206 227 255
206 227 255
206 227 255
206 227 255
206 227 255
206 227 255
205 227 255
205 227 255
205 227 255
205 227 255
205 227 255
205 227 255
205 226 255
205 226 255
205 226 255
205 226 255
204 226 255
204 226 255
204 226 255
204 226 255
204 226 255
204 226 255
204 226 255
204 226 255
204 226 255
203 226 255
203 226 255
203 226 255
203 226 255
203 225 255
203 225 255
203 225 255
203 225 255
202 225 255
202 225 255
202 225 255
202 225 255
202 225 255
202 225 255
202 225 255
202 225 255
201 225 255
201 225 255
201 225 255
201 224 255
201 224 255
201 224 255
201 224 255
201 224 255
200 224 255
200 224 255
200 224 255
200 224 255
200 224 255
200 224 255
200 224 255
200 224 255
199 224 255
199 223 255
199 223 255
199 223 255
199 223 255
199 223 255
199 223 255
199 223 255
198 223 255
198 223 255
198 223 255
198 223 255
198 223 255
198 223 255
198 223 255
198 223 255
197 222 255
197 222 255
197 222 255
197 222 255
197 222 255
197 222 255
197 222 255
197 222 255
197 222 255
197 222 255
196 222 255
196 222 255
196 222 255
196 222 255
196 222 255
196 222 255
196 222 255
196 222 255
196 222 255
196 222 255
196 222 255
196 222 255
196 222 255
196 221 255
196 221 255
196 221 255
195 221 255
195 221 255
195 221 255
195 221 255
195 221 255
195 221 255
195 221 255
195 221 255
195 221 255
195 221 255
195 221 255
195 221 255
195 221 255
195 221 255
195 221 255
195 221 255
196 221 255
196 221 255
196 222 255
196 222 255
196 222 255
196 222 255
196 222 255
196 222 255
196 222 255
196 222 255
196 222 255
196 222 255
196 222 255
196 222 255
196 222 255
197 222 255
197 222 255
197 222 255
197 222 255
197 222 255
197 222 255
197 222 255
197 222 255
197 222 255
197 222 255
198 223 255
198 223 255
198 223 255
198 223 255
198 223 255
198 223 255
198 223 255
198 223 255
199 223 255
199 223 255
199 223 255
199 223 255
199 223 255
199 223 255
199 223 255
199 224 255
200 224 255
200 224 255
200 224 255
200 224 255
200 224 255
200 224 255
200 224 255
200 224 255
201 224 255
201 224 255
201 224 255
201 224 255
201 224 255
201 225 255
201 225 255
201 225 255
202 225 255
202 225 255
202 225 255
202 225 255
202 225 255
202 225 255
202 225 255
202 225 255
203 225 255
203 225 255
203 225 255
203 225 255
203 226 255
203 226 255
203 226 255
203 226 255
204 226 255
204 226 255
204 226 255
204 226 255
204 226 255
204 226 255
204 226 255
204 226 255
204 226 255
205 226 255
205 226 255
205 226 255
205 226 255
205 227 255
205 227 255
205 227 255
205 227 255
205 227 255
205 227 255
206 227 255
206 227 255
206 227 255
206 227 255
206 227 255
206 227 255
206 227 255
206 227 255
206 227 255
206 227 255
206 227 255
206 227 255
206 227 255
206 227 255
206 227 255
206 227 255
206 227 255
205 227 255
205 227 255
205 227 255
205 227 255
205 227 255
205 227 255
205 226 255
205 226 255
205 226 255
205 226 255
204 226 255
204 226 255
204 226 255
204 226 255
204 226 255
204 226 255
204 226 255
204 226 255
203 226 255
203 226 255
203 226 255
203 226 255
203 225 255
203 225 255
203 225 255
203 225 255
203 225 255
202 225 255
202 225 255
202 225 255
202 225 255
202 225 255
202 225 255
202 225 255
202 225 255
201 225 255
201 225 255
201 224 255
201 224 255
201 224 255
201 224 255
201 224 255
200 224 255
200 224 255
200 224 255
200 224 255
200 224 255
200 224 255
200 224 255
200 224 255
199 224 255
199 223 255
199 223 255
199 223 255
199 223 255
199 223 255
199 223 255
199 223 255
198 223 255
198 223 255
198 223 255
198 223 255
198 223 255
198 223 255
198 223 255
198 223 255
198 223 255
197 222 255
197 222 255
197 222 255
197 222 255
197 222 255
197 222 255
197 222 255
197 222 255
197 222 255
197 222 255
196 222 255
196 222 255
196 222 255
196 222 255
196 222 255
196 222 255
196 222 255
196 222 255
196 222 255
196 222 255
196 222 255
196 222 255
196 222 255
196 222 255
196 222 255
196 222 255
196 222 255
196 222 255
196 222 255
196 222 255
196 222 255
196 222 255
196 222 255
196 222 255
196 222 255
196 222 255
196 222 255
196 222 255
196 222 255
196 222 255
196 222 255
196 222 255
196 222 255
196 222 255
196 222 255
196 222 255
196 222 255
196 222 255
196 222 255
196 222 255
196 222 255
197 222 255
197 222 255
197 222 255
197 222 255
197 222 255
197 222 255
197 222 255
197 222 255
197 222 255
197 222 255
198 223 255
198 223 255
198 223 255
198 223 255
198 223 255
198 223 255
198 223 255
198 223 255
198 223 255
199 223 255
199 223 255
199 223 255
199 223 255
199 223 255
199 223 255
199 223 255
199 224 255
200 224 255
200 224 255
200 224 255
200 224 255
200 224 255
200 224 255
200 224 255
200 224 255
201 224 255
201 224 255
201 224 255
201 224 255
201 224 255
201 225 255
201 225 255
202 225 255
202 225 255
202 225 255
202 225 255
202 225 255
202 225 255
202 225 255
202 225 255
202 225 255
203 225 255
203 225 255
203 225 255
203 225 255
203 226 255
203 226 255
203 226 255
203 226 255
204 226 255
204 226 255
204 226 255
204 226 255
204 226 255
204 226 255
204 226 255
204 226 255
204 226 255
205 226 255
205 226 255
205 226 255
205 227 255
205 227 255
205 227 255
205 227 255
205 227 255
205 227 255
206 227 255
206 227 255
206 227 255
206 227 255
206 227 255
206 227 255
206 227 255
206 227 255
206 227 255
206 227 255
207 227 255
207 227 255
206 227 255
206 227 255
206 227 255
206 227 255
206 227 255
206 227 255
206 227 255
206 227 255
206 227 255
206 227 255
205 227 255
205 227 255
205 227 255
205 227 255
205 227 255
205 227 255
205 226 255
205 226 255
205 226 255
205 226 255
204 226 255
204 226 255
204 226 255
204 226 255
204 226 255
204 226 255
204 226 255
204 226 255
204 226 255
203 226 255
203 226 255
203 226 255
203 225 255
203 225 255
203 225 255
203 225 255
203 225 255
202 225 255
202 225 255
202 225 255
202 225 255
202 225 255
202 225 255
202 225 255
202 225 255
201 225 255
201 225 255
201 224 255
201 224 255
201 224 255
201 224 255
201 224 255
201 224 255
200 224 255
200 224 255
200 224 255
200 224 255
200 224 255
200 224 255
200 224 255
199 224 255
199 224 255
199 223 255
199 223 255
199 223 255
199 223 255
199 223 255
199 223 255
199 223 255
198 223 255
198 223 255
198 223 255
198 223 255
198 223 255
198 223 255
198 223 255
198 223 255
198 223 255
197 222 255
197 222 255
197 222 255
197 222 255
197 222 255
197 222 255
197 222 255
197 222 255
197 222 255
197 222 255
197 222 255
197 222 255
196 222 255
196 222 255
196 222 255
196 222 255
196 222 255
196 222 255
196 222 255
196 222 255
196 222 255
196 222 255
196 222 255
196 222 255
196 222 255
196 222 255
196 222 255
196 222 255
196 222 255
196 222 255
196 222 255
196 222 255
196 222 255
196 222 255
196 222 255
196 222 255
196 222 255
196 222 255
196 222 255
196 222 255
196 222 255
196 222 255
196 222 255
197 222 255
197 222 255
197 222 255
197 222 255
197 222 255
197 222 255
197 222 255
197 222 255
197 222 255
197 222 255
197 222 255
197 222 255
198 223 255
198 223 255
198 223 255
198 223 255
198 223 255
198 223 255
198 223 255
198 223 255
198 223 255
199 223 255
199 223 255
199 223 255
199 223 255
199 223 255
199 223 255
199 223 255
199 224 255
200 224 255
200 224 255
200 224 255
200 224 255
200 224 255
200 224 255
200 224 255
200 224 255
201 224 255
201 224 255
201 224 255
201 224 255
201 224 255
201 224 255
201 225 255
201 225 255
202 225 255
202 225 255
202 225 255
202 225 255
202 225 255
202 225 255
202 225 255
202 225 255
203 225 255
203 225 255
203 225 255
203 225 255
203 225 255
203 226 255
203 226 255
203 226 255
204 226 255
204 226 255
204 226 255
204 226 255
204 226 255
204 226 255
204 226 255
204 226 255
204 226 255
205 226 255
205 226 255
205 226 255
205 226 255
205 227 255
205 227 255
205 227 255
205 227 255
205 227 255
205 227 255
206 227 255
206 227 255
206 227 255
206 227 255
206 227 255
206 227 255
206 227 255
206 227 255
206 227 255
206 227 255
207 227 255
207 227 255
207 228 255
207 228 255
207 227 255
207 227 255
207 227 255
206 227 255
206 227 255
206 227 255
206 227 255
206 227 255
206 227 255
206 227 255
206 227 255
206 227 255
206 227 255
205 227 255
205 227 255
205 227 255
205 227 255
205 227 255
205 227 255
205 226 255
205 226 255
205 226 255
204 226 255
204 226 255
204 226 255
204 226 255
204 226 255
204 226 255
204 226 255
204 226 255
204 226 255
203 226 255
203 226 255
203 226 255
203 226 255
203 225 255
203 225 255
203 225 255
203 225 255
202 225 255
202 225 255
202 225 255
202 225 255
202 225 255
202 225 255
202 225 255
202 225 255
201 225 255
201 225 255
201 225 255
201 224 255
201 224 255
201 224 255
201 224 255
201 224 255
200 224 255
200 224 255
200 224 255
200 224 255
200 224 255
200 224 255
200 224 255
200 224 255
199 224 255
199 223 255
199 223 255
199 223 255
199 223 255
199 223 255
199 223 255
199 223 255
198 223 255
198 223 255
198 223 255
198 223 255
198 223 255
198 223 255
198 223 255
198 223 255
198 223 255
198 223 255
197 222 255
197 222 255
197 222 255
197 222 255
197 222 255
197 222 255
197 222 255
197 222 255
197 222 255
197 222 255
197 222 255
197 222 255
197 222 255
197 222 255
196 222 255
196 222 255
196 222 255
196 222 255
196 222 255
196 222 255
196 222 255
196 222 255
196 222 255
196 222 255
196 222 255
196 222 255
196 222 255
196 222 255
196 222 255
196 222 255
196 222 255
196 222 255
196 222 255
196 222 255
196 222 255
197 222 255
197 222 255
197 222 255
197 222 255
197 222 255
197 222 255
197 222 255
197 222 255
197 222 255
197 222 255
197 222 255
197 222 255
197 222 255
197 222 255
198 223 255
198 223 255
198 223 255
198 223 255
198 223 255
198 223 255
198 223 255
198 223 255
198 223 255
198 223 255
199 223 255
199 223 255
199 223 255
199 223 255
199 223 255
199 223 255
199 223 255
199 224 255
200 224 255
200 224 255
200 224 255
200 224 255
200 224 255
200 224 255
200 224 255
200 224 255
201 224 255
201 224 255
201 224 255
201 224 255
201 224 255
201 225 255
201 225 255
201 225 255
202 225 255
202 225 255
202 225 255
202 225 255
202 225 255
202 225 255
202 225 255
202 225 255
203 225 255
203 225 255
203 225 255
203 225 255
203 226 255
203 226 255
203 226 255
203 226 255
204 226 255
204 226 255
204 226 255
204 226 255
204 226 255
204 226 255
204 226 255
204 226 255
204 226 255
205 226 255
205 226 255
205 226 255
205 227 255
205 227 255
205 227 255
205 227 255
205 227 255
205 227 255
206 227 255
206 227 255
206 227 255
206 227 255
206 227 255
206 227 255
206 227 255
206 227 255
206 227 255
206 227 255
207 227 255
207 227 255
207 227 255
207 228 255
207 228 255
207 228 255
207 228 255
207 228 255
207 228 255
207 228 255
207 227 255
207 227 255
207 227 255
206 227 255
206 227 255
206 227 255
206 227 255
206 227 255
206 227 255
206 227 255
206 227 255
206 227 255
206 227 255
205 227 255
205 227 255
205 227 255
205 227 255
205 227 255
205 226 255
205 226 255
205 226 255
205 226 255
204 226 255
204 226 255
204 226 255
204 226 255
204 226 255
204 226 255
204 226 255
204 226 255
204 226 255
203 226 255
203 226 255
203 226 255
203 225 255
203 225 255
203 225 255
203 225 255
203 225 255
202 225 255
202 225 255
202 225 255
202 225 255
202 225 255
202 225 255
202 225 255
202 225 255
201 225 255
201 225 255
201 224 255
201 224 255
201 224 255
201 224 255
201 224 255
201 224 255
200 224 255
200 224 255
200 224 255
200 224 255
200 224 255
200 224 255
200 224 255
200 224 255
199 224 255
199 223 255
199 223 255
199 223 255
199 223 255
199 223 255
199 223 255
199 223 255
198 223 255
198 223 255
198 223 255
198 223 255
198 223 255
198 223 255
198 223 255
198 223 255
198 223 255
198 223 255
198 223 255
197 222 255
197 222 255
197 222 255
197 222 255
197 222 255
197 222 255
197 222 255
197 222 255
197 222 255
197 222 255
197 222 255
197 222 255
197 222 255
197 222 255
197 222 255
197 222 255
197 222 255
197 222 255
197 222 255
197 222 255
197 222 255
197 222 255
197 222 255
197 222 255
197 222 255
197 222 255
197 222 255
197 222 255
197 222 255
197 222 255
197 222 255
197 222 255
197 222 255
197 222 255
197 222 255
197 222 255
197 222 255
197 222 255
197 222 255
197 222 255
197 222 255
198 223 255
198 223 255
198 223 255
198 223 255
198 223 255
198 223 255
198 223 255
198 223 255
198 223 255
198 223 255
198 223 255
199 223 255
199 223 255
199 223 255
199 223 255
199 223 255
199 223 255
199 223 255
199 224 255
200 224 255
200 224 255
200 224 255
200 224 255
200 224 255
200 224 255
200 224 255
200 224 255
201 224 255
201 224 255
201 224 255
201 224 255
201 224 255
201 224 255
201 225 255
201 225 255
202 225 255
202 225 255
202 225 255
202 225 255
202 225 255
202 225 255
202 225 255
202 225 255
203 225 255
203 225 255
203 225 255
203 225 255
203 225 255
203 226 255
203 226 255
203 226 255
204 226 255
204 226 255
204 226 255
204 226 255
204 226 255
204 226 255
204 226 255
204 226 255
204 226 255
205 226 255
205 226 255
205 226 255
205 226 255
205 227 255
205 227 255
205 227 255
205 227 255
205 227 255
206 227 255
206 227 255
206 227 255
206 227 255
206 227 255
206 227 255
206 227 255
206 227 255
206 227 255
206 227 255
207 227 255
207 227 255
207 227 255
207 228 255
207 228 255
207 228 255
207 228 255
207 228 255
207 228 255
207 228 255
207 228 255
207 228 255
207 228 255
207 228 255
207 228 255
207 228 255
207 227 255
207 227 255
207 227 255
206 227 255
206 227 255
206 227 255
206 227 255
206 227 255
206 227 255
206 227 255
206 227 255
206 227 255
206 227 255
205 227 255
205 227 255
205 227 255
205 227 255
205 227 255
205 226 255
205 226 255
205 226 255
205 226 255
204 226 255
204 226 255
204 226 255
204 226 255
204 226 255
204 226 255
204 226 255
204 226 255
203 226 255
203 226 255
203 226 255
203 226 255
203 225 255
203 225 255
203 225 255
203 225 255
202 225 255
202 225 255
202 225 255
202 225 255
202 225 255
202 225 255
202 225 255
202 225 255
201 225 255
201 225 255
201 225 255
201 224 255
201 224 255
201 224 255
201 224 255
201 224 255
200 224 255
200 224 255
200 224 255
200 224 255
200 224 255
200 224 255
200 224 255
200 224 255
199 224 255
199 224 255
199 223 255
199 223 255
199 223 255
199 223 255
199 223 255
199 223 255
199 223 255
198 223 255
198 223 255
198 223 255
198 223 255
198 223 255
198 223 255
198 223 255
198 223 255
198 223 255
198 223 255
198 223 255
198 223 255
197 223 255
197 222 255
197 222 255
197 222 255
197 222 255
197 222 255
197 222 255
197 222 255
197 222 255
197 222 255
197 222 255
197 222 255
197 222 255
197 222 255
197 222 255
197 222 255
197 222 255
197 222 255
197 222 255
197 222 255
197 222 255
197 222 255
197 222 255
197 222 255
197 222 255
197 222 255
197 222 255
197 222 255
197 222 255
197 222 255
197 222 255
197 222 255
197 223 255
198 223 255
198 223 255
198 223 255
198 223 255
198 223 255
198 223 255
198 223 255
198 223 255
198 223 255
198 223 255
198 223 255
198 223 255
199 223 255
199 223 255
199 223 255
199 223 255
199 223 255
199 223 255
199 223 255
199 224 255
199 224 255
200 224 255
200 224 255
200 224 255
200 224 255
200 224 255
200 224 255
200 224 255
200 224 255
201 224 255
201 224 255
201 224 255
201 224 255
201 224 255
201 225 255
201 225 255
201 225 255
202 225 255
202 225 255
202 225 255
202 225 255
202 225 255
202 225 255
202 225 255
202 225 255
203 225 255
203 225 255
203 225 255
203 225 255
203 226 255
203 226 255
203 226 255
203 226 255
204 226 255
204 226 255
204 226 255
204 226 255
204 226 255
204 226 255
204 226 255
204 226 255
205 226 255
205 226 255
205 226 255
205 226 255
205 227 255
205 227 255
205 227 255
205 227 255
205 227 255
205 227 255
206 227 255
206 227 255
206 227 255
206 227 255
206 227 255
206 227 255
206 227 255
206 227 255
206 227 255
207 227 255
207 227 255
207 227 255
207 228 255
207 228 255
207 228 255
207 228 255
207 228 255
207 228 255
207 228 255
207 228 255
208 228 255
208 228 255
208 228 255
207 228 255
207 228 255
207 228 255
207 228 255
207 228 255
207 228 255
207 228 255
207 228 255
207 227 255
207 227 255
206 227 255
206 227 255
206 227 255
206 227 255
206 227 255
206 227 255
206 227 255
206 227 255
206 227 255
206 227 255
205 227 255
205 227 255
205 227 255
205 227 255
205 227 255
205 227 255
205 226 255
205 226 255
205 226 255
204 226 255
204 226 255
204 226 255
204 226 255
204 226 255
204 226 255
204 226 255
204 226 255
204 226 255
203 226 255
203 226 255
203 226 255
203 225 255
203 225 255
203 225 255
203 225 255
203 225 255
202 225 255
202 225 255
202 225 255
202 225 255
202 225 255
202 225 255
202 225 255
202 225 255
201 225 255
201 225 255
201 224 255
201 224 255
201 224 255
201 224 255
201 224 255
201 224 255
200 224 255
200 224 255
200 224 255
200 224 255
200 224 255
200 224 255
200 224 255
200 224 255
199 224 255
199 224 255
199 223 255
199 223 255
199 223 255
199 223 255
199 223 255
199 223 255
199 223 255
199 223 255
198 223 255
198 223 255
198 223 255
198 223 255
198 223 255
198 223 255
198 223 255
198 223 255
198 223 255
198 223 255
198 223 255
198 223 255
198 223 255
198 223 255
197 223 255
197 222 255
197 222 255
197 222 255
197 222 255
197 222 255
197 222 255
197 222 255
197 222 255
197 222 255
197 222 255
197 222 255
197 222 255
197 222 255
197 222 255
197 222 255
197 222 255
197 222 255
197 222 255
197 222 255
197 223 255
198 223 255
198 223 255
198 223 255
198 223 255
198 223 255
198 223 255
198 223 255
198 223 255
198 223 255
198 223 255
198 223 255
198 223 255
198 223 255
198 223 255
199 223 255
199 223 255
199 223 255
199 223 255
199 223 255
199 223 255
199 223 255
199 223 255
199 224 255
199 224 255
200 224 255
200 224 255
200 224 255
200 224 255
200 224 255
200 224 255
200 224 255
200 224 255
201 224 255
201 224 255
201 224 255
201 224 255
201 224 255
201 224 255
201 225 255
201 225 255
202 225 255
202 225 255
202 225 255
202 225 255
202 225 255
202 225 255
202 225 255
202 225 255
203 225 255
203 225 255
203 225 255
203 225 255
203 225 255
203 226 255
203 226 255
203 226 255
204 226 255
204 226 255
204 226 255
204 226 255
204 226 255
204 226 255
204 226 255
204 226 255
204 226 255
205 226 255
205 226 255
205 226 255
205 227 255
205 227 255
205 227 255
205 227 255
205 227 255
205 227 255
206 227 255
206 227 255
206 227 255
206 227 255
206 227 255
206 227 255
206 227 255
206 227 255
206 227 255
206 227 255
207 227 255
207 227 255
207 228 255
207 228 255
207 228 255
207 228 255
207 228 255
207 228 255
207 228 255
207 228 255
208 228 255
208 228 255
208 228 255
208 228 255
208 228 255
208 228 255
208 228 255
208 228 255
208 228 255
207 228 255
207 228 255
207 228 255
207 228 255
207 228 255
207 228 255
207 228 255
207 228 255
207 227 255
207 227 255
206 227 255
206 227 255
206 227 255
206 227 255
206 227 255
206 227 255
206 227 255
206 227 255
206 227 255
206 227 255
205 227 255
205 227 255
205 227 255
205 227 255
205 227 255
205 226 255
205 226 255
205 226 255
205 226 255
204 226 255
204 226 255
204 226 255
204 226 255
204 226 255
204 226 255
204 226 255
204 226 255
203 226 255
203 226 255
203 226 255
203 226 255
203 225 255
203 225 255
203 225 255
203 225 255
203 225 255
202 225 255
202 225 255
202 225 255
202 225 255
202 225 255
202 225 255
202 225 255
202 225 255
201 225 255
201 225 255
201 224 255
201 224 255
201 224 255
201 224 255
201 224 255
201 224 255
200 224 255
200 224 255
200 224 255
200 224 255
200 224 255
200 224 255
200 224 255
200 224 255
200 224 255
199 224 255
199 223 255
199 223 255
199 223 255
199 223 255
199 223 255
199 223 255
199 223 255
199 223 255
199 223 255
198 223 255
198 223 255
198 223 255
198 223 255
198 223 255
198 223 255
198 223 255
198 223 255
198 223 255
198 223 255
198 223 255
198 223 255
198 223 255
198 223 255
198 223 255
198 223 255
198 223 255
198 223 255
198 223 255
198 223 255
198 223 255
198 223 255
198 223 255
198 223 255
198 223 255
198 223 255
198 223 255
198 223 255
198 223 255
198 223 255
198 223 255
198 223 255
198 223 255
198 223 255
198 223 255
198 223 255
198 223 255
198 223 255
198 223 255
198 223 255
198 223 255
199 223 255
199 223 255
199 223 255
199 223 255
199 223 255
199 223 255
199 223 255
199 223 255
199 223 255
199 224 255
199 224 255
200 224 255
200 224 255
200 224 255
200 224 255
200 224 255
200 224 255
200 224 255
200 224 255
201 224 255
201 224 255
201 224 255
201 224 255
201 224 255
201 224 255
201 225 255
201 225 255
201 225 255
202 225 255
202 225 255
202 225 255
202 225 255
202 225 255
202 225 255
202 225 255
202 225 255
203 225 255
203 225 255
203 225 255
203 225 255
203 226 255
203 226 255
203 226 255
203 226 255
204 226 255
204 226 255
204 226 255
204 226 255
204 226 255
204 226 255
204 226 255
204 226 255
205 226 255
205 226 255
205 226 255
205 226 255
205 227 255
205 227 255
205 227 255
205 227 255
205 227 255
206 227 255
206 227 255
206 227 255
206 227 255
206 227 255
206 227 255
206 227 255
206 227 255
206 227 255
206 227 255
207 227 255
207 227 255
207 228 255
207 228 255
207 228 255
207 228 255
207 228 255
207 228 255
207 228 255
207 228 255
208 228 255
208 228 255
208 228 255
208 228 255
208 228 255
208 228 255
208 228 255
208 228 255
208 228 255
208 228 255
208 228 255
208 228 255
208 228 255
208 228 255
208 228 255
207 228 255
207 228 255
207 228 255
207 228 255
207 228 255
207 228 255
207 228 255
207 228 255
207 227 255
207 227 255
206 227 255
206 227 255
206 227 255
206 227 255
206 227 255
206 227 255
206 227 255
206 227 255
206 227 255
206 227 255
205 227 255
205 227 255
205 227 255
205 227 255
205 227 255
205 226 255
205 226 255
205 226 255
205 226 255
204 226 255
204 226 255
204 226 255
204 226 255
204 226 255
204 226 255
204 226 255
204 226 255
203 226 255
203 226 255
203 226 255
203 226 255
203 225 255
203 225 255
203 225 255
203 225 255
202 225 255
202 225 255
202 225 255
202 225 255
202 225 255
202 225 255
202 225 255
202 225 255
201 225 255
201 225 255
201 225 255
201 224 255
201 224 255
201 224 255
201 224 255
201 224 255
201 224 255
200 224 255
200 224 255
200 224 255
200 224 255
200 224 255
200 224 255
200 224 255
200 224 255
200 224 255
199 224 255
199 223 255
199 223 255
199 223 255
199 223 255
199 223 255
199 223 255
199 223 255
199 223 255
199 223 255
199 223 255
199 223 255
198 223 255
198 223 255
198 223 255
198 223 255
198 223 255
198 223 255
198 223 255
198 223 255
198 223 255
198 223 255
198 223 255
198 223 255
198 223 255
198 223 255
198 223 255
198 223 255
198 223 255
198 223 255
198 223 255
198 223 255
198 223 255
198 223 255
198 223 255
198 223 255
198 223 255
198 223 255
198 223 255
198 223 255
198 223 255
198 223 255
198 223 255
199 223 255
199 223 255
199 223 255
199 223 255
199 223 255
199 223 255
199 223 255
199 223 255
199 223 255
199 223 255
199 223 255
199 224 255
200 224 255
200 224 255
200 224 255
200 224 255
200 224 255
200 224 255
200 224 255
200 224 255
200 224 255
201 224 255
201 224 255
201 224 255
201 224 255
201 224 255
201 224 255
201 225 255
201 225 255
201 225 255
202 225 255
202 225 255
202 225 255
202 225 255
202 225 255
202 225 255
202 225 255
202 225 255
203 225 255
203 225 255
203 225 255
203 225 255
203 226 255
203 226 255
203 226 255
203 226 255
204 226 255
204 226 255
204 226 255
204 226 255
204 226 255
204 226 255
204 226 255
204 226 255
205 226 255
205 226 255
205 226 255
205 226 255
205 227 255
205 227 255
205 227 255
205 227 255
205 227 255
206 227 255
206 227 255
206 227 255
206 227 255
206 227 255
206 227 255
206 227 255
206 227 255
206 227 255
206 227 255
207 227 255
207 227 255
207 228 255
207 228 255
207 228 255
207 228 255
207 228 255
207 228 255
207 228 255
207 228 255
208 228 255
208 228 255
208 228 255
208 228 255
208 228 255
208 228 255
208 228 255
208 228 255
208 228 255
208 228 255
208 228 255
208 228 255
208 228 255
208 228 255
208 228 255
208 228 255
208 228 255
208 228 255
208 228 255
208 228 255
208 228 255
207 228 255
207 228 255
207 228 255
207 228 255
207 228 255
207 228 255
207 228 255
207 228 255
207 227 255
207 227 255
206 227 255
206 227 255
206 227 255
206 227 255
206 227 255
206 227 255
206 227 255
206 227 255
206 227 255
205 227 255
205 227 255
205 227 255
205 227 255
205 227 255
205 227 255
205 226 255
205 226 255
205 226 255
204 226 255
204 226 255
204 226 255
204 226 255
204 226 255
204 226 255
204 226 255
204 226 255
204 226 255
203 226 255
203 226 255
203 226 255
203 225 255
203 225 255
203 225 255
203 225 255
203 225 255
202 225 255
202 225 255
202 225 255
202 225 255
202 225 255
202 225 255
202 225 255
202 225 255
201 225 255
201 225 255
201 225 255
201 224 255
201 224 255
201 224 255
201 224 255
201 224 255
201 224 255
200 224 255
200 224 255
200 224 255
200 224 255
200 224 255
200 224 255
200 224 255
200 224 255
200 224 255
199 224 255
199 224 255
199 223 255
199 223 255
199 223 255
199 223 255
199 223 255
199 223 255
199 223 255
199 223 255
199 223 255
199 223 255
199 223 255
199 223 255
199 223 255
199 223 255
198 223 255
198 223 255
198 223 255
198 223 255
198 223 255
198 223 255
198 223 255
198 223 255
198 223 255
198 223 255
198 223 255
198 223 255
198 223 255
198 223 255
198 223 255
198 223 255
199 223 255
199 223 255
199 223 255
199 223 255
199 223 255
199 223 255
199 223 255
199 223 255
199 223 255
199 223 255
199 223 255
199 223 255
199 223 255
199 223 255
199 223 255
199 224 255
199 224 255
200 224 255
200 224 255
200 224 255
200 224 255
200 224 255
200 224 255
200 224 255
200 224 255
200 224 255
201 224 255
201 224 255
201 224 255
201 224 255
201 224 255
201 224 255
201 225 255
201 225 255
201 225 255
202 225 255
202 225 255
202 225 255
202 225 255
202 225 255
202 225 255
202 225 255
202 225 255
203 225 255
203 225 255
203 225 255
203 225 255
203 225 255
203 226 255
203 226 255
203 226 255
204 226 255
204 226 255
204 226 255
204 226 255
204 226 255
204 226 255
204 226 255
204 226 255
204 226 255
205 226 255
205 226 255
205 226 255
205 227 255
205 227 255
205 227 255
205 227 255
205 227 255
206 227 255
206 227 255
206 227 255
206 227 255
206 227 255
206 227 255
206 227 255
206 227 255
206 227 255
206 227 255
207 227 255
207 227 255
207 228 255
207 228 255
207 228 255
207 228 255
207 228 255
207 228 255
207 228 255
207 228 255
208 228 255
208 228 255
208 228 255
208 228 255
208 228 255
208 228 255
208 228 255
208 228 255
208 228 255
208 228 255
208 228 255
208 228 255
209 229 255
209 229 255
209 229 255
209 228 255
208 228 255
208 228 255
208 228 255
208 228 255
208 228 255
208 228 255
208 228 255
208 228 255
208 228 255
208 228 255
208 228 255
207 228 255
207 228 255
207 228 255
207 228 255
207 228 255
207 228 255
207 228 255
207 228 255
207 227 255
207 227 255
206 227 255
206 227 255
206 227 255
206 227 255
206 227 255
206 227 255
206 227 255
206 227 255
206 227 255
206 227 255
205 227 255
205 227 255
205 227 255
205 227 255
205 227 255
205 226 255
205 226 255
205 226 255
204 226 255
204 226 255
204 226 255
204 226 255
204 226 255
204 226 255
204 226 255
204 226 255
204 226 255
203 226 255
203 226 255
203 226 255
203 225 255
203 225 255
203 225 255
203 225 255
203 225 255
202 225 255
202 225 255
202 225 255
202 225 255
202 225 255
202 225 255
202 225 255
202 225 255
201 225 255
201 225 255
201 225 255
201 224 255
201 224 255
201 224 255
201 224 255
201 224 255
201 224 255
200 224 255
200 224 255
200 224 255
200 224 255
200 224 255
200 224 255
200 224 255
200 224 255
200 224 255
200 224 255
200 224 255
199 224 255
199 224 255
199 223 255
199 223 255
199 223 255
199 223 255
199 223 255
199 223 255
199 223 255
199 223 255
199 223 255
199 223 255
199 223 255
199 223 255
199 223 255
199 223 255
199 223 255
199 223 255
199 223 255
199 223 255
199 223 255
199 223 255
199 223 255
199 223 255
199 223 255
199 223 255
199 223 255
199 223 255
199 223 255
199 223 255
199 223 255
199 223 255
199 223 255
199 223 255
199 223 255
199 223 255
199 224 255
199 224 255
199 224 255
200 224 255
200 224 255
200 224 255
200 224 255
200 224 255
200 224 255
200 224 255
200 224 255
200 224 255
200 224 255
200 224 255
201 224 255
201 224 255
201 224 255
201 224 255
201 224 255
201 224 255
201 225 255
201 225 255
201 225 255
202 225 255
202 225 255
202 225 255
202 225 255
202 225 255
202 225 255
202 225 255
202 225 255
203 225 255
203 225 255
203 225 255
203 225 255
203 225 255
203 226 255
203 226 255
203 226 255
203 226 255
204 226 255
204 226 255
204 226 255
204 226 255
204 226 255
204 226 255
204 226 255
204 226 255
205 226 255
205 226 255
205 226 255
205 227 255
205 227 255
205 227 255
205 227 255
205 227 255
205 227 255
206 227 255
206 227 255
206 227 255
206 227 255
206 227 255
206 227 255
206 227 255
206 227 255
206 227 255
207 227 255
207 227 255
207 228 255
207 228 255
207 228 255
207 228 255
207 228 255
207 228 255
207 228 255
207 228 255
208 228 255
208 228 255
208 228 255
208 228 255
208 228 255
208 228 255
208 228 255
208 228 255
208 228 255
208 228 255
208 228 255
209 228 255
209 229 255
209 229 255
209 229 255
209 229 255
209 229 255
209 229 255
209 229 255
209 229 255
209 229 255
209 228 255
208 228 255
208 228 255
208 228 255
208 228 255
208 228 255
208 228 255
208 228 255
208 228 255
208 228 255
208 228 255
208 228 255
207 228 255
207 228 255
207 228 255
207 228 255
207 228 255
207 228 255
207 228 255
207 228 255
207 227 255
207 227 255
206 227 255
206 227 255
206 227 255
206 227 255
206 227 255
206 227 255
206 227 255
206 227 255
206 227 255
205 227 255
205 227 255
205 227 255
205 227 255
205 227 255
205 227 255
205 226 255
205 226 255
205 226 255
204 226 255
204 226 255
204 226 255
204 226 255
204 226 255
204 226 255
204 226 255
204 226 255
203 226 255
203 226 255
203 226 255
203 226 255
203 225 255
203 225 255
203 225 255
203 225 255
203 225 255
202 225 255
202 225 255
202 225 255
202 225 255
202 225 255
202 225 255
202 225 255
202 225 255
201 225 255
201 225 255
201 225 255
201 224 255
201 224 255
201 224 255
201 224 255
201 224 255
201 224 255
201 224 255
200 224 255
200 224 255
200 224 255
200 224 255
200 224 255
200 224 255
200 224 255
200 224 255
200 224 255
200 224 255
200 224 255
200 224 255
200 224 255
199 224 255
199 224 255
199 224 255
199 223 255
199 223 255
199 223 255
199 223 255
199 223 255
199 223 255
199 223 255
199 223 255
199 223 255
199 223 255
199 223 255
199 223 255
199 223 255
199 223 255
199 223 255
199 223 255
199 223 255
199 223 255
199 223 255
199 223 255
199 223 255
199 224 255
199 224 255
199 224 255
199 224 255
200 224 255
200 224 255
200 224 255
200 224 255
200 224 255
200 224 255
200 224 255
200 224 255
200 224 255
200 224 255
200 224 255
200 224 255
201 224 255
201 224 255
201 224 255
201 224 255
201 224 255
201 224 255
201 224 255
201 225 255
201 225 255
201 225 255
202 225 255
202 225 255
202 225 255
202 225 255
202 225 255
202 225 255
202 225 255
202 225 255
203 225 255
203 225 255
203 225 255
203 225 255
203 225 255
203 226 255
203 226 255
203 226 255
203 226 255
204 226 255
204 226 255
204 226 255
204 226 255
204 226 255
204 226 255
204 226 255
204 226 255
205 226 255
205 226 255
205 226 255
205 226 255
205 227 255
205 227 255
205 227 255
205 227 255
205 227 255
206 227 255
206 227 255
206 227 255
206 227 255
206 227 255
206 227 255
206 227 255
206 227 255
206 227 255
207 227 255
207 227 255
207 228 255
207 228 255
207 228 255
207 228 255
207 228 255
207 228 255
207 228 255
207 228 255
208 228 255
208 228 255
208 228 255
208 228 255
208 228 255
208 228 255
208 228 255
208 228 255
208 228 255
208 228 255
208 228 255
209 228 255
209 229 255
209 229 255
209 229 255
209 229 255
209 229 255
209 229 255
209 229 255
209 229 255
209 229 255
209 229 255
209 229 255
209 229 255
209 229 255
209 229 255
209 229 255
209 229 255
208 228 255
208 228 255
208 228 255
208 228 255
208 228 255
208 228 255
208 228 255
208 228 255
208 228 255
208 228 255
208 228 255
207 228 255
207 228 255
207 228 255
207 228 255
207 228 255
207 228 255
207 228 255
207 228 255
207 227 255
207 227 255
206 227 255
206 227 255
206 227 255
206 227 255
206 227 255
206 227 255
206 227 255
206 227 255
206 227 255
205 227 255
205 227 255
205 227 255
205 227 255
205 227 255
205 226 255
205 226 255
205 226 255
205 226 255
204 226 255
204 226 255
204 226 255
204 226 255
204 226 255
204 226 255
204 226 255
204 226 255
204 226 255
203 226 255
203 226 255
203 226 255
203 225 255
203 225 255
203 225 255
203 225 255
203 225 255
202 225 255
202 225 255
202 225 255
202 225 255
202 225 255
202 225 255
202 225 255
202 225 255
202 225 255
201 225 255
201 225 255
201 225 255
201 224 255
201 224 255
201 224 255
201 224 255
201 224 255
201 224 255
201 224 255
200 224 255
200 224 255
200 224 255
200 224 255
200 224 255
200 224 255
200 224 255
200 224 255
200 224 255
200 224 255
200 224 255
200 224 255
200 224 255
200 224 255
200 224 255
200 224 255
200 224 255
200 224 255
199 224 255
199 224 255
199 224 255
199 224 255
199 224 255
199 224 255
199 224 255
199 224 255
200 224 255
200 224 255
200 224 255
200 224 255
200 224 255
200 224 255
200 224 255
200 224 255
200 224 255
200 224 255
200 224 255
200 224 255
200 224 255
200 224 255
200 224 255
200 224 255
200 224 255
200 224 255
200 224 255
201 224 255
201 224 255
201 224 255
201 224 255
201 224 255
201 224 255
201 224 255
201 224 255
201 225 255
201 225 255
202 225 255
202 225 255
202 225 255
202 225 255
202 225 255
202 225 255
202 225 255
202 225 255
202 225 255
203 225 255
203 225 255
203 225 255
203 225 255
203 225 255
203 226 255
203 226 255
203 226 255
203 226 255
204 226 255
204 226 255
204 226 255
204 226 255
204 226 255
204 226 255
204 226 255
204 226 255
205 226 255
205 226 255
205 226 255
205 227 255
205 227 255
205 227 255
205 227 255
205 227 255
205 227 255
206 227 255
206 227 255
206 227 255
206 227 255
206 227 255
206 227 255
206 227 255
206 227 255
206 227 255
207 227 255
207 227 255
207 228 255
207 228 255
207 228 255
207 228 255
207 228 255
207 228 255
207 228 255
207 228 255
208 228 255
208 228 255
208 228 255
208 228 255
208 228 255
208 228 255
208 228 255
208 228 255
208 228 255
208 228 255
208 228 255
209 228 255
209 229 255
209 229 255
209 229 255
209 229 255
209 229 255
209 229 255
209 229 255
209 229 255
209 229 255
210 229 255
209 229 255
209 229 255
209 229 255
209 229 255
209 229 255
209 229 255
209 229 255
209 229 255
209 229 255
209 229 255
209 229 255
209 229 255
209 228 255
208 228 255
208 228 255
208 228 255
208 228 255
208 228 255
208 228 255
208 228 255
208 228 255
208 228 255
208 228 255
207 228 255
207 228 255
207 228 255
207 228 255
207 228 255
207 228 255
207 228 255
207 228 255
207 227 255
207 227 255
206 227 255
206 227 255
206 227 255
206 227 255
206 227 255
206 227 255
206 227 255
206 227 255
206 227 255
205 227 255
205 227 255
205 227 255
205 227 255
205 227 255
205 227 255
205 226 255
205 226 255
205 226 255
204 226 255
204 226 255
204 226 255
204 226 255
204 226 255
204 226 255
204 226 255
204 226 255
203 226 255
203 226 255
203 226 255
203 226 255
203 225 255
203 225 255
203 225 255
203 225 255
203 225 255
202 225 255
202 225 255
202 225 255
202 225 255
202 225 255
202 225 255
202 225 255
202 225 255
202 225 255
201 225 255
201 225 255
201 225 255
201 224 255
201 224 255
201 224 255
201 224 255
201 224 255
201 224 255
201 224 255
201 224 255
201 224 255
200 224 255
200 224 255
200 224 255
200 224 255
200 224 255
200 224 255
200 224 255
200 224 255
200 224 255
200 224 255
200 224 255
200 224 255
200 224 255
200 224 255
200 224 255
200 224 255
200 224 255
200 224 255
200 224 255
200 224 255
200 224 255
200 224 255
200 224 255
200 224 255
200 224 255
200 224 255
200 224 255
200 224 255
200 224 255
200 224 255
200 224 255
200 224 255
200 224 255
200 224 255
200 224 255
201 224 255
201 224 255
201 224 255
201 224 255
201 224 255
201 224 255
201 224 255
201 224 255
201 224 255
201 225 255
201 225 255
201 225 255
202 225 255
202 225 255
202 225 255
202 225 255
202 225 255
202 225 255
202 225 255
202 225 255
202 225 255
203 225 255
203 225 255
203 225 255
203 225 255
203 225 255
203 226 255
203 226 255
203 226 255
203 226 255
204 226 255
204 226 255
204 226 255
204 226 255
204 226 255
204 226 255
204 226 255
204 226 255
205 226 255
205 226 255
205 226 255
205 226 255
205 227 255
205 227 255
205 227 255
205 227 255
205 227 255
206 227 255
206 227 255
206 227 255
206 227 255
206 227 255
206 227 255
206 227 255
206 227 255
206 227 255
207 227 255
207 227 255
207 228 255
207 228 255
207 228 255
207 228 255
207 228 255
207 228 255
207 228 255
207 228 255
208 228 255
208 228 255
208 228 255
208 228 255
208 228 255
208 228 255
208 228 255
208 228 255
208 228 255
208 228 255
209 228 255
209 229 255
209 229 255
209 229 255
209 229 255
209 229 255
209 229 255
209 229 255
209 229 255
209 229 255
209 229 255
209 229 255
209 229 255
210 229 255
210 229 255
210 229 255
210 229 255
210 229 255
210 229 255
209 229 255
209 229 255
209 229 255
209 229 255
209 229 255
209 229 255
209 229 255
209 229 255
209 229 255
209 229 255
209 229 255
209 228 255
208 228 255
208 228 255
208 228 255
208 228 255
208 228 255
208 228 255
208 228 255
208 228 255
208 228 255
208 228 255
208 228 255
207 228 255
207 228 255
207 228 255
207 228 255
207 228 255
207 228 255
207 228 255
207 227 255
207 227 255
206 227 255
206 227 255
206 227 255
206 227 255
206 227 255
206 227 255
206 227 255
206 227 255
206 227 255
205 227 255
205 227 255
205 227 255
205 227 255
205 227 255
205 227 255
205 226 255
205 226 255
205 226 255
204 226 255
204 226 255
204 226 255
204 226 255
204 226 255
204 226 255
204 226 255
204 226 255
204 226 255
203 226 255
203 226 255
203 226 255
203 225 255
203 225 255
203 225 255
203 225 255
203 225 255
202 225 255
202 225 255
202 225 255
202 225 255
202 225 255
202 225 255
202 225 255
202 225 255
202 225 255
202 225 255
202 225 255
201 225 255
201 225 255
201 225 255
201 224 255
201 224 255
201 224 255
201 224 255
201 224 255
201 224 255
201 224 255
201 224 255
201 224 255
201 224 255
201 224 255
200 224 255
200 224 255
200 224 255
200 224 255
200 224 255
200 224 255
200 224 255
200 224 255
200 224 255
200 224 255
200 224 255
200 224 255
200 224 255
200 224 255
200 224 255
200 224 255
200 224 255
200 224 255
200 224 255
200 224 255
200 224 255
201 224 255
201 224 255
201 224 255
201 224 255
201 224 255
201 224 255
201 224 255
201 224 255
201 224 255
201 224 255
201 224 255
201 225 255
201 225 255
201 225 255
201 225 255
202 225 255
202 225 255
202 225 255
202 225 255
202 225 255
202 225 255
202 225 255
202 225 255
202 225 255
203 225 255
203 225 255
203 225 255
203 225 255
203 225 255
203 226 255
203 226 255
203 226 255
203 226 255
204 226 255
204 226 255
204 226 255
204 226 255
204 226 255
204 226 255
204 226 255
204 226 255
204 226 255
205 226 255
205 226 255
205 226 255
205 226 255
205 227 255
205 227 255
205 227 255
205 227 255
205 227 255
206 227 255
206 227 255
206 227 255
206 227 255
206 227 255
206 227 255
206 227 255
206 227 255
206 227 255
207 227 255
207 227 255
207 228 255
207 228 255
207 228 255
207 228 255
207 228 255
207 228 255
207 228 255
207 228 255
208 228 255
208 228 255
208 228 255
208 228 255
208 228 255
208 228 255
208 228 255
208 228 255
208 228 255
208 228 255
209 228 255
209 229 255
209 229 255
209 229 255
209 229 255
209 229 255
209 229 255
209 229 255
209 229 255
209 229 255
209 229 255
209 229 255
210 229 255
210 229 255
210 229 255
210 229 255
210 229 255
210 229 255
210 229 255
210 229 255
210 229 255
210 229 255
210 229 255
210 229 255
210 229 255
210 229 255
209 229 255
209 229 255
209 229 255
209 229 255
209 229 255
209 229 255
209 229 255
209 229 255
209 229 255
209 229 255
209 229 255
208 228 255
208 228 255
208 228 255
208 228 255
208 228 255
208 228 255
208 228 255
208 228 255
208 228 255
208 228 255
208 228 255
207 228 255
207 228 255
207 228 255
207 228 255
207 228 255
207 228 255
207 228 255
207 227 255
207 227 255
206 227 255
206 227 255
206 227 255
206 227 255
206 227 255
206 227 255
206 227 255
206 227 255
206 227 255
206 227 255
205 227 255
205 227 255
205 227 255
205 227 255
205 227 255
205 226 255
205 226 255
205 226 255
204 226 255
204 226 255
204 226 255
204 226 255
204 226 255
204 226 255
204 226 255
204 226 255
204 226 255
203 226 255
203 226 255
203 226 255
203 226 255
203 225 255
203 225 255
203 225 255
203 225 255
203 225 255
202 225 255
202 225 255
202 225 255
202 225 255
202 225 255
202 225 255
202 225 255
202 225 255
202 225 255
202 225 255
202 225 255
201 225 255
201 225 255
201 225 255
201 225 255
201 224 255
201 224 255
201 224 255
201 224 255
201 224 255
201 224 255
201 224 255
201 224 255
201 224 255
201 224 255
201 224 255
201 224 255
201 224 255
201 224 255
201 224 255
201 224 255
201 224 255
201 224 255
201 224 255
201 224 255
201 224 255
201 224 255
201 224 255
201 224 255
201 224 255
201 224 255
201 224 255
201 224 255
201 224 255
201 224 255
201 224 255
201 224 255
201 224 255
201 225 255
201 225 255
201 225 255
201 225 255
202 225 255
202 225 255
202 225 255
202 225 255
202 225 255
202 225 255
202 225 255
202 225 255
202 225 255
202 225 255
202 225 255
203 225 255
203 225 255
203 225 255
203 225 255
203 225 255
203 226 255
203 226 255
203 226 255
203 226 255
204 226 255
204 226 255
204 226 255
204 226 255
204 226 255
204 226 255
204 226 255
204 226 255
204 226 255
205 226 255
205 226 255
205 226 255
205 227 255
205 227 255
205 227 255
205 227 255
205 227 255
206 227 255
206 227 255
206 227 255
206 227 255
206 227 255
206 227 255
206 227 255
206 227 255
206 227 255
206 227 255
207 227 255
207 227 255
207 228 255
207 228 255
207 228 255
207 228 255
207 228 255
207 228 255
207 228 255
208 228 255
208 228 255
208 228 255
208 228 255
208 228 255
208 228 255
208 228 255
208 228 255
208 228 255
208 228 255
208 228 255
209 228 255
209 229 255
209 229 255
209 229 255
209 229 255
209 229 255
209 229 255
209 229 255
209 229 255
209 229 255
209 229 255
210 229 255
210 229 255
210 229 255
210 229 255
210 229 255
210 229 255
210 229 255
210 229 255
210 229 255
210 229 255
210 229 255
210 229 255
210 229 255
210 229 255
210 229 255
210 229 255
210 229 255
210 229 255
210 229 255
210 229 255
210 229 255
209 229 255
209 229 255
209 229 255
209 229 255
209 229 255
209 229 255
209 229 255
209 229 255
209 229 255
209 229 255
209 229 255
209 228 255
208 228 255
208 228 255
208 228 255
208 228 255
208 228 255
208 228 255
208 228 255
208 228 255
208 228 255
208 228 255
207 228 255
207 228 255
207 228 255
207 228 255
207 228 255
207 228 255
207 228 255
207 227 255
207 227 255
207 227 255
206 227 255
206 227 255
206 227 255
206 227 255
206 227 255
206 227 255
206 227 255
206 227 255
206 227 255
205 227 255
205 227 255
205 227 255
205 227 255
205 227 255
205 226 255
205 226 255
205 226 255
205 226 255
204 226 255
204 226 255
204 226 255
204 226 255
204 226 255
204 226 255
204 226 255
204 226 255
203 226 255
203 226 255
203 226 255
203 226 255
203 226 255
203 225 255
203 225 255
203 225 255
203 225 255
203 225 255
203 225 255
202 225 255
202 225 255
202 225 255
202 225 255
202 225 255
202 225 255
202 225 255
202 225 255
202 225 255
202 225 255
202 225 255
202 225 255
201 225 255
201 225 255
201 225 255
201 225 255
201 225 255
201 225 255
201 225 255
201 224 255
201 224 255
201 224 255
201 224 255
201 224 255
201 224 255
201 224 255
201 224 255
201 224 255
201 224 255
201 224 255
201 224 255
201 224 255
201 224 255
201 224 255
201 225 255
201 225 255
201 225 255
201 225 255
201 225 255
201 225 255
202 225 255
202 225 255
202 225 255
202 225 255
202 225 255
202 225 255
202 225 255
202 225 255
202 225 255
202 225 255
202 225 255
202 225 255
202 225 255
202 225 255
203 225 255
203 225 255
203 225 255
203 225 255
203 225 255
203 226 255
203 226 255
203 226 255
203 226 255
204 226 255
204 226 255
204 226 255
204 226 255
204 226 255
204 226 255
204 226 255
204 226 255
204 226 255
204 226 255
205 226 255
205 226 255
205 226 255
205 227 255
205 227 255
205 227 255
205 227 255
205 227 255
206 227 255
206 227 255
206 227 255
206 227 255
206 227 255
206 227 255
206 227 255
206 227 255
206 227 255
207 227 255
207 227 255
207 227 255
207 228 255
207 228 255
207 228 255
207 228 255
207 228 255
207 228 255
207 228 255
208 228 255
208 228 255
208 228 255
208 228 255
208 228 255
208 228 255
208 228 255
208 228 255
208 228 255
208 228 255
209 228 255
209 229 255
209 229 255
209 229 255
209 229 255
209 229 255
209 229 255
209 229 255
209 229 255
209 229 255
209 229 255
209 229 255
210 229 255
210 229 255
210 229 255
210 229 255
210 229 255
210 229 255
210 229 255
210 229 255
210 229 255
210 229 255
210 229 255
210 230 255
211 230 255
211 230 255
211 230 255
210 230 255
210 229 255
210 229 255
210 229 255
210 229 255
210 229 255
210 229 255
210 229 255
210 229 255
210 229 255
210 229 255
210 229 255
210 229 255
209 229 255
209 229 255
209 229 255
209 229 255
209 229 255
209 229 255
209 229 255
209 229 255
209 229 255
209 229 255
209 228 255
208 228 255
208 228 255
208 228 255
208 228 255
208 228 255
208 228 255
208 228 255
208 228 255
208 228 255
208 228 255
208 228 255
207 228 255
207 228 255
207 228 255
207 228 255
207 228 255
207 228 255
207 228 255
207 227 255
207 227 255
206 227 255
206 227 255
206 227 255
206 227 255
206 227 255
206 227 255
206 227 255
206 227 255
206 227 255
205 227 255
205 227 255
205 227 255
205 227 255
205 227 255
205 226 255
205 226 255
205 226 255
205 226 255
204 226 255
204 226 255
204 226 255
204 226 255
204 226 255
204 226 255
204 226 255
204 226 255
204 226 255
203 226 255
203 226 255
203 226 255
203 226 255
203 226 255
203 225 255
203 225 255
203 225 255
203 225 255
203 225 255
203 225 255
202 225 255
202 225 255
202 225 255
202 225 255
202 225 255
202 225 255
202 225 255
202 225 255
202 225 255
202 225 255
202 225 255
202 225 255
202 225 255
202 225 255
202 225 255
202 225 255
202 225 255
202 225 255
202 225 255
202 225 255
202 225 255
202 225 255
202 225 255
201 225 255
202 225 255
202 225 255
202 225 255
202 225 255
202 225 255
202 225 255
202 225 255
202 225 255
202 225 255
202 225 255
202 225 255
202 225 255
202 225 255
202 225 255
202 225 255
202 225 255
202 225 255
202 225 255
202 225 255
202 225 255
202 225 255
203 225 255
203 225 255
203 225 255
203 225 255
203 225 255
203 225 255
203 226 255
203 226 255
203 226 255
203 226 255
204 226 255
204 226 255
204 226 255
204 226 255
204 226 255
204 226 255
204 226 255
204 226 255
204 226 255
204 226 255
205 226 255
205 226 255
205 226 255
205 226 255
205 227 255
205 227 255
205 227 255
205 227 255
205 227 255
206 227 255
206 227 255
206 227 255
206 227 255
206 227 255
206 227 255
206 227 255
206 227 255
206 227 255
207 227 255
207 227 255
207 228 255
207 228 255
207 228 255
207 228 255
207 228 255
207 228 255
207 228 255
207 228 255
208 228 255
208 228 255
208 228 255
208 228 255
208 228 255
208 228 255
208 228 255
208 228 255
208 228 255
208 228 255
209 228 255
209 229 255
209 229 255
209 229 255
209 229 255
209 229 255
209 229 255
209 229 255
209 229 255
209 229 255
209 229 255
210 229 255
210 229 255
210 229 255
210 229 255
210 229 255
210 229 255
210 229 255
210 229 255
210 229 255
210 229 255
210 229 255
210 229 255
210 230 255
211 230 255
211 230 255
211 230 255
211 230 255
211 230 255
211 230 255
211 230 255
211 230 255
211 230 255
211 230 255
210 230 255
210 229 255
210 229 255
210 229 255
210 229 255
210 229 255
210 229 255
210 229 255
210 229 255
210 229 255
209 229 255
206 225 251
204 223 250
202 221 248
199 219 245
199 218 245
195 215 242
192 212 239
191 211 239
191 211 238
193 213 240
192 212 239
191 211 238
192 213 240
194 215 242
194 215 242
198 218 246
199 219 246
203 223 251
204 224 252
208 228 255
208 228 255
208 228 255
208 228 255
207 228 255
207 228 255
207 228 255
207 228 255
207 228 255
207 228 255
207 228 255
207 227 255
207 227 255
207 227 255
206 227 255
206 227 255
206 227 255
206 227 255
206 227 255
206 227 255
206 227 255
206 227 255
206 227 255
205 227 255
205 227 255
205 227 255
205 227 255
205 227 255
205 226 255
205 226 255
205 226 255
205 226 255
204 226 255
204 226 255
204 226 255
204 226 255
204 226 255
204 226 255
204 226 255
204 226 255
204 226 255
204 226 255
203 226 255
203 226 255
203 226 255
203 226 255
203 225 255
203 225 255
203 225 255
203 225 255
203 225 255
203 225 255
203 225 255
203 225 255
202 225 255
202 225 255
202 225 255
202 225 255
202 225 255
202 225 255
202 225 255
202 225 255
202 225 255
202 225 255
202 225 255
202 225 255
202 225 255
202 225 255
202 225 255
202 225 255
202 225 255
202 225 255
202 225 255
202 225 255
202 225 255
202 225 255
202 225 255
202 225 255
202 225 255
202 225 255
202 225 255
202 225 255
202 225 255
202 225 255
202 225 255
202 225 255
202 225 255
203 225 255
203 225 255
203 225 255
203 225 255
203 225 255
203 225 255
203 225 255
203 225 255
203 226 255
203 226 255
203 226 255
203 226 255
204 226 255
204 226 255
204 226 255
204 226 255
204 226 255
204 226 255
204 226 255
204 226 255
204 226 255
204 226 255
205 226 255
205 226 255
205 226 255
205 226 255
205 227 255
205 227 255
205 227 255
205 227 255
205 227 255
206 227 255
206 227 255
206 227 255
206 227 255
206 227 255
206 227 255
206 227 255
206 227 255
206 227 255
206 227 255
207 227 255
207 227 255
207 228 255
207 228 255
207 228 255
207 228 255
207 228 255
207 228 255
207 228 255
208 228 255
208 228 255
208 228 255
207 227 252
207 225 249
202 218 232
198 209 212
196 206 206
193 201 192
193 200 190
192 198 186
191 196 181
193 200 191
191 195 177
191 196 181
191 195 177
194 200 190
196 204 199
197 206 204
197 205 202
202 214 221
203 216 226
206 222 241
209 228 252
210 229 255
210 229 255
210 229 255
210 229 255
210 229 255
210 229 255
210 229 255
210 229 255
210 229 255
210 230 255
211 230 255
211 230 255
211 230 255
211 230 255
211 230 255
211 230 255
211 230 255
211 230 255
211 230 255
211 230 255
211 230 255
211 230 255
211 230 255
211 230 255
211 230 255
211 230 255
211 230 255
211 230 255
210 229 255
205 224 250
201 220 246
198 217 243
189 209 235
185 205 232
181 201 228
180 201 228
179 200 228
178 200 228
178 200 228
177 199 228
176 199 228
176 198 228
175 198 228
175 198 228
175 198 228
175 198 228
174 198 228
174 198 228
174 198 228
174 198 228
175 198 228
175 198 228
176 198 228
176 199 228
177 199 228
182 204 232
186 208 236
193 213 241
195 215 243
202 222 250
207 227 255
208 228 255
207 228 255
207 228 255
207 228 255
207 228 255
207 228 255
207 228 255
207 228 255
207 227 255
207 227 255
206 227 255
206 227 255
206 227 255
206 227 255
206 227 255
206 227 255
206 227 255
206 227 255
206 227 255
205 227 255
205 227 255
205 227 255
205 227 255
205 227 255
205 227 255
205 226 255
205 226 255
205 226 255
205 226 255
204 226 255
204 226 255
204 226 255
204 226 255
204 226 255
204 226 255
204 226 255
204 226 255
204 226 255
204 226 255
203 226 255
203 226 255
203 226 255
203 226 255
203 226 255
203 226 255
203 225 255
203 225 255
203 225 255
203 225 255
203 225 255
203 225 255
203 225 255
203 225 255
203 225 255
203 225 255
203 225 255
202 225 255
202 225 255
202 225 255
202 225 255
202 225 255
202 225 255
202 225 255
202 225 255
202 225 255
202 225 255
202 225 255
202 225 255
202 225 255
202 225 255
202 225 255
203 225 255
203 225 255
203 225 255
203 225 255
203 225 255
203 225 255
203 225 255
203 225 255
203 225 255
203 225 255
203 225 255
203 226 255
203 226 255
203 226 255
203 226 255
203 226 255
203 226 255
204 226 255
204 226 255
204 226 255
204 226 255
204 226 255
204 226 255
204 226 255
204 226 255
204 226 255
204 226 255
205 226 255
205 226 255
205 226 255
205 226 255
205 227 255
205 227 255
205 227 255
205 227 255
205 227 255
205 227 255
206 227 255
206 227 255
206 227 255
206 227 255
206 227 255
206 227 255
206 227 255
206 227 255
206 227 255
207 227 255
207 227 255
207 228 255
207 228 255
207 228 255
207 228 255
207 228 255
207 228 255
207 228 255
208 228 255
207 227 253
203 220 237
197 208 211
193 200 192
187 190 166
181 179 135
177 172 114
176 172 114
175 172 114
175 171 114
175 171 114
174 171 114
174 171 114
174 171 114
175 171 114
175 171 114
175 171 114
175 172 114
175 172 114
176 172 114
176 172 114
177 172 114
178 173 114
178 173 114
179 173 114
180 174 114
182 176 118
188 188 156
188 186 150
197 203 195
202 214 220
205 218 231
210 228 252
211 230 255
211 230 255
211 230 255
211 230 255
211 230 255
211 230 255
211 230 255
211 230 255
211 230 255
211 230 255
211 230 255
212 230 255
211 230 255
211 230 255
211 230 255
211 230 255
211 230 255
211 230 255
210 228 254
203 222 247
198 216 242
188 207 232
183 203 229
181 201 228
180 201 228
179 200 228
178 200 228
177 199 228
176 199 228
176 199 228
175 198 228
174 198 228
174 198 228
173 197 228
173 197 228
172 197 228
172 197 228
172 196 228
171 196 228
171 196 228
171 196 228
170 196 228
170 196 228
170 196 228
170 196 228
170 196 228
170 196 228
170 196 228
171 196 228
171 196 228
172 196 228
172 197 228
174 197 228
174 198 228
176 199 229
186 208 236
193 214 242
199 220 247
205 225 253
207 228 255
207 228 255
207 228 255
207 228 255
207 228 255
207 228 255
207 228 255
207 227 255
207 227 255
207 227 255
206 227 255
206 227 255
206 227 255
206 227 255
206 227 255
206 227 255
206 227 255
206 227 255
206 227 255
205 227 255
205 227 255
205 227 255
205 227 255
205 227 255
205 227 255
205 226 255
205 226 255
205 226 255
205 226 255
204 226 255
204 226 255
204 226 255
204 226 255
204 226 255
204 226 255
204 226 255
204 226 255
204 226 255
204 226 255
204 226 255
204 226 255
203 226 255
203 226 255
203 226 255
203 226 255
203 226 255
203 226 255
203 226 255
203 226 255
203 225 255
203 225 255
203 225 255
203 225 255
203 225 255
203 225 255
203 225 255
203 225 255
203 225 255
203 225 255
203 225 255
203 225 255
203 225 255
203 225 255
203 225 255
203 225 255
203 225 255
203 225 255
203 225 255
203 225 255
203 225 255
203 226 255
203 226 255
203 226 255
203 226 255
203 226 255
203 226 255
203 226 255
203 226 255
204 226 255
204 226 255
204 226 255
204 226 255
204 226 255
204 226 255
204 226 255
204 226 255
204 226 255
204 226 255
204 226 255
204 226 255
205 226 255
205 226 255
205 226 255
205 226 255
205 227 255
205 227 255
205 227 255
205 227 255
205 227 255
205 227 255
206 227 255
206 227 255
206 227 255
206 227 255
206 227 255
206 227 255
206 227 255
206 227 255
206 227 255
207 227 255
207 227 255
207 227 255
207 228 255
207 228 255
207 228 255
207 228 255
207 228 255
207 228 255
207 228 255
206 224 247
199 213 221
194 203 199
183 183 146
176 173 116
174 171 114
174 171 114
172 170 114
172 170 114
171 170 114
171 170 114
170 169 114
170 169 114
170 169 114
170 169 114
170 169 114
170 169 114
170 169 114
171 170 114
171 170 114
171 170 114
172 170 114
172 170 114
172 170 114
173 171 114
173 171 114
174 171 114
174 171 114
175 172 114
176 172 114
176 172 114
177 172 114
178 173 114
179 173 114
180 174 114
181 174 114
184 179 127
189 188 155
197 202 191
201 210 211
208 224 243
211 230 255
211 230 255
211 230 255
211 230 255
211 230 255
211 230 255
212 230 255
212 230 255
212 230 255
212 230 255
212 230 255
206 224 249
198 217 242
193 211 237
183 203 228
182 202 228
180 201 228
179 200 228
179 200 228
178 199 228
177 199 228
176 199 228
175 198 228
175 198 228
174 198 228
173 197 228
173 197 228
172 197 228
172 196 228
171 196 228
171 196 228
170 196 228
170 195 228
170 195 228
169 195 228
169 195 228
168 195 228
168 195 228
168 194 228
168 194 228
168 194 228
167 194 228
167 194 228
168 194 228
167 194 228
168 194 228
168 194 228
168 195 228
168 195 228
169 195 228
170 195 228
170 196 228
172 196 228
173 197 228
176 198 228
185 206 235
195 216 243
201 222 249
208 228 255
207 228 255
207 228 255
207 228 255
207 228 255
207 228 255
207 228 255
207 228 255
207 227 255
207 227 255
207 227 255
206 227 255
206 227 255
206 227 255
206 227 255
206 227 255
206 227 255
206 227 255
206 227 255
206 227 255
205 227 255
205 227 255
205 227 255
205 227 255
205 227 255
205 227 255
205 227 255
205 226 255
205 226 255
205 226 255
205 226 255
204 226 255
204 226 255
204 226 255
204 226 255
204 226 255
204 226 255
204 226 255
204 226 255
204 226 255
204 226 255
204 226 255
204 226 255
204 226 255
204 226 255
204 226 255
204 226 255
203 226 255
203 226 255
203 226 255
203 226 255
203 226 255
203 226 255
203 226 255
203 226 255
203 226 255
203 226 255
203 226 255
203 226 255
203 226 255
203 226 255
203 226 255
203 226 255
203 226 255
203 226 255
203 226 255
204 226 255
204 226 255
204 226 255
204 226 255
204 226 255
204 226 255
204 226 255
204 226 255
204 226 255
204 226 255
204 226 255
204 226 255
204 226 255
204 226 255
204 226 255
204 226 255
205 226 255
205 226 255
205 226 255
205 226 255
205 226 255
205 227 255
205 227 255
205 227 255
205 227 255
205 227 255
205 227 255
206 227 255
206 227 255
206 227 255
206 227 255
206 227 255
206 227 255
206 227 255
206 227 255
206 227 255
206 227 255
207 227 255
207 227 255
207 228 255
207 228 255
207 228 255
207 228 255
207 228 255
207 228 255
207 228 255
207 227 254
203 219 236
194 203 199
185 187 160
177 174 121
173 171 114
172 170 114
171 170 114
170 169 114
169 169 114
169 169 114
168 168 114
168 168 114
168 168 114
168 168 114
167 168 114
168 168 114
168 168 114
168 168 114
168 168 114
168 168 114
168 168 114
169 169 114
169 169 114
169 169 114
170 169 114
170 169 114
170 169 114
171 170 114
171 170 114
172 170 114
172 170 114
173 170 114
173 171 114
174 171 114
175 171 114
175 172 114
176 172 114
177 172 114
178 173 114
178 173 114
179 174 114
181 174 114
182 175 114
184 176 116
191 191 161
198 204 195
209 224 243
212 230 255
212 230 255
212 230 255
212 230 255
212 230 255
208 226 251
201 219 244
190 209 234
183 203 228
182 202 228
181 201 228
180 201 228
179 200 228
178 200 228
177 199 228
176 199 228
176 199 228
175 198 228
174 198 228
174 197 228
173 197 228
173 197 228
172 197 228
171 196 228
171 196 228
170 196 228
170 195 228
169 195 228
169 195 228
168 195 228
168 195 228
168 194 228
167 194 228
167 194 228
167 194 228
166 194 228
166 194 228
166 193 228
166 193 228
166 193 228
166 193 228
165 193 228
166 193 228
166 193 228
166 193 228
166 193 228
166 193 228
166 194 228
167 194 228
168 194 228
168 195 228
169 195 228
171 196 228
172 196 228
174 198 228
182 204 232
191 213 241
205 225 253
208 228 255
208 228 255
207 228 255
207 228 255
207 228 255
207 228 255
207 228 255
207 228 255
207 228 255
207 227 255
207 227 255
206 227 255
206 227 255
206 227 255
206 227 255
206 227 255
206 227 255
206 227 255
206 227 255
206 227 255
206 227 255
206 227 255
205 227 255
205 227 255
205 227 255
205 227 255
205 227 255
205 227 255
205 226 255
205 226 255
205 226 255
205 226 255
205 226 255
204 226 255
204 226 255
204 226 255
204 226 255
204 226 255
204 226 255
204 226 255
204 226 255
204 226 255
204 226 255
204 226 255
204 226 255
204 226 255
204 226 255
204 226 255
204 226 255
204 226 255
204 226 255
204 226 255
204 226 255
204 226 255
204 226 255
204 226 255
204 226 255
204 226 255
204 226 255
204 226 255
204 226 255
204 226 255
204 226 255
204 226 255
204 226 255
204 226 255
204 226 255
204 226 255
204 226 255
204 226 255
204 226 255
204 226 255
204 226 255
205 226 255
205 226 255
205 226 255
205 226 255
205 226 255
205 227 255
205 227 255
205 227 255
205 227 255
205 227 255
205 227 255
205 227 255
206 227 255
206 227 255
206 227 255
206 227 255
206 227 255
206 227 255
206 227 255
206 227 255
206 227 255
206 227 255
207 227 255
207 227 255
207 227 255
207 228 255
207 228 255
207 228 255
207 228 255
207 228 255
207 228 255
207 228 255
208 228 255
208 228 255
204 220 239
194 202 198
182 182 146
175 171 114
172 170 114
170 169 114
169 169 114
168 168 114
167 168 114
167 168 114
166 168 114
166 167 114
166 167 114
166 167 114
166 167 114
165 167 114
166 167 114
166 167 114
166 167 114
166 167 114
166 167 114
166 168 114
166 168 114
167 168 114
167 168 114
167 168 114
168 168 114
168 168 114
169 169 114
169 169 114
169 169 114
170 169 114
170 169 114
171 170 114
171 170 114
172 170 114
173 170 114
173 171 114
174 171 114
174 171 114
175 172 114
176 172 114
176 172 114
177 173 114
178 173 114
179 173 114
180 174 114
181 174 114
182 175 114
184 175 114
188 182 135
198 202 190
209 224 241
212 230 255
192 210 234
184 203 228
183 202 228
182 202 228
181 201 228
180 201 228
179 200 228
178 200 228
177 199 228
177 199 228
176 199 228
175 198 228
174 198 228
174 198 228
173 197 228
173 197 228
172 197 228
172 196 228
171 196 228
171 196 228
170 195 228
170 195 228
169 195 228
169 195 228
168 195 228
168 194 228
167 194 228
167 194 228
167 194 228
166 193 228
166 193 228
165 193 228
165 193 228
165 193 228
165 193 228
164 193 228
164 193 228
164 192 228
164 192 228
164 192 228
164 192 228
164 192 228
164 192 228
164 193 228
165 193 228
165 193 228
165 193 228
166 193 228
167 194 228
167 194 228
169 195 228
170 196 228
172 197 228
174 198 228
184 206 235
198 219 246
207 227 254
208 228 255
208 228 255
208 228 255
207 228 255
207 228 255
207 228 255
207 228 255
207 228 255
207 228 255
207 228 255
207 227 255
207 227 255
207 227 255
206 227 255
206 227 255
206 227 255
206 227 255
206 227 255
206 227 255
206 227 255
206 227 255
206 227 255
206 227 255
206 227 255
205 227 255
205 227 255
205 227 255
205 227 255
205 227 255
205 227 255
205 227 255
205 227 255
205 226 255
205 226 255
205 226 255
205 226 255
205 226 255
205 226 255
205 226 255
204 226 255
204 226 255
204 226 255
204 226 255
204 226 255
204 226 255
204 226 255
204 226 255
204 226 255
204 226 255
204 226 255
204 226 255
204 226 255
204 226 255
204 226 255
204 226 255
204 226 255
204 226 255
204 226 255
204 226 255
204 226 255
204 226 255
204 226 255
205 226 255
205 226 255
205 226 255
205 226 255
205 226 255
205 226 255
205 226 255
205 227 255
205 227 255
205 227 255
205 227 255
205 227 255
205 227 255
205 227 255
205 227 255
206 227 255
206 227 255
206 227 255
206 227 255
206 227 255
206 227 255
206 227 255
206 227 255
206 227 255
206 227 255
206 227 255
207 227 255
207 227 255
207 228 255
207 228 255
207 228 255
207 228 255
207 228 255
207 228 255
207 228 255
207 228 255
208 228 255
208 228 255
208 228 255
207 226 251
195 204 200
184 185 151
175 171 114
172 170 114
170 169 114
168 169 114
167 168 114
167 168 114
166 167 114
165 167 114
165 167 114
165 167 114
164 167 114
164 167 114
164 167 114
164 167 114
164 167 114
164 167 114
164 167 114
164 167 114
164 167 114
165 167 114
165 167 114
165 167 114
165 167 114
166 167 114
166 168 114
167 168 114
167 168 114
167 168 114
168 168 114
168 168 114
169 169 114
169 169 114
170 169 114
170 169 114
170 169 114
171 170 114
172 170 114
172 170 114
173 170 114
173 171 114
174 171 114
174 171 114
175 172 114
176 172 114
177 172 114
177 173 114
178 173 114
179 173 114
180 174 114
181 174 114
182 175 114
183 175 114
184 176 114
193 191 160
183 202 228
182 202 228
181 201 228
180 201 228
179 200 228
178 200 228
178 200 228
177 199 228
176 199 228
176 198 228
175 198 228
174 198 228
174 197 228
173 197 228
173 197 228
172 197 228
172 196 228
171 196 228
170 196 228
170 195 228
169 195 228
169 195 228
169 195 228
168 194 228
168 194 228
167 194 228
167 194 228
166 194 228
166 193 228
166 193 228
165 193 228
165 193 228
165 193 228
164 193 228
164 192 228
164 192 228
164 192 228
163 192 228
163 192 228
163 192 228
163 192 228
163 192 228
163 192 228
163 192 228
163 192 228
163 192 228
163 192 228
164 192 228
164 193 228
165 193 228
166 193 228
166 194 228
167 194 228
169 195 228
171 196 228
173 197 228
178 200 230
193 214 242
205 225 252
208 228 255
208 228 255
208 228 255
208 228 255
208 228 255
207 228 255
207 228 255
207 228 255
207 228 255
207 228 255
207 228 255
207 228 255
207 228 255
207 227 255
207 227 255
207 227 255
206 227 255
206 227 255
206 227 255
206 227 255
206 227 255
206 227 255
206 227 255
206 227 255
206 227 255
206 227 255
206 227 255
206 227 255
205 227 255
205 227 255
205 227 255
205 227 255
205 227 255
205 227 255
205 227 255
205 227 255
205 227 255
205 227 255
205 227 255
205 226 255
205 226 255
205 226 255
205 226 255
205 226 255
205 226 255
205 226 255
205 226 255
205 226 255
205 226 255
205 226 255
205 226 255
205 226 255
205 226 255
205 226 255
205 226 255
205 226 255
205 226 255
205 226 255
205 227 255
205 227 255
205 227 255
205 227 255
205 227 255
205 227 255
205 227 255
205 227 255
205 227 255
205 227 255
205 227 255
206 227 255
206 227 255
206 227 255
206 227 255
206 227 255
206 227 255
206 227 255
206 227 255
206 227 255
206 227 255
206 227 255
206 227 255
207 227 255
207 227 255
207 227 255
207 228 255
207 228 255
207 228 255
207 228 255
207 228 255
207 228 255
207 228 255
207 228 255
208 228 255
208 228 255
208 228 255
208 228 255
208 228 255
205 222 243
194 202 195
180 179 137
173 171 114
171 170 114
169 169 114
167 168 114
167 168 114
166 167 114
165 167 114
164 167 114
164 166 114
163 166 114
163 166 114
163 166 114
163 166 114
163 166 114
163 166 114
163 166 114
163 166 114
163 166 114
163 166 114
164 166 114
164 166 114
164 167 114
164 167 114
165 167 114
165 167 114
165 167 114
166 167 114
166 167 114
166 168 114
167 168 114
167 168 114
168 168 114
168 168 114
168 169 114
169 169 114
169 169 114
170 169 114
170 169 114
171 170 114
172 170 114
172 170 114
173 170 114
173 171 114
174 171 114
174 171 114
175 172 114
176 172 114
176 172 114
177 172 114
178 173 114
178 173 114
179 173 114
180 174 114
181 174 114
182 175 114
183 175 114
182 202 228
181 201 228
180 201 228
179 200 228
178 200 228
178 200 228
177 199 228
176 199 228
176 198 228
175 198 228
174 198 228
174 198 228
173 197 228
173 197 228
172 197 228
172 196 228
171 196 228
171 196 228
170 196 228
170 195 228
169 195 228
169 195 228
168 195 228
168 194 228
167 194 228
167 194 228
167 194 228
166 193 228
166 193 228
165 193 228
165 193 228
165 193 228
164 193 228
164 192 228
164 192 228
163 192 228
163 192 228
163 192 228
163 192 228
163 192 228
162 192 228
162 191 228
162 191 228
162 191 228
162 191 228
162 191 228
162 192 228
163 192 228
163 192 228
163 192 228
164 192 228
164 192 228
165 193 228
166 193 228
167 194 228
168 195 228
170 195 228
172 197 228
177 199 229
188 209 237
205 225 252
208 228 255
208 228 255
208 228 255
208 228 255
208 228 255
208 228 255
208 228 255
208 228 255
207 228 255
207 228 255
207 228 255
207 228 255
207 228 255
207 228 255
207 228 255
207 228 255
207 227 255
207 227 255
207 227 255
206 227 255
206 227 255
206 227 255
206 227 255
206 227 255
206 227 255
206 227 255
206 227 255
206 227 255
206 227 255
206 227 255
206 227 255
206 227 255
206 227 255
206 227 255
206 227 255
205 227 255
205 227 255
205 227 255
205 227 255
205 227 255
205 227 255
203 225 254
180 202 238
173 195 234
161 184 226
156 179 221
144 168 214
149 172 217
154 177 222
165 187 227
189 210 244
200 221 252
205 227 255
205 227 255
205 227 255
205 227 255
205 227 255
205 227 255
205 227 255
206 227 255
206 227 255
206 227 255
206 227 255
206 227 255
206 227 255
206 227 255
206 227 255
206 227 255
206 227 255
206 227 255
206 227 255
206 227 255
206 227 255
206 227 255
207 227 255
207 227 255
207 227 255
207 228 255
207 228 255
207 228 255
207 228 255
207 228 255
207 228 255
207 228 255
207 228 255
208 228 255
208 228 255
208 228 255
208 228 255
208 228 255
208 228 255
208 228 255
208 228 255
206 223 244
190 195 178
178 175 125
173 170 114
170 169 114
168 168 114
167 168 114
166 167 114
165 167 114
164 167 114
164 166 114
163 166 114
163 166 114
163 166 114
162 166 114
162 166 114
162 166 114
162 166 114
162 166 114
162 166 114
162 166 114
163 166 114
163 166 114
163 166 114
163 166 114
163 166 114
164 166 114
164 167 114
164 167 114
165 167 114
165 167 114
165 167 114
166 167 114
166 168 114
167 168 114
167 168 114
167 168 114
168 168 114
168 168 114
169 169 114
169 169 114
170 169 114
170 169 114
171 170 114
171 170 114
172 170 114
172 170 114
173 171 114
173 171 114
174 171 114
174 171 114
175 172 114
176 172 114
176 172 114
177 172 114
178 173 114
178 173 114
179 173 114
180 174 114
181 174 114
182 175 114
181 201 228
180 201 228
179 200 228
178 200 228
178 200 228
177 199 228
177 199 228
176 199 228
175 198 228
175 198 228
174 198 228
174 197 228
173 197 228
173 197 228
172 197 228
172 196 228
171 196 228
171 196 228
170 196 228
170 195 228
169 195 228
169 195 228
168 195 228
168 194 228
167 194 228
167 194 228
167 194 228
166 194 228
166 193 228
165 193 228
165 193 228
165 193 228
164 193 228
164 192 228
164 192 228
163 192 228
163 192 228
163 192 228
163 192 228
162 192 228
162 191 228
162 191 228
162 191 228
162 191 228
162 191 228
162 191 228
162 191 228
162 191 228
162 191 228
162 191 228
162 192 228
163 192 228
163 192 228
164 192 228
165 193 228
166 193 228
167 194 228
168 195 228
170 196 228
173 197 228
177 200 229
193 213 241
207 227 254
208 228 255
208 228 255
208 228 255
208 228 255
208 228 255
208 228 255
208 228 255
208 228 255
208 228 255
208 228 255
208 228 255
207 228 255
207 228 255
207 228 255
207 228 255
207 228 255
207 228 255
207 228 255
207 228 255
207 228 255
207 227 255
207 227 255
207 227 255
207 227 255
206 227 255
206 227 255
206 227 255
206 227 255
206 227 255
206 227 255
206 227 255
206 227 255
206 227 255
206 227 255
206 227 255
200 221 252
171 193 230
133 157 208
94 123 187
68 103 180
62 99 173
62 99 175
62 99 174
62 98 174
61 98 174
62 99 176
62 99 179
62 99 177
62 99 179
62 99 177
100 128 188
152 175 218
175 197 235
205 226 255
206 227 255
206 227 255
206 227 255
206 227 255
206 227 255
206 227 255
206 227 255
206 227 255
206 227 255
206 227 255
206 227 255
206 227 255
207 227 255
207 227 255
207 227 255
207 228 255
207 228 255
207 228 255
207 228 255
207 228 255
207 228 255
207 228 255
207 228 255
207 228 255
208 228 255
208 228 255
208 228 255
208 228 255
208 228 255
208 228 255
208 228 255
208 228 255
208 228 255
208 228 255
208 228 255
207 226 250
191 197 184
177 174 123
172 170 114
170 169 114
168 168 114
167 168 114
166 167 114
165 167 114
164 166 114
163 166 114
163 166 114
163 166 114
162 166 114
162 166 114
162 166 114
162 166 114
162 166 114
162 166 114
162 166 114
162 166 114
162 166 114
162 166 114
162 166 114
163 166 114
163 166 114
163 166 114
163 166 114
164 166 114
164 167 114
164 167 114
165 167 114
165 167 114
165 167 114
166 167 114
166 168 114
167 168 114
167 168 114
167 168 114
168 168 114
168 168 114
169 169 114
169 169 114
170 169 114
170 169 114
171 170 114
171 170 114
172 170 114
172 170 114
173 170 114
173 171 114
174 171 114
174 171 114
175 171 114
175 172 114
176 172 114
177 172 114
177 172 114
178 173 114
178 173 114
179 173 114
180 174 114
181 174 114
180 201 228
179 200 228
179 200 228
178 200 228
178 199 228
177 199 228
176 199 228
176 199 228
175 198 228
175 198 228
174 198 228
174 197 228
173 197 228
173 197 228
172 197 228
172 196 228
171 196 228
171 196 228
170 196 228
170 195 228
169 195 228
169 195 228
169 195 228
168 194 228
168 194 228
167 194 228
167 194 228
166 194 228
166 193 228
166 193 228
165 193 228
165 193 228
165 193 228
164 192 228
164 192 228
164 192 228
163 192 228
163 192 228
163 192 228
162 192 228
162 191 228
162 191 228
162 191 228
162 191 228
162 191 228
161 191 228
161 191 228
161 191 228
162 191 228
162 191 228
162 191 228
162 191 228
162 192 228
163 192 228
163 192 228
164 192 228
165 193 228
166 193 228
167 194 228
168 195 228
171 196 228
173 197 228
180 202 231
198 218 245
209 229 255
209 229 255
209 229 255
209 228 255
208 228 255
208 228 255
208 228 255
208 228 255
208 228 255
208 228 255
208 228 255
208 228 255
208 228 255
208 228 255
208 228 255
207 228 255
207 228 255
207 228 255
207 228 255
207 228 255
207 228 255
207 228 255
207 228 255
207 228 255
207 228 255
207 228 255
207 227 255
207 227 255
207 227 255
207 227 255
207 227 255
206 227 255
191 212 245
142 165 212
62 99 174
62 99 176
62 98 171
62 99 174
63 100 177
62 99 170
63 99 170
61 98 171
62 99 173
62 99 168
62 98 168
62 98 172
62 98 171
62 98 169
62 98 167
61 98 170
62 98 175
62 98 174
76 109 181
142 165 212
193 214 246
207 227 255
207 227 255
207 227 255
207 227 255
207 227 255
207 228 255
207 228 255
207 228 255
207 228 255
207 228 255
207 228 255
207 228 255
207 228 255
207 228 255
207 228 255
207 228 255
207 228 255
208 228 255
208 228 255
208 228 255
208 228 255
208 228 255
208 228 255
208 228 255
208 228 255
208 228 255
208 228 255
208 228 255
209 228 255
209 229 255
209 229 255
209 228 254
199 210 213
181 179 135
174 171 114
171 170 114
169 169 114
167 168 114
166 167 114
165 167 114
164 167 114
163 166 114
163 166 114
162 166 114
162 166 114
162 166 114
162 166 114
162 165 114
161 165 114
161 165 114
161 165 114
162 165 114
162 166 114
162 166 114
162 166 114
162 166 114
162 166 114
163 166 114
163 166 114
163 166 114
164 166 114
164 166 114
164 167 114
165 167 114
165 167 114
165 167 114
166 167 114
166 167 114
166 168 114
167 168 114
167 168 114
168 168 114
168 168 114
169 169 114
169 169 114
169 169 114
170 169 114
170 169 114
171 170 114
171 170 114
172 170 114
172 170 114
173 170 114
173 171 114
174 171 114
174 171 114
175 171 114
175 172 114
176 172 114
176 172 114
177 172 114
178 173 114
178 173 114
179 173 114
179 174 114
180 174 114
180 201 228
179 200 228
179 200 228
178 200 228
178 199 228
177 199 228
176 199 228
176 199 228
175 198 228
175 198 228
174 198 228
174 198 228
173 197 228
173 197 228
172 197 228
172 197 228
172 196 228
171 196 228
171 196 228
170 196 228
170 195 228
169 195 228
169 195 228
168 195 228
168 194 228
168 194 228
167 194 228
167 194 228
166 194 228
166 193 228
166 193 228
165 193 228
165 193 228
165 193 228
164 193 228
164 192 228
164 192 228
163 192 228
163 192 228
163 192 228
162 192 228
162 192 228
162 191 228
162 191 228
162 191 228
162 191 228
162 191 228
161 191 228
161 191 228
161 191 228
162 191 228
162 191 228
162 191 228
162 191 228
163 192 228
163 192 228
164 192 228
164 193 228
165 193 228
166 194 228
168 194 228
169 195 228
172 196 228
175 198 228
190 210 238
205 225 251
209 229 255
209 229 255
209 229 255
209 229 255
209 229 255
209 229 255
209 228 255
208 228 255
208 228 255
208 228 255
208 228 255
208 228 255
208 228 255
208 228 255
208 228 255
208 228 255
208 228 255
208 228 255
208 228 255
208 228 255
207 228 255
207 228 255
207 228 255
207 228 255
207 228 255
207 228 255
207 228 255
207 228 255
190 211 244
132 156 208
65 101 173
62 99 174
62 98 173
63 99 175
63 99 175
61 98 172
62 99 172
62 98 168
63 99 173
62 99 168
62 98 169
62 98 167
62 99 171
62 98 168
62 98 166
62 98 170
62 98 168
62 99 171
62 98 168
62 98 169
62 99 172
62 98 172
62 98 174
111 138 197
176 198 235
207 228 255
207 228 255
207 228 255
207 228 255
207 228 255
207 228 255
207 228 255
207 228 255
208 228 255
208 228 255
208 228 255
208 228 255
208 228 255
208 228 255
208 228 255
208 228 255
208 228 255
208 228 255
208 228 255
208 228 255
208 228 255
209 228 255
209 229 255
209 229 255
209 229 255
209 229 255
209 229 255
209 229 255
206 224 244
187 188 160
175 172 114
172 170 114
170 169 114
168 168 114
166 168 114
165 167 114
164 167 114
164 166 114
163 166 114
163 166 114
162 166 114
162 166 114
162 166 114
162 165 114
161 165 114
161 165 114
161 165 114
162 165 114
162 165 114
162 166 114
162 166 114
162 166 114
162 166 114
163 166 114
163 166 114
163 166 114
163 166 114
164 166 114
164 167 114
164 167 114
165 167 114
165 167 114
165 167 114
166 167 114
166 167 114
166 168 114
167 168 114
167 168 114
168 168 114
168 168 114
168 169 114
169 169 114
169 169 114
170 169 114
170 169 114
171 170 114
171 170 114
172 170 114
172 170 114
172 170 114
173 171 114
173 171 114
174 171 114
174 171 114
175 171 114
175 172 114
176 172 114
176 172 114
177 172 114
177 173 114
178 173 114
179 173 114
179 173 114
180 174 114
180 201 228
179 200 228
179 200 228
178 200 228
178 200 228
177 199 228
177 199 228
176 199 228
176 198 228
175 198 228
175 198 228
174 198 228
174 197 228
173 197 228
173 197 228
172 197 228
172 197 228
172 196 228
171 196 228
171 196 228
170 196 228
170 195 228
169 195 228
169 195 228
169 195 228
168 195 228
168 194 228
167 194 228
167 194 228
167 194 228
166 194 228
166 193 228
166 193 228
165 193 228
165 193 228
164 193 228
164 192 228
164 192 228
164 192 228
163 192 228
163 192 228
163 192 228
163 192 228
162 192 228
162 191 228
162 191 228
162 191 228
162 191 228
162 191 228
162 191 228
162 191 228
162 191 228
162 191 228
162 191 228
162 192 228
163 192 228
163 192 228
164 192 228
164 193 228
165 193 228
166 193 228
167 194 228
169 195 228
171 196 228
173 197 228
180 202 230
198 218 244
209 228 255
209 229 255
209 229 255
209 229 255
209 229 255
209 229 255
209 229 255
209 229 255
209 229 255
209 229 255
209 229 255
209 228 255
208 228 255
208 228 255
208 228 255
208 228 255
208 228 255
208 228 255
208 228 255
208 228 255
208 228 255
208 228 255
208 228 255
208 228 255
208 228 255
200 220 249
128 152 203
61 97 172
62 99 176
61 98 166
62 99 172
61 98 172
62 98 167
61 98 161
62 98 169
62 98 168
62 99 173
62 98 165
62 98 170
63 99 173
62 98 169
62 98 169
62 98 169
61 98 170
62 99 171
62 98 170
62 98 168
62 99 169
62 99 173
62 99 169
62 98 168
62 99 172
62 98 173
62 98 168
132 156 203
195 216 247
208 228 255
208 228 255
208 228 255
208 228 255
208 228 255
208 228 255
208 228 255
208 228 255
208 228 255
208 228 255
208 228 255
208 228 255
208 228 255
209 228 255
209 229 255
209 229 255
209 229 255
209 229 255
209 229 255
209 229 255
209 229 255
209 229 255
209 229 255
209 229 255
209 229 255
199 209 212
179 174 118
174 171 114
171 170 114
169 169 114
167 168 114
166 167 114
165 167 114
164 167 114
164 166 114
163 166 114
163 166 114
162 166 114
162 166 114
162 166 114
162 166 114
162 166 114
162 166 114
162 166 114
162 166 114
162 166 114
162 166 114
162 166 114
162 166 114
163 166 114
163 166 114
163 166 114
163 166 114
164 166 114
164 166 114
164 167 114
164 167 114
165 167 114
165 167 114
166 167 114
166 167 114
166 168 114
167 168 114
167 168 114
167 168 114
168 168 114
168 168 114
169 169 114
169 169 114
169 169 114
170 169 114
170 169 114
171 170 114
171 170 114
172 170 114
172 170 114
172 170 114
173 171 114
173 171 114
174 171 114
174 171 114
175 171 114
175 172 114
176 172 114
176 172 114
177 172 114
177 172 114
178 173 114
178 173 114
179 173 114
179 173 114
180 174 114
180 201 228
179 200 228
179 200 228
178 200 228
178 200 228
177 199 228
177 199 228
176 199 228
176 199 228
176 198 228
175 198 228
175 198 228
174 198 228
174 197 228
173 197 228
173 197 228
172 197 228
172 197 228
172 196 228
171 196 228
171 196 228
170 196 228
170 196 228
170 195 228
169 195 228
169 195 228
168 195 228
168 194 228
168 194 228
167 194 228
167 194 228
167 194 228
166 194 228
166 193 228
166 193 228
165 193 228
165 193 228
165 193 228
164 193 228
164 192 228
164 192 228
163 192 228
163 192 228
163 192 228
163 192 228
163 192 228
162 192 228
162 192 228
162 191 228
162 191 228
162 191 228
162 191 228
162 191 228
162 192 228
162 192 228
163 192 228
163 192 228
163 192 228
164 192 228
164 193 228
165 193 228
166 193 228
167 194 228
169 195 228
171 196 228
173 197 228
177 199 228
192 212 238
209 228 254
210 229 255
210 229 255
210 229 255
210 229 255
209 229 255
209 229 255
209 229 255
209 229 255
209 229 255
209 229 255
209 229 255
209 229 255
209 229 255
209 229 255
209 229 255
209 229 255
209 229 255
209 228 255
208 228 255
208 228 255
208 228 255
208 228 255
173 194 231
70 104 176
62 98 172
61 98 168
61 98 170
62 99 175
62 98 170
62 98 169
62 98 168
62 98 166
62 99 173
62 98 167
62 99 166
62 99 170
62 99 168
62 98 162
61 98 167
63 99 169
62 98 164
62 98 162
61 97 166
63 99 169
62 98 168
61 97 162
62 98 167
62 98 171
62 98 170
61 98 162
61 97 164
62 98 171
62 98 169
82 113 181
155 177 220
208 228 255
208 228 255
208 228 255
208 228 255
209 228 255
209 228 255
209 229 255
209 229 255
209 229 255
209 229 255
209 229 255
209 229 255
209 229 255
209 229 255
209 229 255
209 229 255
209 229 255
209 229 255
209 229 255
210 229 255
210 229 255
210 229 255
208 226 248
192 196 178
176 172 114
173 170 114
171 169 114
169 169 114
167 168 114
166 168 114
165 167 114
164 167 114
164 166 114
163 166 114
163 166 114
163 166 114
162 166 114
162 166 114
162 166 114
162 166 114
162 166 114
162 166 114
162 166 114
162 166 114
162 166 114
163 166 114
163 166 114
163 166 114
163 166 114
163 166 114
164 166 114
164 167 114
164 167 114
165 167 114
165 167 114
165 167 114
166 167 114
166 167 114
166 168 114
167 168 114
167 168 114
167 168 114
168 168 114
168 168 114
168 169 114
169 169 114
169 169 114
170 169 114
170 169 114
170 169 114
171 170 114
171 170 114
172 170 114
172 170 114
173 170 114
173 171 114
173 171 114
174 171 114
174 171 114
175 171 114
175 172 114
176 172 114
176 172 114
176 172 114
177 172 114
177 173 114
178 173 114
178 173 114
179 173 114
179 174 114
180 174 114
180 201 228
180 201 228
179 200 228
179 200 228
178 200 228
178 200 228
177 199 228
177 199 228
176 199 228
176 199 228
176 198 228
175 198 228
175 198 228
174 198 228
174 198 228
174 197 228
173 197 228
173 197 228
172 197 228
172 197 228
172 196 228
171 196 228
171 196 228
170 196 228
170 196 228
170 195 228
169 195 228
169 195 228
169 195 228
168 195 228
168 194 228
167 194 228
167 194 228
167 194 228
166 194 228
166 193 228
166 193 228
165 193 228
165 193 228
165 193 228
165 193 228
164 193 228
164 192 228
164 192 228
164 192 228
163 192 228
163 192 228
163 192 228
163 192 228
163 192 228
163 192 228
163 192 228
163 192 228
163 192 228
163 192 228
163 192 228
163 192 228
163 192 228
164 192 228
164 193 228
165 193 228
166 193 228
166 194 228
168 194 228
169 195 228
171 196 228
173 197 228
176 199 228
185 206 233
207 227 253
210 229 255
210 229 255
210 229 255
210 229 255
210 229 255
210 229 255
210 229 255
210 229 255
210 229 255
209 229 255
209 229 255
209 229 255
209 229 255
209 229 255
209 229 255
209 229 255
209 229 255
209 229 255
209 229 255
207 227 254
137 160 206
61 98 172
62 99 174
62 98 166
63 99 171
62 98 171
62 98 170
62 98 169
62 98 166
62 99 165
62 98 167
62 98 171
62 99 168
61 97 158
62 98 163
61 98 167
62 99 171
62 99 171
62 99 170
61 98 164
62 98 161
62 98 163
62 98 167
63 99 165
61 98 166
61 97 161
62 98 165
62 98 167
62 98 168
62 98 162
61 97 162
62 99 174
61 97 166
61 97 166
139 162 207
208 228 255
209 229 255
209 229 255
209 229 255
209 229 255
209 229 255
209 229 255
209 229 255
209 229 255
209 229 255
209 229 255
210 229 255
210 229 255
210 229 255
210 229 255
210 229 255
210 229 255
210 229 255
210 229 255
210 229 255
207 223 242
185 183 144
176 172 114
173 170 114
171 170 114
169 169 114
168 168 114
166 168 114
166 167 114
165 167 114
164 167 114
164 166 114
163 166 114
163 166 114
163 166 114
163 166 114
163 166 114
163 166 114
163 166 114
163 166 114
163 166 114
163 166 114
163 166 114
163 166 114
163 166 114
164 166 114
164 166 114
164 167 114
164 167 114
165 167 114
165 167 114
165 167 114
165 167 114
166 167 114
166 167 114
166 168 114
167 168 114
167 168 114
167 168 114
168 168 114
168 168 114
168 169 114
169 169 114
169 169 114
170 169 114
170 169 114
170 169 114
171 170 114
171 170 114
172 170 114
172 170 114
172 170 114
173 171 114
173 171 114
174 171 114
174 171 114
174 171 114
175 171 114
175 172 114
176 172 114
176 172 114
177 172 114
177 172 114
177 173 114
178 173 114
178 173 114
179 173 114
179 173 114
180 174 114
180 174 114
180 201 228
180 201 228
180 201 228
179 200 228
179 200 228
178 200 228
178 200 228
177 199 228
177 199 228
177 199 228
176 199 228
176 199 228
175 198 228
175 198 228
175 198 228
174 198 228
174 198 228
173 197 228
173 197 228
173 197 228
172 197 228
172 197 228
172 196 228
171 196 228
171 196 228
171 196 228
170 196 228
170 195 228
169 195 228
169 195 228
169 195 228
168 195 228
168 194 228
168 194 228
167 194 228
167 194 228
167 194 228
166 194 228
166 193 228
166 193 228
166 193 228
165 193 228
165 193 228
165 193 228
165 193 228
164 193 228
164 192 228
164 192 228
164 192 228
164 192 228
164 192 228
163 192 228
163 192 228
163 192 228
163 192 228
164 192 228
164 192 228
164 192 228
164 192 228
165 193 228
165 193 228
166 193 228
166 194 228
167 194 228
168 194 228
169 195 228
171 196 228
173 197 228
176 199 228
183 204 231
206 225 251
211 230 255
210 230 255
210 230 255
210 229 255
210 229 255
210 229 255
210 229 255
210 229 255
210 229 255
210 229 255
210 229 255
210 229 255
210 229 255
210 229 255
210 229 255
210 229 255
209 229 255
207 227 254
122 146 191
60 96 164
63 99 170
61 97 160
62 98 166
63 99 166
62 98 169
63 99 167
61 97 158
62 98 168
62 98 171
62 98 164
61 97 157
62 98 164
61 98 162
61 98 166
62 98 165
62 98 163
62 98 166
62 98 161
61 97 166
62 98 166
61 97 157
62 98 166
62 98 165
62 99 173
62 99 167
62 98 165
62 98 168
62 98 166
61 97 163
62 97 162
62 98 166
62 98 169
62 98 164
61 97 168
119 143 194
205 224 252
209 229 255
210 229 255
210 229 255
210 229 255
210 229 255
210 229 255
210 229 255
210 229 255
210 229 255
210 229 255
210 229 255
210 229 255
210 229 255
210 229 255
210 230 255
210 230 255
211 230 255
205 218 231
183 178 129
176 172 114
173 171 114
171 170 114
169 169 114
168 168 114
167 168 114
166 168 114
166 167 114
165 167 114
165 167 114
164 167 114
164 166 114
164 166 114
164 166 114
163 166 114
163 166 114
163 166 114
163 166 114
163 166 114
164 166 114
164 166 114
164 167 114
164 167 114
164 167 114
165 167 114
165 167 114
165 167 114
165 167 114
166 167 114
166 167 114
166 167 114
166 168 114
167 168 114
167 168 114
167 168 114
168 168 114
168 168 114
168 169 114
169 169 114
169 169 114
169 169 114
170 169 114
170 169 114
171 169 114
171 170 114
171 170 114
172 170 114
172 170 114
172 170 114
173 170 114
173 171 114
174 171 114
174 171 114
174 171 114
175 171 114
175 172 114
175 172 114
176 172 114
176 172 114
177 172 114
177 172 114
177 173 114
178 173 114
178 173 114
179 173 114
179 173 114
180 174 114
180 174 114
180 174 114
181 201 228
180 201 228
180 201 228
180 201 228
179 200 228
179 200 228
179 200 228
178 200 228
178 200 228
177 199 228
177 199 228
177 199 228
176 199 228
176 199 228
175 198 228
175 198 228
175 198 228
174 198 228
174 198 228
174 197 228
173 197 228
173 197 228
173 197 228
172 197 228
172 196 228
171 196 228
171 196 228
171 196 228
170 196 228
170 196 228
170 195 228
169 195 228
169 195 228
169 195 228
168 195 228
168 194 228
168 194 228
167 194 228
167 194 228
167 194 228
167 194 228
166 194 228
166 193 228
166 193 228
166 193 228
165 193 228
165 193 228
165 193 228
165 193 228
165 193 228
165 193 228
164 193 228
164 193 228
164 193 228
164 193 228
164 193 228
164 193 228
165 193 228
165 193 228
165 193 228
165 193 228
166 193 228
166 194 228
167 194 228
168 194 228
169 195 228
170 195 228
171 196 228
173 197 228
176 199 228
181 202 229
205 223 249
211 230 255
211 230 255
211 230 255
211 230 255
211 230 255
211 230 255
211 230 255
211 230 255
210 230 255
210 229 255
210 229 255
210 229 255
210 229 255
210 229 255
210 229 255
208 227 254
105 132 188
61 97 168
62 98 171
62 97 166
62 98 167
63 99 172
62 98 164
62 98 167
62 98 165
62 98 166
62 98 163
63 99 168
62 98 163
62 98 159
62 98 159
63 99 167
62 99 167
62 98 165
62 98 157
62 99 167
60 96 159
62 98 158
62 97 160
62 98 163
61 97 156
60 96 151
61 97 152
62 98 159
62 97 161
62 98 168
62 97 160
62 98 168
62 97 164
60 96 160
62 98 166
61 97 162
61 97 161
62 97 162
103 129 184
201 220 248
210 229 255
210 229 255
210 229 255
210 229 255
210 229 255
210 229 255
210 230 255
211 230 255
211 230 255
211 230 255
211 230 255
211 230 255
211 230 255
211 230 255
211 230 255
204 216 225
182 177 125
176 172 114
173 171 114
171 170 114
170 169 114
169 169 114
168 168 114
167 168 114
166 168 114
166 167 114
165 167 114
165 167 114
165 167 114
165 167 114
164 167 114
164 167 114
164 167 114
164 167 114
164 167 114
164 167 114
165 167 114
165 167 114
165 167 114
165 167 114
165 167 114
165 167 114
166 167 114
166 167 114
166 167 114
166 168 114
167 168 114
167 168 114
167 168 114
167 168 114
168 168 114
168 168 114
168 169 114
169 169 114
169 169 114
169 169 114
170 169 114
170 169 114
170 169 114
171 170 114
171 170 114
171 170 114
172 170 114
172 170 114
173 170 114
173 171 114
173 171 114
174 171 114
174 171 114
174 171 114
175 171 114
175 172 114
175 172 114
176 172 114
176 172 114
177 172 114
177 172 114
177 173 114
178 173 114
178 173 114
179 173 114
179 173 114
179 173 114
180 174 114
180 174 114
180 174 114
181 174 114
181 202 228
181 201 228
181 201 228
180 201 228
180 201 228
180 201 228
179 200 228
179 200 228
178 200 228
178 200 228
178 200 228
177 199 228
177 199 228
177 199 228
176 199 228
176 199 228
176 198 228
175 198 228
175 198 228
175 198 228
174 198 228
174 198 228
174 197 228
173 197 228
173 197 228
173 197 228
172 197 228
172 196 228
172 196 228
171 196 228
171 196 228
171 196 228
170 196 228
170 195 228
170 195 228
169 195 228
169 195 228
169 195 228
168 195 228
168 195 228
168 194 228
168 194 228
167 194 228
167 194 228
167 194 228
167 194 228
166 194 228
166 194 228
166 193 228
166 193 228
166 193 228
166 193 228
165 193 228
165 193 228
165 193 228
165 193 228
165 193 228
165 193 228
166 193 228
166 193 228
166 193 228
166 194 228
167 194 228
167 194 228
168 194 228
169 195 228
170 195 228
171 196 228
172 197 228
174 198 228
177 199 228
181 202 229
206 225 250
211 230 255
211 230 255
211 230 255
211 230 255
211 230 255
211 230 255
211 230 255
211 230 255
211 230 255
211 230 255
211 230 255
211 230 255
211 230 255
206 225 252
114 139 195
60 96 164
60 96 162
61 97 167
61 97 161
62 98 163
61 97 160
63 99 166
61 97 162
62 98 168
61 97 158
62 98 163
62 97 157
61 97 168
62 98 163
61 97 158
62 98 162
61 98 162
61 97 151
61 98 162
62 98 163
62 98 165
61 97 159
62 98 158
62 97 159
61 97 158
62 97 159
62 98 163
61 97 156
62 97 157
63 98 163
61 97 158
61 97 156
62 98 163
61 96 155
61 96 159
61 97 163
60 95 155
61 96 154
61 95 160
108 133 180
209 228 254
211 230 255
211 230 255
211 230 255
211 230 255
211 230 255
211 230 255
211 230 255
211 230 255
211 230 255
211 230 255
211 230 255
211 230 255
211 230 255
205 218 228
183 178 127
177 172 114
174 171 114
172 170 114
171 170 114
170 169 114
169 169 114
168 168 114
167 168 114
167 168 114
166 168 114
166 167 114
166 167 114
166 167 114
165 167 114
165 167 114
165 167 114
165 167 114
165 167 114
165 167 114
165 167 114
166 167 114
166 167 114
166 167 114
166 168 114
166 168 114
167 168 114
167 168 114
167 168 114
167 168 114
168 168 114
168 168 114
168 168 114
168 169 114
169 169 114
169 169 114
169 169 114
170 169 114
170 169 114
170 169 114
170 169 114
171 170 114
171 170 114
171 170 114
172 170 114
172 170 114
172 170 114
173 171 114
173 171 114
174 171 114
174 171 114
174 171 114
175 171 114
175 171 114
175 172 114
176 172 114
176 172 114
176 172 114
177 172 114
177 172 114
177 173 114
178 173 114
178 173 114
178 173 114
179 173 114
179 173 114
180 174 114
180 174 114
180 174 114
181 174 114
181 174 114
181 174 114
182 202 228
182 202 228
181 202 228
181 201 228
181 201 228
180 201 228
180 201 228
180 201 228
179 200 228
179 200 228
179 200 228
178 200 228
178 200 228
178 199 228
177 199 228
177 199 228
177 199 228
176 199 228
176 199 228
176 198 228
175 198 228
175 198 228
175 198 228
174 198 228
174 198 228
174 197 228
173 197 228
173 197 228
173 197 228
172 197 228
172 197 228
172 196 228
171 196 228
171 196 228
171 196 228
171 196 228
170 196 228
170 195 228
170 195 228
169 195 228
169 195 228
169 195 228
169 195 228
168 195 228
168 194 228
168 194 228
168 194 228
167 194 228
167 194 228
167 194 228
167 194 228
167 194 228
167 194 228
167 194 228
166 194 228
166 194 228
166 194 228
167 194 228
167 194 228
167 194 228
167 194 228
167 194 228
167 194 228
168 194 228
168 195 228
169 195 228
170 195 228
171 196 228
172 196 228
173 197 228
175 198 228
178 200 228
183 203 230
204 222 247
212 230 255
212 230 255
212 230 255
212 230 255
212 230 255
212 230 255
211 230 255
211 230 255
211 230 255
211 230 255
211 230 255
209 228 254
134 156 202
60 96 160
61 97 164
60 96 161
60 97 163
62 98 164
61 97 155
61 98 165
62 98 162
61 97 159
63 99 163
61 97 157
61 97 160
61 97 156
62 98 164
61 96 151
63 99 162
61 97 154
62 98 162
62 98 160
62 98 157
61 97 156
62 98 157
62 98 164
63 98 158
62 98 162
61 97 151
61 97 158
62 97 154
61 97 160
61 97 159
61 96 152
61 97 161
61 96 157
62 98 164
62 98 162
62 98 160
62 97 164
62 97 159
61 96 160
61 95 153
61 96 159
132 154 196
210 229 254
211 230 255
211 230 255
211 230 255
211 230 255
211 230 255
212 230 255
212 230 255
212 230 255
212 230 255
212 230 255
212 230 255
207 221 234
183 178 125
178 173 114
175 172 114
173 171 114
172 170 114
171 170 114
170 169 114
169 169 114
168 169 114
168 168 114
168 168 114
167 168 114
167 168 114
167 168 114
167 168 114
167 168 114
167 168 114
167 168 114
167 168 114
167 168 114
167 168 114
167 168 114
167 168 114
167 168 114
167 168 114
167 168 114
168 168 114
168 168 114
168 168 114
168 168 114
169 169 114
169 169 114
169 169 114
169 169 114
170 169 114
170 169 114
170 169 114
171 169 114
171 170 114
171 170 114
171 170 114
172 170 114
172 170 114
172 170 114
173 170 114
173 171 114
173 171 114
174 171 114
174 171 114
174 171 114
175 171 114
175 171 114
175 172 114
176 172 114
176 172 114
176 172 114
177 172 114
177 172 114
177 173 114
178 173 114
178 173 114
178 173 114
179 173 114
179 173 114
179 173 114
180 174 114
180 174 114
180 174 114
181 174 114
181 174 114
181 174 114
182 175 114
182 175 114
183 202 228
182 202 228
182 202 228
182 202 228
181 202 228
181 201 228
181 201 228
180 201 228
180 201 228
180 201 228
179 200 228
179 200 228
179 200 228
178 200 228
178 200 228
178 200 228
178 199 228
177 199 228
177 199 228
177 199 228
176 199 228
176 199 228
176 198 228
175 198 228
175 198 228
175 198 228
174 198 228
174 198 228
174 198 228
174 197 228
173 197 228
173 197 228
173 197 228
172 197 228
172 197 228
172 196 228
171 196 228
171 196 228
171 196 228
171 196 228
170 196 228
170 196 228
170 195 228
170 195 228
169 195 228
169 195 228
169 195 228
169 195 228
169 195 228
168 195 228
168 195 228
168 195 228
168 194 228
168 194 228
168 194 228
168 194 228
168 194 228
168 194 228
168 194 228
168 194 228
168 194 228
168 195 228
168 195 228
169 195 228
169 195 228
170 195 228
170 196 228
171 196 228
172 197 228
173 197 228
174 198 228
176 199 228
179 200 228
185 204 230
209 228 252
212 231 255
212 231 255
212 230 255
212 230 255
212 230 255
212 230 255
212 230 255
212 230 255
212 230 255
212 230 255
153 174 215
60 95 163
60 95 162
62 97 160
63 99 175
61 97 161
61 97 162
61 96 154
62 98 164
61 97 156
62 98 156
62 98 164
62 97 158
62 97 156
62 98 158
62 98 162
62 98 157
62 98 164
61 97 155
62 98 162
62 97 156
63 99 162
62 98 157
62 98 164
62 98 160
61 97 148
61 97 156
61 96 151
62 98 157
62 97 160
62 97 160
61 96 155
62 96 155
62 98 166
62 98 161
61 96 157
61 96 155
61 95 155
61 95 151
62 98 163
61 96 159
63 98 169
61 96 163
60 94 156
151 172 207
212 230 255
212 230 255
212 230 255
212 230 255
212 230 255
212 230 255
212 230 255
212 231 255
212 231 255
212 231 255
211 228 249
186 180 131
179 173 114
176 172 114
175 171 114
173 171 114
172 170 114
171 170 114
170 169 114
170 169 114
169 169 114
169 169 114
168 169 114
168 168 114
168 168 114
168 168 114
168 168 114
168 168 114
168 168 114
168 168 114
168 168 114
168 168 114
168 168 114
168 168 114
168 169 114
169 169 114
169 169 114
169 169 114
169 169 114
169 169 114
169 169 114
170 169 114
170 169 114
170 169 114
170 169 114
171 170 114
171 170 114
171 170 114
172 170 114
172 170 114
172 170 114
172 170 114
173 170 114
173 171 114
173 171 114
174 171 114
174 171 114
174 171 114
174 171 114
175 171 114
175 172 114
175 172 114
176 172 114
176 172 114
176 172 114
177 172 114
177 172 114
177 173 114
178 173 114
178 173 114
178 173 114
179 173 114
179 173 114
179 173 114
179 174 114
180 174 114
180 174 114
180 174 114
181 174 114
181 174 114
181 174 114
182 175 114
182 175 114
182 175 114
183 175 114
183 203 228
183 202 228
183 202 228
183 202 228
182 202 228
182 202 228
182 202 228
181 201 228
181 201 228
181 201 228
180 201 228
180 201 228
180 201 228
179 201 228
179 200 228
179 200 228
179 200 228
178 200 228
178 200 228
178 200 228
177 199 228
177 199 228
177 199 228
177 199 228
176 199 228
176 199 228
176 199 228
175 198 228
175 198 228
175 198 228
175 198 228
174 198 228
174 198 228
174 197 228
173 197 228
173 197 228
173 197 228
173 197 228
172 197 228
172 197 228
172 196 228
172 196 228
171 196 228
171 196 228
171 196 228
171 196 228
171 196 228
170 196 228
170 196 228
170 195 228
170 195 228
170 195 228
169 195 228
169 195 228
169 195 228
169 195 228
169 195 228
169 195 228
169 195 228
169 195 228
169 195 228
169 195 228
170 195 228
170 195 228
170 196 228
171 196 228
171 196 228
172 196 228
172 197 228
173 197 228
174 198 228
176 199 228
178 200 228
180 201 228
192 211 236
212 230 255
213 231 255
213 231 255
213 231 255
213 231 255
213 231 255
213 231 255
212 231 255
212 231 255
182 201 234
69 101 168
61 96 163
61 97 165
61 96 155
61 96 158
61 97 160
61 98 167
61 97 166
61 97 160
60 96 154
62 98 160
61 97 155
62 98 160
61 97 157
61 97 158
61 97 147
62 98 161
61 97 153
61 97 159
62 98 159
61 97 158
61 96 146
62 97 154
61 97 151
63 99 160
61 96 152
62 97 156
60 95 153
61 97 154
61 96 153
61 97 159
62 97 154
61 96 153
61 97 160
61 96 153
63 99 165
62 97 158
61 96 149
61 97 163
60 94 145
62 97 160
61 95 155
61 96 156
61 96 159
63 95 152
185 203 231
212 231 255
212 231 255
213 231 255
213 231 255
213 231 255
213 231 255
213 231 255
213 231 255
213 230 254
191 189 156
181 174 114
178 173 114
176 172 114
175 171 114
173 171 114
172 170 114
172 170 114
171 170 114
171 169 114
170 169 114
170 169 114
170 169 114
169 169 114
169 169 114
169 169 114
169 169 114
169 169 114
169 169 114
169 169 114
169 169 114
169 169 114
170 169 114
170 169 114
170 169 114
170 169 114
170 169 114
170 169 114
171 169 114
171 170 114
171 170 114
171 170 114
171 170 114
172 170 114
172 170 114
172 170 114
172 170 114
173 170 114
173 171 114
173 171 114
174 171 114
174 171 114
174 171 114
174 171 114
175 171 114
175 171 114
175 172 114
175 172 114
176 172 114
176 172 114
176 172 114
177 172 114
177 172 114
177 173 114
177 173 114
178 173 114
178 173 114
178 173 114
179 173 114
179 173 114
179 173 114
179 174 114
180 174 114
180 174 114
180 174 114
181 174 114
181 174 114
181 174 114
182 175 114
182 175 114
182 175 114
182 175 114
183 175 114
183 175 114
183 175 114
184 203 228
184 203 228
184 203 228
183 203 228
183 202 228
183 202 228
182 202 228
182 202 228
182 202 228
182 202 228
181 202 228
181 201 228
181 201 228
181 201 228
180 201 228
180 201 228
180 201 228
179 200 228
179 200 228
179 200 228
179 200 228
178 200 228
178 200 228
178 200 228
178 199 228
177 199 228
177 199 228
177 199 228
177 199 228
176 199 228
176 199 228
176 199 228
175 198 228
175 198 228
175 198 228
175 198 228
174 198 228
174 198 228
174 198 228
174 197 228
173 197 228
173 197 228
173 197 228
173 197 228
172 197 228
172 197 228
172 197 228
172 197 228
172 196 228
171 196 228
171 196 228
171 196 228
171 196 228
171 196 228
171 196 228
171 196 228
171 196 228
171 196 228
171 196 228
171 196 228
171 196 228
171 196 228
171 196 228
171 196 228
171 196 228
172 196 228
172 197 228
173 197 228
173 197 228
174 198 228
175 198 228
176 199 228
177 199 228
179 200 228
182 202 228
200 217 242
213 231 255
213 231 255
213 231 255
213 231 255
213 231 255
213 231 255
213 231 255
209 227 252
99 125 180
60 96 163
61 96 161
60 95 151
61 97 159
61 97 161
60 95 152
60 96 149
60 96 152
61 97 152
61 97 157
61 97 153
61 97 155
62 97 158
62 98 166
61 97 158
62 98 161
62 98 160
61 96 151
62 98 155
62 98 154
62 98 159
63 99 161
63 99 163
61 96 148
62 97 153
61 97 156
61 97 155
61 97 152
62 98 161
60 95 145
61 96 154
61 97 155
61 96 150
61 96 154
61 97 159
61 97 152
60 95 143
61 96 157
62 97 160
61 95 148
61 96 159
60 94 145
59 93 148
60 93 146
58 89 139
99 124 173
207 225 249
213 231 255
213 231 255
213 231 255
213 231 255
213 231 255
213 231 255
213 231 255
198 201 187
182 175 114
180 174 114
177 173 114
176 172 114
175 171 114
174 171 114
173 171 114
173 170 114
172 170 114
172 170 114
171 170 114
171 170 114
171 170 114
171 170 114
171 170 114
171 170 114
171 170 114
171 170 114
171 170 114
171 170 114
171 170 114
171 170 114
171 170 114
171 170 114
171 170 114
171 170 114
172 170 114
172 170 114
172 170 114
172 170 114
172 170 114
173 170 114
173 171 114
173 171 114
173 171 114
174 171 114
174 171 114
174 171 114
174 171 114
175 171 114
175 171 114
175 172 114
175 172 114
176 172 114
176 172 114
176 172 114
176 172 114
177 172 114
177 172 114
177 173 114
178 173 114
178 173 114
178 173 114
178 173 114
179 173 114
179 173 114
179 173 114
179 174 114
180 174 114
180 174 114
180 174 114
181 174 114
181 174 114
181 174 114
181 174 114
182 175 114
182 175 114
182 175 114
183 175 114
183 175 114
183 175 114
183 175 114
184 176 114
184 176 114
184 176 114
185 204 228
185 203 228
184 203 228
184 203 228
184 203 228
184 203 228
183 203 228
183 202 228
183 202 228
183 202 228
182 202 228
182 202 228
182 202 228
182 202 228
181 201 228
181 201 228
181 201 228
181 201 228
180 201 228
180 201 228
180 201 228
180 201 228
179 200 228
179 200 228
179 200 228
179 200 228
178 200 228
178 200 228
178 200 228
177 199 228
177 199 228
177 199 228
177 199 228
177 199 228
176 199 228
176 199 228
176 199 228
176 198 228
175 198 228
175 198 228
175 198 228
175 198 228
175 198 228
174 198 228
174 198 228
174 197 228
174 197 228
173 197 228
173 197 228
173 197 228
173 197 228
173 197 228
173 197 228
173 197 228
172 197 228
172 197 228
172 197 228
172 197 228
172 197 228
172 197 228
172 197 228
172 197 228
172 197 228
173 197 228
173 197 228
173 197 228
173 197 228
174 197 228
174 198 228
175 198 228
176 198 228
176 199 228
178 200 228
179 200 228
181 201 228
185 204 229
209 227 251
214 231 255
214 231 255
214 231 255
214 231 255
214 231 255
214 231 255
163 183 216
61 96 165
60 95 159
61 96 159
61 96 158
61 96 153
61 97 163
61 97 165
61 97 157
60 95 149
60 96 150
61 96 148
62 97 158
62 98 159
61 97 153
62 98 158
60 95 142
61 96 150
62 97 157
62 98 158
61 96 151
60 95 144
61 97 155
63 98 162
61 97 152
61 97 151
62 98 162
61 96 149
61 96 155
61 97 155
61 97 158
61 96 150
62 97 155
61 96 152
61 97 154
61 97 157
61 96 153
61 96 156
62 97 157
61 96 156
60 94 141
60 94 144
61 95 152
62 96 157
62 96 156
59 93 146
59 93 146
58 90 145
174 192 219
214 231 255
214 231 255
214 231 255
214 231 255
214 231 255
214 231 255
208 220 230
185 176 114
181 174 114
179 173 114
178 173 114
176 172 114
176 172 114
175 171 114
174 171 114
174 171 114
173 171 114
173 171 114
173 170 114
173 170 114
172 170 114
172 170 114
172 170 114
172 170 114
172 170 114
172 170 114
172 170 114
172 170 114
172 170 114
173 170 114
173 170 114
173 171 114
173 171 114
173 171 114
173 171 114
173 171 114
174 171 114
174 171 114
174 171 114
174 171 114
175 171 114
175 171 114
175 171 114
175 172 114
175 172 114
176 172 114
176 172 114
176 172 114
176 172 114
177 172 114
177 172 114
177 172 114
177 173 114
178 173 114
178 173 114
178 173 114
178 173 114
179 173 114
179 173 114
179 173 114
179 174 114
180 174 114
180 174 114
180 174 114
180 174 114
181 174 114
181 174 114
181 174 114
181 174 114
182 175 114
182 175 114
182 175 114
182 175 114
183 175 114
183 175 114
183 175 114
183 175 114
184 176 114
184 176 114
184 176 114
184 176 114
185 176 114
185 176 114
186 204 228
186 204 228
185 204 228
185 204 228
185 203 228
185 203 228
184 203 228
184 203 228
184 203 228
184 203 228
183 203 228
183 202 228
183 202 228
183 202 228
183 202 228
182 202 228
182 202 228
182 202 228
182 202 228
181 201 228
181 201 228
181 201 228
181 201 228
180 201 228
180 201 228
180 201 228
180 201 228
179 200 228
179 200 228
179 200 228
179 200 228
178 200 228
178 200 228
178 200 228
178 200 228
178 200 228
177 199 228
177 199 228
177 199 228
177 199 228
176 199 228
176 199 228
176 199 228
176 199 228
176 198 228
176 198 228
175 198 228
175 198 228
175 198 228
175 198 228
175 198 228
175 198 228
174 198 228
174 198 228
174 198 228
174 198 228
174 198 228
174 198 228
174 198 228
174 198 228
174 198 228
174 198 228
174 198 228
174 198 228
174 198 228
174 198 228
175 198 228
175 198 228
175 198 228
176 199 228
177 199 228
177 199 228
178 200 228
179 200 228
181 201 228
183 203 228
190 208 232
214 231 255
214 232 255
214 232 255
214 232 255
214 232 255
208 225 249
81 110 168
59 94 156
59 95 159
58 93 151
60 95 154
60 95 155
61 96 151
61 97 158
60 95 144
59 95 149
62 98 159
62 98 159
61 97 156
60 96 147
62 98 159
62 97 154
62 98 155
61 97 152
62 97 152
61 97 150
62 97 153
61 96 148
61 97 155
61 96 149
61 96 154
62 97 155
62 98 163
62 97 154
60 96 148
62 97 156
63 98 159
61 96 148
62 97 159
60 95 148
60 96 153
63 98 159
61 96 158
61 96 151
61 96 154
61 96 154
61 96 158
61 95 148
61 95 151
61 96 154
60 94 149
60 93 147
58 90 134
60 92 147
88 113 159
212 230 254
214 232 255
214 232 255
214 232 255
214 232 255
214 231 253
194 192 160
183 175 114
181 174 114
179 174 114
178 173 114
177 173 114
177 172 114
176 172 114
175 172 114
175 172 114
175 171 114
174 171 114
174 171 114
174 171 114
174 171 114
174 171 114
174 171 114
174 171 114
174 171 114
174 171 114
174 171 114
174 171 114
174 171 114
174 171 114
174 171 114
174 171 114
175 171 114
175 171 114
175 172 114
175 172 114
175 172 114
176 172 114
176 172 114
176 172 114
176 172 114
176 172 114
176 172 114
177 172 114
177 172 114
177 173 114
177 173 114
177 173 114
178 173 114
178 173 114
178 173 114
178 173 114
179 173 114
179 173 114
179 173 114
179 174 114
180 174 114
180 174 114
180 174 114
180 174 114
181 174 114
181 174 114
181 174 114
181 174 114
182 175 114
182 175 114
182 175 114
182 175 114
182 175 114
183 175 114
183 175 114
183 175 114
183 175 114
184 176 114
184 176 114
184 176 114
184 176 114
185 176 114
185 176 114
185 176 114
185 176 114
186 176 114
186 177 114
187 204 228
186 204 228
186 204 228
186 204 228
186 204 228
186 204 228
185 204 228
185 204 228
185 203 228
185 203 228
184 203 228
184 203 228
184 203 228
184 203 228
184 203 228
183 203 228
183 202 228
183 202 228
183 202 228
183 202 228
182 202 228
182 202 228
182 202 228
182 202 228
181 202 228
181 201 228
181 201 228
181 201 228
181 201 228
180 201 228
180 201 228
180 201 228
180 201 228
180 201 228
179 200 228
179 200 228
179 200 228
179 200 228
179 200 228
178 200 228
178 200 228
178 200 228
178 200 228
178 199 228
177 199 228
177 199 228
177 199 228
177 199 228
177 199 228
176 199 228
176 199 228
176 199 228
176 199 228
176 199 228
176 199 228
176 199 228
176 198 228
176 199 228
176 198 228
176 198 228
176 198 228
175 198 228
176 198 228
176 199 228
176 199 228
176 199 228
176 199 228
176 199 228
177 199 228
167 189 221
168 189 220
162 184 217
178 199 228
180 201 228
181 202 228
183 202 228
185 204 228
204 221 244
215 232 255
215 232 255
215 232 255
215 232 255
154 174 212
60 95 154
62 97 163
60 95 154
59 94 152
61 96 156
60 95 142
60 96 155
59 93 144
61 96 154
60 95 149
62 97 160
61 97 155
62 97 148
62 97 153
61 96 150
61 96 152
60 95 143
62 97 155
61 97 150
61 96 150
60 95 149
61 96 147
61 97 155
62 98 161
61 97 152
60 95 149
60 96 144
62 98 155
62 97 150
61 97 154
61 96 152
61 96 145
61 96 147
61 97 158
61 96 153
61 96 154
61 96 152
61 97 154
61 96 148
62 97 157
61 95 142
61 95 153
61 95 148
61 96 156
61 96 154
61 95 154
60 93 146
61 93 146
58 89 131
156 174 203
215 232 255
215 232 255
215 232 255
215 232 255
204 210 207
185 176 114
183 175 114
181 174 114
180 174 114
178 173 114
162 159 107
163 160 108
172 168 112
177 172 114
176 172 114
176 172 114
176 172 114
176 172 114
176 172 114
176 172 114
176 172 114
176 172 114
175 172 114
176 172 114
176 172 114
176 172 114
176 172 114
176 172 114
176 172 114
176 172 114
176 172 114
176 172 114
176 172 114
177 172 114
177 172 114
177 172 114
177 173 114
177 173 114
178 173 114
178 173 114
178 173 114
178 173 114
178 173 114
178 173 114
179 173 114
179 173 114
179 173 114
179 174 114
180 174 114
180 174 114
180 174 114
180 174 114
180 174 114
181 174 114
181 174 114
181 174 114
181 174 114
181 175 114
182 175 114
182 175 114
182 175 114
182 175 114
183 175 114
183 175 114
183 175 114
183 175 114
183 175 114
184 176 114
184 176 114
184 176 114
184 176 114
184 176 114
185 176 114
185 176 114
185 176 114
185 176 114
186 176 114
186 177 114
186 177 114
186 177 114
186 177 114
187 177 114
188 205 228
187 205 228
187 205 228
187 205 228
187 204 228
187 204 228
186 204 228
186 204 228
186 204 228
186 204 228
186 204 228
185 204 228
185 204 228
185 204 228
185 203 228
185 203 228
184 203 228
184 203 228
184 203 228
184 203 228
184 203 228
183 203 228
183 203 228
183 202 228
183 202 228
183 202 228
182 202 228
182 202 228
182 202 228
182 202 228
182 202 228
182 202 228
181 201 228
181 201 228
181 201 228
181 201 228
181 201 228
180 201 228
180 201 228
180 201 228
180 201 228
180 201 228
179 200 228
179 200 228
179 200 228
179 200 228
179 200 228
179 200 228
178 200 228
178 200 228
178 200 228
178 200 228
178 200 228
178 200 228
178 200 228
178 199 228
178 199 228
177 199 228
177 199 228
177 199 228
177 199 228
177 199 228
177 199 228
177 199 228
177 199 228
178 200 228
178 200 228
147 169 207
103 127 179
60 91 155
53 85 151
54 86 155
68 96 161
128 149 191
173 193 221
183 203 228
185 204 228
192 209 232
215 232 255
215 232 255
215 232 255
212 229 253
89 114 170
59 94 155
60 95 158
60 94 149
58 92 141
60 95 148
60 96 146
60 95 145
60 95 143
60 96 145
61 96 152
59 94 140
60 95 149
60 95 142
61 96 153
61 97 152
60 96 145
60 95 145
61 96 145
61 97 151
61 96 154
61 96 151
62 97 155
61 96 145
62 97 148
61 96 149
61 96 150
61 95 151
61 96 146
62 97 150
61 96 145
61 96 152
61 96 147
62 97 155
60 95 141
59 94 141
60 95 143
60 95 141
61 96 153
61 96 153
61 96 155
60 94 150
61 96 149
59 93 145
60 94 143
60 94 147
60 93 145
60 94 145
59 92 140
59 91 140
84 108 152
214 231 255
215 232 255
215 232 255
215 231 253
191 184 135
185 176 114
183 175 114
173 167 110
121 123 90
68 81 73
54 72 70
54 73 71
54 73 71
105 111 86
146 146 103
178 173 114
178 173 114
178 173 114
178 173 114
177 173 114
177 173 114
177 173 114
177 173 114
177 173 114
177 173 114
178 173 114
178 173 114
178 173 114
178 173 114
178 173 114
178 173 114
178 173 114
178 173 114
178 173 114
179 173 114
179 173 114
179 173 114
179 173 114
179 173 114
179 174 114
180 174 114
180 174 114
180 174 114
180 174 114
180 174 114
181 174 114
181 174 114
181 174 114
181 174 114
181 174 114
181 174 114
182 175 114
182 175 114
182 175 114
182 175 114
182 175 114
183 175 114
183 175 114
183 175 114
183 175 114
183 175 114
184 176 114
184 176 114
184 176 114
184 176 114
184 176 114
185 176 114
185 176 114
185 176 114
185 176 114
185 176 114
186 176 114
186 177 114
186 177 114
186 177 114
186 177 114
187 177 114
187 177 114
187 177 114
187 177 114
187 177 114
188 177 114
188 205 228
188 205 228
188 205 228
188 205 228
188 205 228
188 205 228
187 205 228
187 205 228
187 205 228
187 205 228
187 204 228
187 204 228
186 204 228
186 204 228
186 204 228
186 204 228
186 204 228
185 204 228
185 204 228
185 204 228
185 203 228
185 203 228
185 203 228
184 203 228
184 203 228
184 203 228
184 203 228
184 203 228
183 203 228
183 203 228
183 203 228
183 202 228
183 202 228
183 202 228
182 202 228
182 202 228
182 202 228
182 202 228
182 202 228
182 202 228
181 202 228
181 201 228
181 201 228
181 201 228
181 201 228
181 201 228
180 201 228
180 201 228
180 201 228
180 201 228
180 201 228
180 201 228
180 201 228
180 201 228
179 200 228
179 200 228
179 200 228
179 200 228
179 200 228
179 200 228
179 200 228
179 200 228
179 200 228
179 200 228
179 200 228
177 198 227
120 143 187
55 88 153
53 85 150
53 85 151
52 84 144
51 82 146
51 82 149
53 85 151
56 86 150
150 170 202
185 204 228
188 205 228
207 224 246
216 233 255
216 233 255
184 201 228
56 89 149
58 93 156
59 93 151
59 95 150
60 95 154
61 96 156
60 94 145
61 96 151
60 95 148
60 95 144
61 96 155
60 95 147
61 96 147
61 96 152
61 96 155
60 95 149
61 96 148
60 95 139
60 96 143
62 97 157
60 95 142
62 97 148
61 96 151
60 95 140
61 97 149
61 96 149
62 97 155
61 97 150
61 96 152
60 95 135
61 96 145
61 96 148
61 96 148
61 97 149
60 95 145
61 97 150
61 96 148
61 96 145
61 96 149
61 96 145
60 95 143
60 95 146
60 94 144
60 94 151
60 93 136
60 93 140
60 94 145
59 91 134
59 91 140
58 90 136
57 88 136
179 196 221
216 233 255
216 233 255
207 214 213
187 177 114
185 176 114
143 141 97
64 78 71
51 68 63
53 71 67
51 69 65
52 70 68
53 72 68
54 73 72
55 74 71
118 122 89
179 173 114
179 174 114
179 173 114
179 173 114
179 173 114
179 173 114
179 174 114
179 173 114
179 173 114
179 174 114
179 174 114
180 174 114
180 174 114
180 174 114
180 174 114
180 174 114
180 174 114
180 174 114
180 174 114
180 174 114
181 174 114
181 174 114
181 174 114
181 174 114
181 174 114
181 174 114
182 175 114
182 175 114
182 175 114
182 175 114
182 175 114
182 175 114
183 175 114
183 175 114
183 175 114
183 175 114
183 175 114
184 176 114
184 176 114
184 176 114
184 176 114
184 176 114
184 176 114
185 176 114
185 176 114
185 176 114
185 176 114
185 176 114
185 176 114
186 176 114
186 177 114
186 177 114
186 177 114
186 177 114
187 177 114
187 177 114
187 177 114
187 177 114
187 177 114
187 177 114
188 177 114
188 177 114
188 178 114
188 178 114
188 178 114
189 178 114
189 206 228
189 206 228
189 206 228
189 206 228
189 206 228
189 206 228
188 205 228
188 205 228
188 205 228
188 205 228
188 205 228
188 205 228
188 205 228
187 205 228
187 205 228
187 205 228
187 205 228
187 204 228
187 204 228
186 204 228
186 204 228
186 204 228
186 204 228
186 204 228
186 204 228
185 204 228
185 204 228
185 204 228
185 203 228
185 203 228
185 203 228
185 203 228
184 203 228
184 203 228
184 203 228
184 203 228
184 203 228
184 203 228
183 203 228
183 203 228
183 202 228
183 202 228
183 202 228
183 202 228
183 202 228
182 202 228
182 202 228
182 202 228
182 202 228
182 202 228
182 202 228
182 202 228
182 202 228
182 202 228
181 202 228
181 201 228
181 201 228
181 201 228
181 201 228
181 201 228
181 201 228
181 201 228
181 201 228
181 201 228
181 201 228
121 143 186
55 87 149
55 87 151
53 84 146
53 85 145
51 82 140
50 80 143
50 81 143
49 79 145
50 80 143
52 81 147
145 164 198
188 205 228
195 212 234
216 233 255
216 233 255
136 156 196
58 92 150
58 93 148
60 95 152
61 96 155
58 93 145
60 94 146
61 96 153
60 95 145
60 95 145
60 95 143
61 96 149
61 96 148
60 96 151
61 96 156
60 95 140
61 97 156
60 95 143
60 94 136
61 97 148
62 98 155
60 94 137
62 98 155
60 96 148
62 97 150
60 95 139
61 96 148
62 97 148
61 97 148
60 95 141
61 96 141
61 96 146
61 95 149
61 96 151
61 96 152
61 96 147
61 96 151
61 96 147
61 96 154
59 94 145
60 94 151
61 96 147
60 94 143
60 94 142
60 94 142
59 93 139
61 94 140
59 93 140
59 92 138
60 92 139
59 90 130
58 89 134
135 154 181
216 233 255
216 233 255
197 194 163
188 177 114
153 148 101
48 64 60
48 64 60
51 67 63
51 68 64
51 68 61
52 70 67
53 71 69
52 70 66
54 74 70
55 74 73
117 121 91
181 174 114
181 174 114
181 174 114
181 174 114
181 174 114
181 174 114
181 174 114
181 174 114
181 174 114
181 174 114
181 174 114
181 175 114
182 175 114
182 175 114
182 175 114
182 175 114
182 175 114
182 175 114
182 175 114
182 175 114
183 175 114
183 175 114
183 175 114
183 175 114
183 175 114
183 175 114
183 175 114
184 176 114
184 176 114
184 176 114
184 176 114
184 176 114
184 176 114
185 176 114
185 176 114
185 176 114
185 176 114
185 176 114
185 176 114
185 176 114
186 176 114
186 177 114
186 177 114
186 177 114
186 177 114
186 177 114
187 177 114
187 177 114
187 177 114
187 177 114
187 177 114
187 177 114
188 177 114
188 177 114
188 178 114
188 178 114
188 178 114
188 178 114
189 178 114
189 178 114
189 178 114
189 178 114
189 178 114
189 178 114
189 178 114
190 206 228
190 206 228
190 206 228
190 206 228
190 206 228
190 206 228
190 206 228
189 206 228
189 206 228
189 206 228
189 206 228
189 206 228
189 206 228
189 205 228
188 205 228
188 205 228
188 205 228
188 205 228
188 205 228
188 205 228
188 205 228
187 205 228
187 205 228
187 205 228
187 205 228
187 205 228
187 204 228
187 204 228
187 204 228
186 204 228
186 204 228
186 204 228
186 204 228
186 204 228
186 204 228
186 204 228
185 204 228
185 204 228
185 204 228
185 203 228
185 203 228
185 203 228
185 203 228
184 203 228
184 203 228
184 203 228
184 203 228
184 203 228
184 203 228
184 203 228
184 203 228
184 203 228
183 203 228
183 203 228
183 203 228
183 203 228
183 202 228
183 202 228
183 202 228
183 202 228
183 202 228
183 202 228
183 202 228
183 202 228
158 178 208
54 86 146
55 87 150
53 85 141
53 85 141
52 83 145
52 83 143
51 81 139
50 80 143
46 75 133
45 73 134
46 75 139
65 89 146
167 184 211
190 206 228
213 229 251
215 231 254
79 105 156
56 89 137
58 92 146
59 94 148
59 93 152
61 97 155
59 93 143
60 95 145
60 94 142
58 92 144
61 96 149
60 94 134
60 95 147
61 97 152
60 95 142
61 96 146
61 96 154
60 96 144
60 95 143
58 93 137
60 95 146
61 96 148
61 96 151
61 96 149
60 95 136
60 95 145
61 96 145
60 95 137
59 94 137
61 96 150
61 96 149
60 96 152
60 95 141
61 96 146
61 96 149
61 95 144
61 96 147
61 95 149
60 94 136
61 96 151
60 95 145
59 93 131
60 94 143
60 94 140
61 95 145
61 95 141
61 94 144
61 93 141
60 92 141
59 92 146
59 92 137
59 90 136
79 104 144
216 232 254
214 228 244
190 179 114
170 161 105
56 70 64
48 64 59
44 59 53
48 63 57
48 64 58
50 67 59
51 69 61
53 72 67
52 70 65
54 73 70
54 73 69
56 75 75
149 147 102
183 175 114
183 175 114
183 175 114
183 175 114
183 175 114
183 175 114
183 175 114
183 175 114
183 175 114
183 175 114
183 175 114
183 175 114
184 176 114
184 176 114
184 176 114
184 176 114
184 176 114
184 176 114
184 176 114
184 176 114
185 176 114
185 176 114
185 176 114
185 176 114
185 176 114
185 176 114
185 176 114
185 176 114
186 176 114
186 176 114
186 177 114
186 177 114
186 177 114
186 177 114
186 177 114
187 177 114
187 177 114
187 177 114
187 177 114
187 177 114
187 177 114
187 177 114
187 177 114
188 177 114
188 177 114
188 178 114
188 178 114
188 178 114
188 178 114
188 178 114
189 178 114
189 178 114
189 178 114
189 178 114
189 178 114
189 178 114
189 178 114
190 178 114
190 178 114
190 178 114
190 179 114
190 179 114
190 179 114
190 179 114
191 207 228
191 207 228
191 207 228
191 207 228
191 207 228
191 207 228
191 207 228
191 207 228
190 206 228
190 206 228
190 206 228
190 206 228
190 206 228
190 206 228
190 206 228
190 206 228
189 206 228
189 206 228
189 206 228
189 206 228
189 206 228
189 206 228
189 206 228
189 205 228
188 205 228
188 205 228
188 205 228
188 205 228
188 205 228
188 205 228
188 205 228
188 205 228
187 205 228
187 205 228
187 205 228
187 205 228
187 205 228
187 205 228
187 205 228
187 204 228
187 204 228
186 204 228
186 204 228
186 204 228
186 204 228
186 204 228
186 204 228
186 204 228
186 204 228
186 204 228
186 204 228
185 204 228
185 204 228
185 204 228
185 204 228
185 204 228
185 204 228
185 203 228
185 203 228
185 203 228
185 203 228
185 203 228
185 203 228
182 201 227
74 101 153
54 86 137
53 85 139
54 86 143
52 83 137
51 82 141
50 80 131
49 78 134
49 78 140
47 75 132
46 74 131
41 67 123
46 75 136
96 115 157
188 204 227
208 224 246
196 212 238
57 91 146
57 90 149
58 92 147
58 92 142
58 92 142
60 95 149
60 95 144
61 96 154
59 94 140
61 96 152
60 95 153
60 95 145
60 95 139
62 97 145
60 96 142
61 96 152
60 95 140
60 96 148
60 95 142
62 97 146
61 96 143
62 97 147
62 97 151
61 96 149
62 97 151
60 95 137
61 97 146
60 95 144
60 95 148
62 97 149
61 96 145
59 94 130
61 96 150
61 95 146
61 97 149
60 96 146
59 93 136
61 95 142
60 93 145
61 96 147
60 95 139
61 96 146
61 95 149
61 94 144
60 94 141
60 93 142
60 93 140
59 92 139
60 93 144
59 92 147
57 88 129
58 88 129
56 86 131
194 210 235
205 207 195
189 177 113
96 98 72
44 57 48
45 58 47
47 61 55
47 62 53
48 64 55
49 66 58
50 66 58
51 68 62
53 71 65
52 70 64
54 73 68
54 73 66
87 96 76
180 172 112
185 176 114
185 176 114
185 176 114
185 176 114
185 176 114
185 176 114
185 176 114
185 176 114
185 176 114
185 176 114
185 176 114
186 176 114
186 176 114
186 176 114
186 176 114
186 177 114
186 177 114
186 177 114
186 177 114
186 177 114
186 177 114
186 177 114
187 177 114
187 177 114
187 177 114
187 177 114
187 177 114
187 177 114
187 177 114
187 177 114
188 177 114
188 177 114
188 177 114
188 178 114
188 178 114
188 178 114
188 178 114
188 178 114
188 178 114
189 178 114
189 178 114
189 178 114
189 178 114
189 178 114
189 178 114
189 178 114
189 178 114
190 178 114
190 178 114
190 178 114
190 179 114
190 179 114
190 179 114
190 179 114
190 179 114
191 179 114
191 179 114
191 179 114
191 179 114
191 179 114
191 179 114
191 179 114
191 179 114
192 208 228
192 207 228
192 207 228
192 207 228
192 207 228
192 207 228
192 207 228
192 207 228
192 207 228
191 207 228
191 207 228
191 207 228
191 207 228
191 207 228
191 207 228
191 207 228
191 207 228
191 207 228
191 207 228
190 206 228
190 206 228
190 206 228
190 206 228
190 206 228
190 206 228
190 206 228
190 206 228
190 206 228
190 206 228
189 206 228
189 206 228
189 206 228
189 206 228
189 206 228
189 206 228
189 206 228
189 206 228
189 205 228
189 205 228
188 205 228
188 205 228
188 205 228
188 205 228
188 205 228
188 205 228
188 205 228
188 205 228
188 205 228
188 205 228
188 205 228
187 205 228
187 205 228
187 205 228
187 205 228
187 205 228
187 205 228
187 205 228
187 205 228
187 205 228
187 205 228
187 205 228
187 205 228
187 205 228
157 175 205
55 86 137
53 85 139
54 85 139
52 83 137
52 82 136
51 82 132
49 78 132
49 79 132
47 76 129
45 73 127
47 75 132
41 67 119
41 67 122
41 67 128
157 173 199
202 217 238
168 185 214
55 88 140
57 91 145
57 91 132
58 93 150
57 89 125
58 92 135
61 95 153
60 94 142
60 95 140
61 96 148
60 94 137
60 95 139
60 94 141
60 95 142
61 96 144
60 95 144
61 96 145
61 95 143
61 96 141
62 97 149
59 94 139
60 95 141
61 96 147
60 95 142
62 97 155
61 96 144
61 96 147
62 97 156
60 95 137
60 95 138
60 95 139
61 96 136
60 95 143
61 96 151
59 94 139
61 96 148
60 96 146
60 94 138
60 95 144
61 96 148
60 94 126
60 94 137
60 95 137
60 95 141
60 93 138
60 93 139
60 93 131
59 92 136
57 88 131
59 91 136
58 90 130
58 89 135
54 83 124
175 191 215
201 198 171
155 148 96
44 58 51
39 50 41
42 54 45
44 58 49
44 58 48
49 64 55
51 66 56
50 65 54
52 69 61
52 69 62
53 71 65
53 72 67
55 73 68
54 74 67
154 149 100
187 177 114
187 177 114
187 177 114
187 177 114
187 177 114
187 177 114
187 177 114
187 177 114
187 177 114
187 177 114
187 177 114
187 177 114
187 177 114
187 177 114
188 177 114
188 177 114
188 177 114
188 178 114
188 178 114
188 178 114
188 178 114
188 178 114
188 178 114
188 178 114
189 178 114
189 178 114
189 178 114
189 178 114
189 178 114
189 178 114
189 178 114
189 178 114
189 178 114
189 178 114
190 178 114
190 178 114
190 178 114
190 178 114
190 179 114
190 179 114
190 179 114
190 179 114
190 179 114
190 179 114
190 179 114
191 179 114
191 179 114
191 179 114
191 179 114
191 179 114
191 179 114
191 179 114
191 179 114
191 179 114
192 179 114
192 179 114
192 179 114
192 179 114
192 179 114
192 180 114
192 180 114
192 180 114
192 180 114
193 208 228
193 208 228
193 208 228
193 208 228
193 208 228
193 208 228
193 208 228
193 208 228
193 208 228
193 208 228
192 208 228
192 208 228
192 208 228
192 207 228
192 207 228
192 207 228
192 207 228
192 207 228
192 207 228
192 207 228
192 207 228
192 207 228
192 207 228
191 207 228
191 207 228
191 207 228
191 207 228
191 207 228
191 207 228
191 207 228
191 207 228
191 207 228
191 207 228
191 207 228
190 207 228
190 206 228
190 206 228
190 206 228
190 206 228
190 206 228
190 206 228
190 206 228
190 206 228
190 206 228
190 206 228
190 206 228
190 206 228
190 206 228
189 206 228
189 206 228
189 206 228
189 206 228
189 206 228
189 206 228
189 206 228
189 206 228
189 206 228
189 206 228
189 206 228
189 206 228
189 206 228
189 206 228
189 206 228
116 136 173
54 85 131
53 84 133
51 82 130
51 82 130
51 81 132
52 82 133
50 80 131
47 76 121
46 74 124
47 75 129
42 68 120
42 68 122
35 58 111
34 56 106
97 113 152
195 210 230
133 151 186
55 88 132
55 88 138
57 90 136
59 93 150
58 92 140
59 93 130
59 94 142
60 95 142
60 95 145
60 95 148
58 92 131
61 96 145
60 95 143
59 94 142
59 94 130
61 96 151
61 96 145
60 94 140
61 96 145
61 95 142
61 96 139
61 96 148
60 95 142
60 95 132
61 96 147
60 95 143
61 96 142
60 95 141
59 94 131
60 95 135
60 95 136
60 95 142
60 94 140
61 95 139
60 95 147
61 96 140
61 96 149
61 95 145
60 93 134
60 94 137
61 95 145
60 94 138
62 96 150
59 92 126
61 95 145
59 92 129
59 91 119
60 93 138
57 89 130
59 91 134
58 90 131
57 87 119
55 85 123
139 156 181
194 182 121
108 105 69
38 50 42
37 49 42
41 53 44
44 57 49
46 60 51
45 58 45
48 63 49
51 67 60
52 69 56
51 68 59
52 68 57
54 71 64
54 72 66
55 74 67
103 108 80
189 178 114
189 178 114
189 178 114
189 178 114
189 178 114
189 178 114
189 178 114
189 178 114
189 178 114
189 178 114
189 178 114
189 178 114
189 178 114
189 178 114
190 178 114
189 178 114
190 178 114
190 178 114
190 178 114
190 178 114
190 179 114
190 179 114
190 179 114
190 179 114
190 179 114
190 179 114
190 179 114
190 179 114
191 179 114
191 179 114
191 179 114
191 179 114
191 179 114
191 179 114
191 179 114
191 179 114
191 179 114
191 179 114
191 179 114
191 179 114
191 179 114
192 179 114
192 179 114
192 179 114
192 179 114
192 180 114
192 180 114
192 180 114
192 180 114
192 180 114
192 180 114
192 180 114
192 180 114
193 180 114
193 180 114
193 180 114
193 180 114
193 180 114
193 180 114
193 180 114
193 180 114
193 180 114
193 180 114
194 209 228
194 209 228
194 209 228
194 209 228
194 209 228
194 208 228
194 208 228
194 208 228
194 208 228
194 208 228
194 208 228
194 208 228
194 208 228
194 208 228
193 208 228
193 208 228
193 208 228
193 208 228
193 208 228
193 208 228
193 208 228
193 208 228
193 208 228
193 208 228
193 208 228
193 208 228
193 208 228
193 208 228
193 208 228
192 208 228
193 208 228
192 208 228
192 208 228
192 207 228
192 207 228
192 207 228
192 207 228
192 207 228
192 207 228
192 207 228
192 207 228
192 207 228
192 207 228
192 207 228
192 207 228
191 207 228
192 207 228
191 207 228
191 207 228
191 207 228
191 207 228
191 207 228
191 207 228
191 207 228
191 207 228
191 207 228
191 207 228
191 207 228
191 207 228
191 207 228
191 207 228
191 207 228
183 197 214
54 85 130
54 85 128
51 81 123
53 83 135
52 83 138
50 79 125
52 82 130
49 79 125
49 78 130
44 71 123
44 70 120
43 69 118
38 62 106
36 59 108
32 54 105
36 58 110
182 196 216
107 127 164
54 86 128
57 89 144
57 91 138
60 94 152
59 93 138
61 95 148
59 93 142
59 94 135
58 93 134
60 95 146
61 95 143
60 95 145
59 93 132
60 95 139
59 93 130
60 95 141
61 96 146
61 96 139
61 96 144
61 95 140
61 96 151
60 95 144
60 95 142
60 94 136
61 96 142
60 95 142
60 94 135
61 96 138
59 94 133
59 94 123
58 92 131
60 94 142
58 92 124
59 93 128
60 94 130
61 96 148
61 95 138
59 94 129
61 95 144
59 93 135
59 93 139
60 94 137
60 94 140
61 95 145
58 90 122
60 92 138
59 91 125
58 90 128
59 91 120
56 87 118
59 92 134
57 88 126
55 83 114
102 116 132
189 175 111
41 51 43
38 49 40
35 46 38
39 50 41
42 55 44
44 58 47
46 60 47
47 62 49
48 63 54
49 64 52
49 65 53
50 67 55
52 69 59
51 69 58
54 73 65
58 76 70
183 172 111
191 179 114
191 179 114
191 179 114
191 179 114
191 179 114
191 179 114
191 179 114
191 179 114
191 179 114
191 179 114
191 179 114
191 179 114
191 179 114
191 179 114
191 179 114
191 179 114
191 179 114
192 179 114
192 179 114
192 179 114
192 179 114
192 179 114
192 179 114
192 179 114
192 179 114
192 179 114
192 180 114
192 180 114
192 180 114
192 180 114
192 180 114
192 180 114
192 180 114
193 180 114
193 180 114
193 180 114
193 180 114
193 180 114
193 180 114
193 180 114
193 180 114
193 180 114
193 180 114
193 180 114
193 180 114
193 180 114
193 180 114
193 180 114
194 180 114
194 180 114
194 180 114
194 180 114
194 180 114
194 180 114
194 180 114
194 180 114
194 180 114
194 180 114
194 181 114
194 181 114
194 181 114
194 181 114
195 209 228
195 209 228
195 209 228
195 209 228
195 209 228
195 209 228
195 209 228
195 209 228
195 209 228
195 209 228
195 209 228
195 209 228
195 209 228
195 209 228
195 209 228
195 209 228
195 209 228
195 209 228
195 209 228
194 209 228
194 209 228
194 209 228
194 209 228
194 209 228
194 209 228
194 209 228
194 209 228
194 209 228
194 209 228
194 208 228
194 208 228
194 208 228
194 208 228
194 208 228
194 208 228
194 208 228
194 208 228
194 208 228
194 208 228
194 208 228
193 208 228
193 208 228
193 208 228
193 208 228
193 208 228
193 208 228
193 208 228
193 208 228
193 208 228
193 208 228
193 208 228
193 208 228
193 208 228
193 208 228
193 208 228
193 208 228
193 208 228
193 208 228
193 208 228
193 208 228
193 208 228
193 207 228
157 158 139
54 85 130
53 84 123
54 84 130
53 83 128
52 82 128
49 78 123
48 77 105
46 74 110
47 75 121
48 76 121
40 65 98
42 68 113
40 64 111
36 58 101
32 53 97
25 43 87
162 175 198
82 105 142
55 87 126
56 89 132
57 90 130
58 91 134
57 91 137
58 93 137
60 95 146
59 93 126
59 94 135
61 96 146
59 93 132
60 94 140
60 95 139
60 94 135
60 95 141
59 94 136
61 95 141
61 95 140
62 97 150
61 96 145
61 96 142
60 94 137
60 95 135
59 94 139
61 96 143
61 96 141
60 95 144
59 94 133
59 94 140
60 94 131
61 95 134
59 93 132
59 93 133
60 94 142
59 93 126
60 93 132
59 93 124
61 96 144
60 95 139
60 94 134
60 94 137
61 95 143
61 96 147
59 93 145
60 95 139
59 92 128
58 90 133
59 92 132
58 91 130
57 89 125
56 87 120
56 86 106
54 82 110
96 107 111
164 153 97
29 39 32
33 43 32
34 45 36
40 52 40
38 49 38
44 57 45
46 60 49
48 62 50
47 63 48
50 66 52
50 66 51
51 68 57
51 68 62
52 70 61
54 72 63
54 73 65
160 153 100
193 180 114
193 180 114
193 180 114
193 180 114
193 180 114
193 180 114
193 180 114
193 180 114
193 180 114
193 180 114
193 180 114
193 180 114
193 180 114
193 180 114
193 180 114
193 180 114
193 180 114
193 180 114
193 180 114
194 180 114
193 180 114
193 180 114
194 180 114
194 180 114
194 180 114
194 180 114
194 180 114
194 180 114
194 180 114
194 180 114
194 180 114
194 180 114
194 181 114
194 181 114
194 181 114
194 181 114
194 181 114
194 181 114
194 181 114
194 181 114
194 181 114
194 181 114
195 181 114
194 181 114
195 181 114
195 181 114
195 181 114
195 181 114
195 181 114
195 181 114
195 181 114
195 181 114
195 181 114
195 181 114
195 181 114
195 181 114
195 181 114
195 181 114
195 181 114
195 181 114
195 181 114
195 181 114
196 210 228
196 210 228
196 210 228
196 210 228
196 210 228
196 210 228
196 210 228
196 210 228
196 210 228
196 210 228
196 210 228
196 210 228
196 210 228
196 210 228
196 210 228
196 210 228
196 210 228
196 210 228
196 210 228
196 209 228
196 209 228
196 209 228
196 209 228
196 209 228
196 209 228
196 209 228
196 209 228
196 209 228
196 209 228
196 209 228
195 209 228
196 209 228
195 209 228
195 209 228
195 209 228
195 209 228
195 209 228
195 209 228
195 209 228
195 209 228
195 209 228
195 209 228
195 209 228
195 209 228
195 209 228
195 209 228
195 209 228
195 209 228
195 209 228
195 209 228
195 209 228
195 209 228
195 209 228
195 209 228
195 209 228
195 209 228
195 209 228
195 209 228
195 209 228
195 209 228
195 209 228
189 198 204
141 139 111
54 85 130
52 82 123
53 83 124
52 83 124
51 80 127
50 79 119
51 80 122
49 77 124
46 73 111
41 67 99
42 68 105
42 67 106
40 64 108
39 63 109
30 50 90
29 48 88
142 154 174
69 94 137
55 88 136
59 92 140
56 90 127
57 90 128
58 93 133
59 94 140
59 93 129
59 94 138
59 93 136
58 92 126
59 93 134
60 95 140
61 95 138
60 94 138
61 95 142
59 94 134
61 96 137
58 92 124
59 93 133
60 95 143
59 93 133
62 97 154
58 92 134
60 94 140
60 95 135
62 97 152
60 95 136
59 94 134
59 93 136
59 93 129
61 96 143
60 95 144
60 95 135
61 95 142
59 94 135
60 94 132
60 94 144
59 92 136
60 95 141
59 93 136
60 94 141
60 94 137
59 92 131
60 93 138
60 92 130
59 92 129
59 92 127
58 91 126
58 89 120
58 90 128
59 90 130
56 87 123
55 85 116
60 81 102
141 132 84
27 36 27
27 34 23
32 42 29
38 50 43
42 55 43
44 57 45
46 60 48
44 57 41
47 62 51
49 64 50
49 64 51
51 68 56
52 69 57
52 70 57
54 72 64
54 73 62
142 138 91
188 175 111
195 181 114
195 181 114
195 181 114
195 181 114
195 181 114
195 181 114
195 181 114
195 181 114
195 181 114
195 181 114
195 181 114
195 181 114
195 181 114
195 181 114
195 181 114
195 181 114
195 181 114
195 181 114
195 181 114
195 181 114
195 181 114
195 181 114
195 181 114
195 181 114
195 181 114
195 181 114
195 181 114
195 181 114
195 181 114
195 181 114
196 181 114
196 181 114
196 181 114
196 181 114
196 181 114
196 181 114
196 181 114
196 181 114
196 181 114
196 181 114
196 181 114
196 181 114
196 181 114
196 181 114
196 181 114
196 181 114
196 181 114
196 181 114
196 181 114
196 181 114
196 181 114
196 181 114
196 182 114
196 182 114
196 181 114
196 182 114
196 182 114
196 182 114
196 182 114
196 182 114
196 182 114
197 210 228
197 210 228
197 210 228
197 210 228
197 210 228
197 210 228
197 210 228
197 210 228
197 210 228
197 210 228
197 210 228
197 210 228
197 210 228
197 210 228
197 210 228
197 210 228
197 210 228
197 210 228
197 210 228
197 210 228
197 210 228
197 210 228
197 210 228
197 210 228
197 210 228
197 210 228
197 210 228
197 210 228
197 210 228
197 210 228
197 210 228
197 210 228
197 210 228
197 210 228
197 210 228
197 210 228
197 210 228
197 210 228
197 210 228
197 210 228
197 210 228
197 210 228
197 210 228
197 210 228
197 210 228
197 210 228
197 210 228
197 210 228
197 210 228
197 210 228
197 210 228
197 210 228
197 210 228
197 210 228
197 210 228
197 210 228
197 210 228
197 210 228
197 210 228
197 210 228
197 210 228
186 188 179
142 138 110
52 83 120
54 85 124
51 82 120
53 83 126
50 79 119
49 78 110
49 77 121
48 77 115
45 71 104
44 71 104
38 61 99
41 66 105
36 59 99
35 57 92
32 52 84
26 43 74
130 141 158
50 81 121
53 85 122
57 90 138
57 90 133
58 91 133
59 93 131
59 93 137
60 94 142
58 92 134
60 94 140
61 95 138
61 96 143
57 91 128
59 93 138
60 94 137
59 94 139
60 95 134
60 94 138
61 96 145
60 95 135
61 95 143
60 94 131
60 95 139
60 94 136
61 96 143
61 96 144
60 94 128
60 95 142
60 95 131
60 95 136
59 92 126
60 94 137
60 95 133
59 93 126
60 94 133
60 95 140
59 94 128
60 95 137
60 94 139
60 94 136
61 95 143
59 92 132
58 91 135
59 92 129
57 89 121
59 92 130
60 93 134
58 91 125
57 88 118
59 91 130
57 90 128
57 88 134
55 85 123
54 83 118
49 73 84
121 113 72
23 30 21
26 34 25
32 42 33
37 48 33
37 48 34
43 55 39
43 57 43
44 58 41
50 66 53
49 65 49
49 66 50
51 67 52
50 67 52
53 70 60
53 71 60
53 71 61
139 133 88
185 171 108
197 182 114
197 182 114
197 182 114
197 182 114
197 182 114
197 182 114
197 182 114
197 182 114
197 182 114
197 182 114
197 182 114
197 182 114
197 182 114
197 182 114
197 182 114
197 182 114
197 182 114
197 182 114
197 182 114
197 182 114
197 182 114
197 182 114
197 182 114
197 182 114
197 182 114
197 182 114
197 182 114
197 182 114
197 182 114
197 182 114
197 182 114
197 182 114
197 182 114
197 182 114
197 182 114
197 182 114
197 182 114
197 182 114
197 182 114
197 182 114
197 182 114
197 182 114
197 182 114
197 182 114
197 182 114
197 182 114
197 182 114
197 182 114
197 182 114
197 182 114
197 182 114
197 182 114
197 182 114
197 182 114
197 182 114
197 182 114
197 182 114
197 182 114
197 182 114
197 182 114
197 182 114
198 211 228
198 211 228
198 211 228
198 211 228
198 211 228
198 211 228
198 211 228
198 211 228
198 211 228
198 211 228
198 211 228
198 211 228
198 211 228
198 211 228
198 211 228
198 211 228
198 211 228
198 211 228
198 211 228
198 211 228
199 211 228
198 211 228
198 211 228
198 211 228
199 211 228
198 211 228
198 211 228
198 211 228
198 211 228
199 211 228
199 211 228
199 211 228
199 211 228
199 211 228
199 211 228
199 211 228
199 211 228
199 211 228
199 211 228
199 211 228
199 211 228
199 211 228
199 211 228
199 211 228
199 211 228
199 211 228
199 211 228
199 211 228
199 211 228
199 211 228
199 211 228
199 211 228
199 211 228
199 211 228
199 211 228
199 211 228
199 211 228
199 211 228
199 211 228
199 211 228
199 211 228
185 186 172
131 130 88
51 81 108
51 82 114
51 81 118
51 81 115
50 79 114
50 79 122
48 76 110
44 71 106
45 73 110
43 69 111
39 62 95
39 63 85
38 61 92
33 54 84
30 50 81
23 39 65
135 146 163
46 75 106
53 85 125
56 88 129
57 90 129
58 92 136
58 91 134
58 91 129
60 94 138
59 93 133
59 93 135
59 93 135
59 93 131
57 91 126
60 95 141
61 95 142
59 94 133
59 93 132
60 95 135
59 93 127
60 95 134
60 94 132
62 97 147
61 96 144
59 93 130
60 95 134
61 95 136
60 94 136
62 97 149
61 95 140
61 96 137
61 96 143
59 94 135
58 91 118
58 91 120
60 95 138
60 94 133
59 94 130
60 94 137
60 94 142
60 94 142
60 94 137
61 95 142
60 93 135
59 92 116
57 90 121
58 91 130
58 91 124
60 94 138
57 89 122
57 89 124
58 90 125
58 91 133
56 86 113
55 83 109
52 75 90
135 127 80
26 34 22
32 42 32
31 40 27
39 50 38
39 51 37
40 52 38
41 53 35
45 59 44
47 61 41
47 62 44
50 66 55
48 65 45
51 68 50
52 70 60
51 68 52
52 71 56
125 123 64
182 169 99
199 183 114
199 183 114
199 183 114
199 183 114
199 183 114
199 183 114
199 183 114
199 183 114
199 183 114
199 183 114
199 183 114
199 183 114
199 183 114
199 183 114
199 183 114
199 183 114
199 183 114
199 183 114
199 183 114
199 183 114
199 183 114
199 183 114
199 183 114
199 183 114
199 183 114
199 183 114
199 183 114
199 183 114
199 183 114
199 183 114
199 183 114
199 183 114
199 183 114
198 183 114
198 183 114
198 183 114
199 183 114
199 183 114
199 183 114
198 183 114
198 183 114
198 183 114
198 183 114
198 183 114
198 183 114
198 183 114
198 183 114
198 183 114
198 183 114
198 183 114
198 183 114
198 183 114
198 183 114
198 183 114
198 183 114
198 183 114
198 183 114
198 183 114
198 183 114
198 183 114
198 183 114
199 211 228
199 211 228
199 211 228
199 212 228
199 212 228
199 212 228
200 212 228
199 212 228
199 212 228
199 212 228
200 212 228
200 212 228
200 212 228
200 212 228
200 212 228
200 212 228
200 212 228
200 212 228
200 212 228
200 212 228
200 212 228
200 212 228
200 212 228
200 212 228
200 212 228
200 212 228
200 212 228
200 212 228
200 212 228
200 212 228
200 212 228
200 212 228
200 212 228
200 212 228
200 212 228
200 212 228
200 212 228
198 210 223
198 210 223
198 210 223
196 209 217
198 210 220
195 207 211
192 205 204
194 207 209
190 204 196
189 203 195
185 200 184
191 205 202
186 201 186
189 203 196
190 203 196
186 201 186
185 199 178
183 198 177
183 199 177
183 198 172
183 198 174
185 199 178
182 197 169
186 201 186
173 185 153
118 121 58
54 84 119
51 80 108
49 78 102
50 79 108
48 76 110
49 77 110
46 73 99
46 73 99
44 71 97
46 72 110
40 65 95
35 58 71
37 59 78
32 53 81
28 46 61
19 34 50
150 161 175
66 93 124
53 85 117
55 87 117
57 89 130
57 90 134
59 93 136
58 91 128
58 91 126
60 94 137
60 95 143
59 94 138
60 94 132
60 94 134
58 92 127
59 93 125
58 91 121
58 91 119
60 94 130
60 94 130
60 95 138
59 92 126
60 94 139
59 93 131
60 94 139
59 93 128
59 93 130
61 96 148
58 92 130
58 92 118
58 92 126
62 96 149
61 96 143
59 93 125
60 95 138
58 91 121
59 93 126
59 93 133
60 95 133
59 93 134
59 93 128
59 93 132
60 94 132
60 94 135
58 91 125
58 90 116
57 90 116
57 89 121
58 90 123
58 90 131
57 90 120
57 88 115
54 85 108
53 82 96
52 79 103
56 77 92
152 141 87
26 33 21
30 38 23
30 39 24
32 42 25
37 49 34
38 49 31
44 57 41
42 55 36
46 60 42
46 61 46
46 60 43
49 64 47
51 67 48
52 69 54
52 70 51
53 72 57
121 122 31
172 163 74
182 171 85
183 172 87
182 171 84
184 172 88
183 171 87
187 174 93
184 172 89
186 173 92
188 175 94
191 177 99
189 176 97
190 177 99
189 176 97
187 175 95
190 177 99
193 179 104
192 178 102
191 177 100
196 180 107
197 181 109
196 180 108
199 183 112
198 182 111
200 183 113
200 184 114
200 183 114
200 183 114
200 183 114
200 183 114
200 183 114
200 183 114
200 183 114
200 183 114
200 183 114
200 183 114
200 183 114
200 183 114
200 183 114
200 183 114
200 183 114
200 183 114
200 183 114
200 183 114
200 183 114
200 183 114
200 183 114
200 183 114
200 183 114
200 183 114
200 183 114
199 183 114
200 183 114
199 183 114
199 183 114
199 183 114
199 183 114
199 183 114
199 183 114
199 183 114
199 183 114
199 183 114
200 212 228
200 212 228
200 212 228
200 212 228
200 212 228
200 212 228
200 212 228
201 212 228
201 212 228
201 212 228
200 212 227
198 210 219
195 208 213
193 206 203
192 205 203
190 204 198
191 204 199
187 201 187
188 202 190
184 199 178
180 196 165
179 195 156
174 191 139
177 193 150
173 190 135
174 190 131
171 189 127
168 186 112
170 188 123
168 186 112
163 183 88
166 184 94
160 180 72
162 181 79
160 180 64
157 178 32
156 177 22
156 177 0
156 177 0
156 177 0
155 176 0
157 177 0
156 176 0
153 175 0
154 175 0
157 178 0
156 177 0
156 177 0
154 175 0
155 176 0
154 176 0
156 176 0
156 177 0
154 176 0
157 177 0
155 176 0
154 175 0
154 176 0
156 176 0
154 175 0
154 176 0
154 175 0
126 132 60
51 81 103
53 83 110
49 78 100
49 78 106
48 76 109
48 77 99
47 74 105
47 75 101
42 67 91
41 67 88
39 63 90
39 63 87
37 59 88
33 53 68
30 50 55
25 42 47
161 172 181
82 101 127
49 79 105
58 91 136
55 87 121
56 88 125
58 91 130
56 89 113
57 91 121
58 92 125
59 92 121
58 91 123
58 92 128
59 93 128
59 94 134
59 93 137
60 95 141
60 95 133
58 92 127
61 95 142
60 94 132
58 92 128
58 92 130
60 94 131
59 93 134
60 95 141
59 92 131
59 94 136
59 93 131
59 94 128
59 93 134
60 94 131
60 94 133
60 94 135
60 94 132
59 92 136
58 91 123
60 94 136
60 94 139
58 91 117
59 93 128
60 93 128
58 90 117
59 93 125
59 92 134
57 89 115
58 90 118
57 88 118
57 89 123
57 88 115
58 89 120
57 89 131
56 86 111
54 83 109
54 82 107
100 106 95
166 153 91
24 31 16
28 35 16
29 37 19
35 45 27
36 46 31
40 52 30
42 54 34
43 56 37
45 59 45
45 60 42
48 63 44
49 66 47
49 65 48
51 68 50
51 69 48
52 70 51
128 127 22
155 152 0
154 152 0
155 152 0
154 152 0
156 153 0
156 153 0
154 152 0
153 151 0
156 153 0
156 153 0
154 152 0
156 153 0
154 151 0
156 153 0
156 153 0
157 154 0
156 153 0
156 153 0
157 154 0
157 154 0
156 153 0
155 153 0
156 153 0
156 153 0
156 153 0
159 155 19
156 153 0
159 155 25
160 156 34
162 157 34
164 159 48
161 157 39
167 160 53
164 159 45
168 161 57
173 165 68
172 164 65
174 165 71
178 168 76
179 168 76
179 169 79
182 170 82
186 174 90
185 173 90
189 176 96
187 174 94
191 177 99
190 176 98
190 176 99
194 179 104
199 182 111
200 183 113
201 184 114
201 184 114
201 184 114
201 184 114
200 184 114
200 184 114
200 184 114
200 184 114
200 184 114
200 184 114
183 198 169
177 193 151
181 197 166
174 191 141
172 189 129
167 185 104
166 184 99
165 184 99
157 177 32
160 180 51
154 176 0
156 177 0
157 177 0
155 176 0
156 177 0
155 176 0
156 177 0
155 176 0
156 177 0
156 177 0
155 176 0
156 177 0
155 176 0
155 177 0
155 177 0
155 176 0
153 174 0
157 177 0
156 177 0
156 177 0
154 176 0
156 177 0
158 178 0
156 176 0
155 177 0
157 177 0
155 176 0
156 176 0
154 175 0
156 176 0
156 176 0
154 176 0
155 176 0
155 176 0
155 177 0
156 176 0
155 176 0
154 175 0
155 176 0
155 176 0
151 172 0
155 176 0
154 175 0
155 176 0
154 175 0
153 173 0
152 172 0
153 173 0
154 173 0
154 172 0
155 172 0
153 172 0
147 163 22
57 84 104
51 81 113
49 78 97
49 78 100
48 76 93
46 74 94
47 74 106
45 72 94
44 70 91
42 67 92
40 65 86
36 58 78
37 59 71
32 51 58
29 47 57
34 50 59
164 182 114
108 124 142
56 88 125
54 86 111
55 87 114
55 88 117
54 87 110
57 90 116
58 91 118
59 93 128
58 92 123
58 91 125
57 91 118
59 93 125
58 92 130
59 94 131
60 94 136
58 92 134
58 92 129
58 92 123
59 93 131
60 94 136
61 95 137
60 95 137
60 94 126
59 93 131
59 94 130
60 94 135
59 93 126
59 93 134
59 92 130
59 93 126
59 92 124
59 94 128
59 93 134
58 91 121
58 92 124
60 95 139
58 91 128
58 92 132
58 90 124
58 91 124
58 91 127
59 93 126
57 90 134
58 92 128
58 91 126
59 91 122
57 89 118
57 89 113
56 87 117
57 89 116
55 85 109
51 78 96
50 76 87
108 117 119
164 156 60
27 36 18
27 35 16
31 40 17
33 42 18
38 49 25
39 50 27
42 54 36
41 53 33
46 60 42
48 63 43
46 60 40
47 62 44
47 63 46
51 69 51
50 68 50
50 68 48
148 145 0
153 151 0
153 150 0
154 151 0
152 150 0
153 150 0
155 152 0
155 152 0
155 152 0
153 151 0
155 152 0
156 153 0
156 153 0
155 153 0
156 153 0
154 152 0
155 152 0
155 152 0
151 150 0
155 152 0
156 153 0
156 153 0
155 153 0
157 153 0
156 153 0
153 151 0
154 152 0
155 152 0
156 153 0
156 153 0
155 152 0
156 153 0
155 153 0
156 153 0
155 152 0
156 153 0
156 153 0
155 153 0
155 153 0
156 153 0
157 153 0
156 153 0
156 153 0
154 152 0
156 153 0
154 152 0
156 153 0
157 154 0
156 153 0
157 153 0
156 153 0
155 153 0
156 153 0
156 153 16
160 156 37
162 157 37
164 158 45
169 162 59
172 164 66
177 167 75
175 166 70
178 168 77
185 173 90
157 177 0
157 177 0
156 177 0
155 177 0
155 177 0
157 177 0
155 177 0
154 176 0
156 177 0
157 178 0
156 177 0
157 177 0
157 178 0
156 177 0
157 178 0
155 176 0
155 177 0
157 177 0
156 177 0
155 176 0
157 178 0
155 176 0
156 177 0
156 176 0
156 177 0
154 176 0
155 176 0
155 176 0
156 177 0
156 176 0
156 177 0
154 175 0
154 175 0
153 175 0
155 175 0
155 176 0
156 177 0
154 175 0
157 177 0
155 176 0
156 176 0
156 176 0
156 177 0
154 175 0
154 173 0
156 176 0
154 175 0
153 174 0
155 175 0
154 173 0
152 172 0
151 171 0
154 174 0
152 172 0
153 172 0
152 170 0
150 170 0
148 166 0
151 168 0
150 166 0
150 167 0
147 160 0
142 148 0
80 96 84
48 76 91
51 81 107
50 80 101
47 74 96
47 74 93
46 73 93
42 67 85
41 67 77
40 64 76
39 62 75
37 59 67
33 54 70
33 53 54
29 48 37
78 94 45
160 180 74
143 159 181
51 81 109
53 83 110
56 89 121
59 93 125
58 92 132
58 92 132
57 90 123
57 90 130
58 92 126
59 93 135
59 93 134
59 92 125
60 94 134
58 93 120
60 95 139
58 92 134
59 93 131
59 94 128
59 93 129
59 94 135
59 93 131
59 93 125
60 94 142
59 93 125
59 93 128
58 92 128
59 92 130
58 92 128
59 93 131
60 94 129
60 94 130
61 96 150
60 94 132
58 91 128
58 91 121
58 92 124
59 92 132
58 92 117
59 93 134
60 94 131
59 93 123
58 91 125
58 91 117
57 89 118
59 91 131
56 86 114
58 90 126
57 88 120
56 86 111
56 85 122
55 85 113
54 84 107
54 81 101
151 164 177
164 162 69
84 85 16
32 42 21
33 41 22
37 45 19
37 47 30
41 52 32
42 55 37
41 54 31
44 57 33
45 59 40
47 63 42
49 65 43
50 66 48
50 66 50
48 65 43
87 93 32
145 140 0
145 142 0
143 139 0
148 145 0
152 149 0
151 148 0
149 147 0
150 148 0
152 149 0
153 150 0
152 150 0
154 151 0
154 151 0
152 150 0
154 151 0
155 152 0
153 151 0
155 152 0
153 151 0
155 153 0
155 152 0
154 151 0
153 151 0
155 152 0
155 152 0
155 152 0
155 152 0
156 153 0
156 153 0
155 152 0
153 152 0
156 153 0
155 152 0
154 152 0
155 153 0
155 153 0
155 153 0
156 153 0
156 153 0
157 154 0
157 153 0
157 153 0
155 153 0
154 152 0
157 154 0
157 154 0
155 153 0
156 153 0
156 153 0
155 153 0
155 153 0
156 153 0
154 152 0
157 154 0
156 153 0
157 154 0
156 153 0
156 153 0
156 153 0
155 152 0
155 153 0
155 153 0
155 153 0
156 177 0
155 177 0
154 176 0
157 178 0
156 177 0
156 177 0
155 176 0
155 177 0
156 176 0
155 176 0
155 176 0
157 177 0
156 177 0
156 177 0
155 177 0
155 176 0
155 176 0
156 177 0
155 176 0
155 176 0
155 176 0
156 177 0
156 177 0
154 175 0
154 174 0
154 176 0
155 176 0
156 177 0
154 175 0
153 174 0
155 176 0
154 176 0
154 175 0
152 174 0
154 176 0
153 174 0
153 175 0
152 173 0
154 174 0
157 177 0
154 175 0
155 175 0
154 175 0
153 174 0
153 175 0
151 171 0
151 173 0
153 173 0
152 173 0
148 169 0
148 168 0
150 170 0
153 173 0
150 170 0
150 170 0
148 168 0
146 165 0
142 160 0
145 162 0
142 157 0
140 155 0
144 157 0
128 138 0
104 117 62
50 79 101
47 75 85
48 75 96
48 76 89
48 76 103
43 69 88
43 68 88
43 69 84
40 64 72
35 56 60
36 59 69
32 52 56
30 49 45
30 49 45
129 148 34
176 194 130
184 198 215
52 82 109
55 86 115
54 87 121
54 85 110
57 90 122
57 90 113
56 89 125
57 91 117
58 91 129
57 90 122
59 92 123
58 92 126
56 89 121
56 89 113
57 90 119
58 92 117
58 92 126
58 92 121
59 93 124
58 92 122
59 92 125
59 92 129
59 94 129
57 90 119
58 92 125
58 92 121
61 95 133
58 91 131
58 91 121
58 92 129
58 92 122
58 91 118
59 93 119
60 94 137
57 89 125
57 90 118
58 91 126
58 92 118
58 92 120
59 93 131
59 92 124
58 91 122
57 89 118
57 90 116
58 91 108
59 91 124
56 88 115
58 90 123
58 89 119
56 86 101
56 86 106
57 86 111
51 78 95
172 185 201
181 185 147
123 122 10
35 44 23
33 42 22
33 42 25
34 43 21
41 53 32
40 52 29
44 58 37
44 57 36
46 60 41
48 62 46
46 60 34
47 62 38
49 65 44
47 63 40
105 107 29
135 132 0
137 134 0
134 131 0
145 142 0
147 145 0
144 142 0
148 145 0
147 144 0
149 147 0
153 151 0
149 147 0
150 148 0
153 150 0
152 150 0
150 148 0
151 149 0
152 150 0
152 150 0
154 152 0
151 149 0
153 151 0
155 152 0
154 151 0
154 152 0
151 149 0
154 152 0
151 149 0
154 151 0
156 152 0
154 152 0
154 152 0
154 151 0
155 153 0
156 153 0
154 151 0
157 153 0
155 152 0
155 152 0
155 152 0
154 152 0
155 153 0
155 152 0
155 153 0
156 153 0
155 151 0
156 153 0
155 153 0
156 153 0
157 153 0
157 153 0
155 152 0
157 153 0
155 153 0
156 152 0
156 153 0
155 152 0
156 153 0
156 153 0
155 153 0
155 153 0
154 152 0
156 152 0
157 153 0
156 177 0
155 177 0
157 177 0
154 176 0
157 177 0
154 176 0
156 177 0
156 177 0
155 176 0
156 177 0
156 177 0
156 176 0
153 175 0
154 176 0
154 174 0
154 176 0
154 175 0
155 176 0
153 175 0
155 176 0
154 176 0
155 176 0
154 176 0
154 175 0
152 173 0
153 175 0
155 176 0
154 175 0
156 177 0
153 174 0
155 176 0
154 175 0
154 175 0
153 174 0
155 175 0
155 176 0
153 174 0
153 174 0
152 172 0
150 171 0
151 172 0
153 173 0
154 175 0
149 169 0
154 175 0
150 170 0
152 172 0
153 174 0
152 173 0
152 173 0
150 170 0
148 169 0
145 166 0
147 167 0
144 163 0
148 167 0
144 164 0
141 160 0
142 160 0
140 158 0
136 153 0
131 147 0
130 143 0
123 137 27
59 81 72
48 76 85
47 74 79
45 72 78
44 70 81
42 67 74
44 70 82
43 68 78
40 64 66
37 59 58
36 58 57
33 55 50
33 53 45
75 93 46
151 171 0
166 188 25
156 177 55
48 77 95
53 84 114
55 87 112
57 89 121
57 89 119
55 88 115
55 88 108
56 89 113
58 92 130
57 91 125
58 91 125
58 91 121
57 90 115
58 91 128
59 93 132
59 93 128
56 90 116
60 94 127
60 94 129
58 91 115
58 92 122
58 91 121
60 94 131
59 93 129
59 93 129
59 93 129
58 92 123
59 94 126
57 90 121
60 93 128
58 92 121
58 92 121
57 91 120
59 93 125
60 94 123
59 93 133
58 91 127
58 91 116
57 90 121
58 91 125
58 90 121
58 91 124
59 93 125
57 90 113
58 91 126
57 90 127
56 87 118
55 86 104
56 87 118
55 86 117
54 84 106
53 80 96
50 76 85
149 171 29
166 178 44
152 150 0
70 73 13
31 38 14
34 44 18
35 45 21
37 49 23
39 50 32
41 53 29
46 60 35
46 60 36
46 61 39
47 63 46
48 64 42
46 62 40
52 66 37
124 123 8
118 117 0
131 129 0
130 129 0
134 132 0
147 144 0
142 141 0
142 141 0
144 143 0
148 146 0
143 142 0
147 145 0
143 141 0
149 146 0
151 149 0
152 150 0
150 147 0
154 151 0
149 147 0
151 149 0
152 149 0
152 149 0
152 150 0
154 151 0
150 148 0
155 152 0
155 152 0
154 151 0
153 151 0
154 151 0
154 152 0
154 151 0
153 150 0
155 152 0
154 152 0
154 151 0
154 151 0
155 152 0
154 151 0
154 151 0
156 153 0
156 153 0
156 153 0
156 153 0
155 152 0
156 153 0
155 153 0
154 152 0
155 153 0
156 153 0
155 153 0
155 153 0
154 151 0
155 153 0
156 153 0
155 152 0
155 153 0
155 153 0
155 153 0
154 152 0
157 153 0
156 153 0
156 153 0
156 153 0
154 176 0
155 176 0
157 177 0
155 176 0
158 178 0
156 177 0
157 177 0
155 176 0
156 177 0
155 176 0
155 176 0
156 177 0
153 175 0
154 175 0
153 175 0
155 176 0
155 176 0
153 174 0
156 176 0
155 175 0
153 175 0
155 176 0
155 175 0
153 174 0
155 176 0
156 177 0
153 175 0
154 175 0
153 175 0
154 175 0
152 173 0
152 173 0
153 173 0
153 174 0
154 175 0
153 174 0
152 174 0
150 171 0
152 173 0
151 172 0
151 172 0
153 174 0
151 172 0
150 171 0
152 173 0
150 171 0
149 169 0
150 171 0
146 165 0
145 165 0
147 167 0
146 167 0
145 163 0
143 163 0
146 165 0
141 160 0
139 157 0
143 162 0
142 160 0
128 146 0
137 156 0
132 149 0
121 138 0
118 134 0
98 114 36
47 75 85
45 71 80
47 74 83
44 69 81
44 70 76
42 68 67
44 71 79
38 61 43
39 62 49
35 57 53
36 59 37
37 57 41
131 151 6
152 173 0
172 195 0
172 196 0
73 98 93
52 83 99
54 87 110
54 85 112
54 86 117
58 90 125
56 88 117
56 89 97
60 94 132
58 92 120
59 93 122
57 90 119
57 90 113
59 93 127
58 91 119
56 90 110
59 93 119
59 93 127
58 91 125
59 92 125
59 92 118
57 90 120
57 91 124
57 89 122
58 91 122
60 94 131
58 92 121
58 91 121
58 91 126
60 93 124
59 92 125
57 90 117
58 92 113
58 90 124
58 91 116
59 93 126
57 89 120
59 92 125
58 90 120
58 90 117
57 90 114
56 87 101
56 88 113
58 90 114
57 90 119
56 88 126
56 87 106
56 87 110
55 86 107
54 84 96
53 81 97
53 81 102
65 88 70
173 196 8
172 192 0
154 151 0
129 128 9
38 48 26
36 46 15
36 46 23
37 48 23
42 55 36
39 50 24
42 55 28
44 56 32
43 56 29
44 59 40
46 62 36
45 60 38
82 87 29
124 123 0
131 129 0
128 128 0
129 128 0
131 130 0
137 136 0
140 139 0
145 144 0
141 139 0
141 139 0
142 140 0
146 144 0
149 147 0
146 144 0
148 145 0
149 147 0
150 148 0
147 145 0
148 147 0
151 147 0
152 149 0
150 148 0
153 151 0
151 149 0
154 151 0
152 150 0
153 150 0
151 149 0
153 150 0
154 151 0
153 151 0
154 151 0
154 151 0
154 152 0
153 150 0
155 152 0
155 152 0
154 152 0
153 151 0
154 151 0
153 151 0
153 151 0
154 152 0
154 152 0
155 152 0
157 153 0
153 150 0
154 152 0
155 152 0
156 153 0
156 153 0
154 152 0
154 152 0
155 152 0
156 153 0
154 152 0
155 152 0
156 153 0
155 153 0
156 152 0
155 152 0
156 152 0
154 151 0
155 152 0
155 176 0
155 176 0
155 176 0
154 175 0
155 177 0
156 176 0
156 177 0
154 176 0
157 177 0
154 175 0
155 176 0
154 175 0
153 174 0
155 176 0
156 177 0
157 177 0
154 175 0
154 175 0
153 175 0
153 174 0
153 174 0
152 173 0
153 173 0
154 174 0
155 176 0
152 173 0
154 176 0
151 172 0
151 172 0
154 174 0
152 172 0
153 174 0
153 173 0
153 174 0
153 174 0
153 173 0
146 166 0
151 172 0
150 171 0
152 172 0
153 173 0
154 175 0
150 169 0
149 169 0
151 172 0
149 169 0
149 170 0
146 166 0
148 169 0
147 168 0
146 166 0
146 166 0
141 161 0
142 161 0
134 153 0
139 158 0
137 157 0
138 155 0
127 144 0
133 151 0
128 146 0
119 137 0
117 133 0
117 134 0
104 119 0
68 87 55
44 70 69
46 73 75
44 70 93
42 67 55
39 62 62
39 63 54
39 63 64
36 59 44
33 54 33
33 54 27
109 129 31
150 170 0
158 180 0
174 197 0
173 197 0
109 132 67
50 80 92
53 84 95
56 89 118
55 86 100
55 87 113
57 90 108
56 89 125
57 89 110
56 88 104
58 92 124
57 91 120
58 91 124
57 91 119
59 92 123
58 92 123
58 91 122
60 94 132
57 90 110
58 91 126
58 92 122
59 92 128
57 91 117
57 89 123
58 92 124
59 93 115
59 93 130
57 91 111
58 92 122
58 91 118
57 90 120
57 90 117
57 90 121
58 92 121
58 92 120
59 93 129
58 91 118
57 89 129
57 89 113
57 89 116
58 91 117
57 89 115
57 89 121
59 92 126
56 86 113
56 86 106
57 89 114
56 88 109
56 86 114
54 84 103
55 83 104
51 77 77
106 126 69
173 197 0
174 198 0
156 159 0
148 146 0
125 124 0
34 45 18
37 48 17
37 47 18
40 52 22
40 52 27
41 53 26
43 56 31
41 54 32
45 60 37
44 60 34
64 73 26
117 116 0
110 110 0
115 114 0
117 116 0
130 129 0
129 128 0
131 131 0
137 134 0
141 139 0
138 137 0
139 138 0
139 138 0
142 140 0
143 141 0
147 145 0
144 142 0
149 146 0
147 146 0
150 147 0
148 145 0
146 145 0
148 146 0
148 147 0
153 150 0
149 146 0
150 146 0
148 146 0
155 152 0
153 150 0
150 147 0
153 150 0
153 150 0
152 149 0
154 150 0
152 150 0
152 150 0
154 152 0
153 150 0
153 151 0
153 150 0
152 150 0
154 151 0
154 151 0
154 151 0
155 152 0
155 152 0
155 152 0
156 153 0
154 152 0
155 152 0
155 152 0
152 150 0
155 152 0
154 152 0
156 153 0
153 151 0
155 152 0
157 153 0
155 151 0
155 152 0
155 153 0
156 153 0
155 153 0
155 153 0
156 153 0
155 176 0
155 176 0
155 176 0
156 177 0
153 174 0
156 177 0
155 176 0
156 176 0
154 175 0
156 176 0
155 176 0
155 175 0
151 172 0
153 174 0
152 174 0
154 174 0
153 174 0
154 174 0
155 175 0
153 174 0
153 175 0
151 172 0
155 176 0
152 173 0
151 172 0
153 173 0
153 174 0
151 172 0
153 173 0
150 171 0
153 174 0
152 172 0
151 172 0
149 169 0
152 173 0
151 173 0
151 172 0
150 171 0
150 170 0
150 170 0
146 166 0
149 168 0
151 171 0
144 165 0
151 172 0
147 167 0
148 168 0
150 170 0
147 167 0
145 164 0
145 166 0
141 161 0
147 167 0
139 159 0
140 159 0
135 156 0
133 153 0
132 151 0
134 153 0
121 140 0
121 140 0
116 134 0
118 135 0
107 122 0
86 101 0
94 109 0
68 86 58
41 65 67
45 72 78
40 64 49
37 60 51
39 62 53
38 61 47
37 60 43
46 67 32
107 126 39
143 163 0
147 167 0
168 190 0
175 197 0
176 198 0
148 171 53
51 80 97
54 86 106
55 87 111
54 86 113
55 86 111
55 87 115
56 89 120
56 88 112
57 90 123
57 90 121
57 90 115
55 87 98
56 89 116
58 92 115
56 89 113
58 91 119
57 89 122
59 93 130
58 92 121
58 91 117
59 93 125
58 92 111
57 91 118
58 92 122
55 87 111
56 89 114
56 89 111
57 90 120
57 91 118
60 94 137
57 90 118
59 93 120
58 91 110
58 92 121
56 88 99
58 91 117
57 89 106
57 90 105
56 89 114
58 90 118
59 91 116
57 90 113
57 89 108
55 86 107
59 91 120
55 84 103
54 83 96
55 86 95
54 84 114
52 80 79
50 76 72
138 159 48
174 197 0
174 198 0
166 181 0
147 145 0
139 138 0
115 115 8
48 56 17
35 45 12
38 49 21
40 52 26
41 55 25
42 55 26
42 55 26
40 53 25
63 68 12
90 91 11
103 103 0
117 116 0
110 110 0
115 114 0
118 117 0
129 128 0
135 134 0
138 135 0
140 137 0
129 129 0
143 139 0
139 137 0
147 144 0
140 139 0
143 142 0
148 146 0
144 142 0
144 142 0
145 143 0
148 145 0
150 146 0
148 145 0
149 147 0
151 148 0
150 147 0
149 147 0
149 146 0
147 144 0
150 147 0
153 151 0
153 149 0
149 146 0
152 150 0
150 148 0
153 150 0
149 147 0
152 149 0
151 150 0
153 150 0
154 151 0
153 150 0
153 150 0
152 150 0
152 150 0
153 150 0
153 150 0
155 152 0
152 149 0
153 150 0
154 151 0
154 151 0
153 150 0
157 153 0
154 152 0
152 151 0
156 153 0
156 153 0
156 152 0
155 152 0
155 153 0
155 152 0
154 151 0
156 153 0
156 152 0
155 153 0
155 175 0
154 175 0
155 176 0
154 175 0
154 174 0
155 176 0
151 173 0
154 175 0
152 174 0
155 176 0
155 176 0
155 176 0
154 175 0
153 173 0
155 176 0
155 176 0
156 177 0
152 173 0
155 175 0
154 176 0
153 174 0
153 173 0
151 172 0
152 173 0
152 172 0
156 176 0
147 169 0
151 173 0
151 172 0
150 171 0
151 172 0
153 173 0
153 174 0
154 175 0
152 173 0
149 169 0
150 170 0
149 170 0
149 171 0
150 171 0
152 173 0
146 166 0
147 168 0
151 171 0
147 168 0
146 167 0
142 163 0
145 165 0
146 166 0
139 160 0
140 161 0
145 165 0
141 161 0
139 159 0
140 160 0
132 152 0
133 151 0
127 145 0
124 143 0
124 142 0
125 142 0
122 140 0
118 135 0
107 123 0
105 120 0
95 110 0
72 86 0
59 74 36
43 64 38
37 59 44
38 61 52
35 56 40
39 61 38
73 90 46
108 127 0
131 150 0
140 161 0
152 173 0
174 197 0
173 197 0
174 198 0
171 194 0
71 97 89
49 79 91
54 85 103
52 82 95
55 86 114
54 86 111
56 89 111
57 89 120
55 88 118
58 91 109
56 89 115
56 89 111
57 90 118
57 89 115
58 91 113
56 89 103
57 90 120
58 91 122
56 89 108
58 91 112
56 89 113
56 89 122
56 89 114
60 94 130
57 90 122
57 91 114
58 92 128
58 92 120
56 89 120
59 93 131
57 89 124
58 91 120
59 92 115
58 92 118
57 89 109
59 93 138
59 92 122
58 91 126
56 87 104
58 91 114
59 92 127
56 87 108
57 89 115
57 88 110
54 85 103
55 86 103
55 85 99
54 83 104
54 84 95
51 77 87
69 94 82
170 193 0
174 197 0
171 195 0
172 195 0
148 148 0
140 138 0
134 132 0
115 114 3
64 68 16
40 51 14
39 49 19
37 49 19
38 50 21
49 57 21
72 73 14
77 77 0
78 79 0
103 100 0
115 114 0
106 104 0
119 117 0
116 115 0
126 125 0
129 128 0
127 126 0
123 123 0
138 135 0
139 136 0
142 139 0
136 132 0
145 141 0
142 140 0
141 138 0
145 143 0
145 142 0
144 141 0
146 145 0
144 141 0
143 141 0
146 143 0
148 146 0
147 145 0
146 144 0
146 143 0
148 145 0
153 150 0
150 147 0
151 148 0
152 149 0
146 144 0
152 149 0
149 146 0
152 149 0
150 147 0
151 148 0
153 149 0
152 149 0
149 146 0
154 150 0
154 150 0
152 150 0
152 148 0
153 150 0
154 150 0
155 151 0
153 151 0
153 150 0
155 152 0
154 151 0
153 150 0
152 149 0
152 150 0
156 153 0
154 151 0
154 151 0
155 153 0
154 152 0
155 152 0
154 151 0
155 151 0
155 152 0
156 153 0
155 176 0
151 172 0
155 176 0
156 177 0
154 175 0
155 175 0
154 175 0
157 177 0
151 172 0
155 176 0
152 173 0
153 174 0
152 173 0
152 173 0
153 173 0
154 175 0
155 176 0
152 173 0
154 174 0
153 174 0
152 173 0
149 170 0
153 173 0
152 173 0
153 174 0
153 174 0
152 173 0
152 173 0
147 168 0
151 172 0
153 172 0
150 170 0
152 173 0
151 172 0
152 173 0
150 171 0
148 168 0
149 170 0
147 168 0
147 169 0
146 167 0
146 165 0
140 159 0
148 168 0
146 167 0
145 166 0
147 168 0
139 159 0
146 166 0
137 157 0
136 156 0
139 159 0
142 163 0
137 157 0
128 147 0
137 157 0
131 150 0
132 152 0
129 148 0
128 146 0
132 151 0
123 141 0
116 133 0
109 125 0
104 120 0
95 110 0
87 101 0
72 84 0
68 79 0
65 76 0
49 62 16
82 95 16
84 98 0
111 128 0
121 139 0
130 149 0
142 162 0
165 188 0
172 196 0
173 196 0
172 196 0
170 194 0
115 137 66
51 81 99
52 82 94
52 83 103
54 86 98
53 85 100
56 88 108
58 90 118
55 87 111
55 88 114
55 88 103
56 88 102
57 90 121
55 87 111
56 89 108
58 91 118
58 92 124
56 89 106
56 89 117
58 91 115
56 90 111
57 90 114
57 90 114
56 88 105
56 88 111
56 88 107
57 90 115
58 91 122
57 91 107
56 88 118
57 89 120
55 87 115
57 89 110
56 88 110
57 90 113
57 89 118
55 87 104
58 91 124
55 87 96
57 89 120
55 85 103
56 87 101
56 87 113
57 89 108
56 86 102
55 84 94
52 80 84
55 84 92
50 78 93
47 70 68
134 156 34
172 195 0
173 196 0
172 196 0
172 195 0
164 177 0
138 137 0
126 124 0
112 112 0
102 99 0
90 87 0
70 70 0
66 64 0
57 56 0
75 73 0
84 80 0
86 85 0
98 98 0
94 95 0
99 99 0
104 102 0
111 111 0
121 119 0
121 118 0
130 128 0
131 128 0
133 131 0
136 134 0
136 133 0
136 134 0
139 137 0
140 137 0
139 137 0
141 140 0
147 145 0
141 139 0
144 141 0
147 144 0
143 141 0
149 146 0
147 144 0
141 139 0
146 144 0
149 146 0
149 146 0
148 144 0
147 145 0
150 147 0
144 142 0
149 146 0
153 149 0
149 148 0
152 148 0
150 147 0
153 149 0
152 148 0
151 148 0
150 148 0
152 148 0
154 150 0
150 147 0
154 150 0
153 151 0
154 150 0
154 150 0
154 151 0
153 149 0
153 151 0
151 147 0
154 151 0
156 153 0
155 152 0
153 149 0
154 151 0
155 152 0
155 152 0
153 150 0
155 151 0
155 153 0
156 153 0
154 151 0
153 151 0
155 152 0
154 175 0
155 176 0
154 175 0
151 172 0
153 174 0
155 176 0
155 175 0
154 175 0
154 175 0
154 174 0
153 174 0
153 175 0
153 175 0
154 175 0
153 174 0
151 172 0
154 175 0
153 174 0
151 172 0
156 176 0
150 170 0
149 169 0
154 175 0
152 173 0
150 171 0
152 173 0
153 174 0
153 173 0
150 170 0
148 169 0
151 171 0
151 172 0
149 170 0
150 172 0
147 167 0
149 170 0
147 168 0
147 168 0
145 166 0
148 169 0
145 165 0
148 168 0
147 167 0
149 169 0
147 167 0
143 163 0
143 163 0
140 160 0
135 155 0
136 155 0
141 160 0
142 161 0
140 160 0
137 157 0
129 147 0
131 149 0
130 149 0
124 143 0
132 151 0
120 139 0
117 134 0
111 129 0
112 129 0
103 120 0
109 125 0
87 102 0
94 109 0
84 98 0
78 91 0
79 91 0
80 93 0
90 105 0
101 116 0
112 130 0
121 139 0
131 152 0
145 165 0
173 196 0
171 195 0
174 197 0
169 192 0
171 194 0
167 190 0
55 81 83
52 82 106
53 83 104
53 84 98
55 86 109
55 87 107
53 84 103
57 90 111
56 88 111
56 89 113
56 89 108
56 88 122
55 86 108
55 88 106
56 89 113
57 90 106
56 89 99
56 89 105
56 89 113
58 91 118
56 90 107
56 89 106
58 92 129
59 93 120
58 92 120
59 92 133
56 88 110
58 91 117
56 89 118
57 91 115
57 89 114
56 88 108
58 91 121
55 87 107
55 87 103
54 86 96
57 90 114
57 89 116
55 86 95
56 88 97
56 88 113
54 85 101
56 86 114
53 82 105
54 83 101
51 78 82
54 83 93
54 82 86
67 88 70
166 189 0
172 195 0
172 194 0
170 193 0
171 195 0
169 192 0
152 152 0
135 131 0
122 118 0
116 115 0
92 90 0
78 79 0
84 81 0
78 75 0
78 76 0
94 91 0
94 91 0
108 103 0
101 100 0
116 114 0
118 115 0
123 121 0
124 121 0
123 122 0
123 122 0
123 119 0
134 129 0
140 137 0
133 131 0
135 133 0
141 140 0
139 136 0
138 136 0
139 136 0
141 138 0
142 139 0
139 137 0
141 139 0
144 141 0
140 138 0
144 140 0
148 145 0
145 144 0
146 143 0
150 146 0
151 147 0
149 145 0
149 146 0
148 146 0
152 149 0
148 146 0
148 145 0
152 150 0
150 147 0
150 146 0
151 148 0
151 148 0
150 146 0
150 147 0
151 148 0
149 147 0
152 147 0
153 150 0
151 150 0
153 149 0
153 151 0
154 151 0
152 149 0
154 151 0
154 151 0
152 150 0
152 149 0
154 150 0
152 149 0
154 150 0
153 150 0
154 150 0
155 151 0
154 151 0
155 153 0
154 151 0
154 152 0
155 152 0
154 175 0
155 176 0
153 174 0
152 174 0
153 174 0
154 176 0
153 174 0
155 175 0
151 173 0
154 175 0
152 173 0
154 175 0
154 175 0
153 174 0
150 171 0
153 174 0
152 173 0
152 174 0
154 174 0
153 173 0
152 173 0
152 172 0
152 173 0
152 173 0
148 169 0
152 173 0
152 173 0
152 173 0
149 169 0
149 170 0
151 172 0
150 171 0
148 169 0
145 166 0
149 169 0
151 171 0
146 167 0
150 171 0
146 166 0
147 166 0
145 164 0
145 165 0
147 167 0
147 168 0
139 159 0
146 166 0
138 159 0
142 162 0
132 151 0
136 157 0
139 160 0
136 156 0
132 152 0
134 153 0
138 158 0
132 152 0
135 155 0
125 143 0
124 143 0
127 144 0
122 140 0
121 138 0
110 127 0
108 125 0
102 118 0
94 110 0
104 119 0
86 101 0
89 103 0
90 105 0
108 122 0
94 110 0
99 116 0
112 130 0
123 143 0
135 155 0
167 190 0
169 193 0
169 193 0
167 191 0
170 194 0
171 195 0
170 193 0
131 153 48
50 80 91
53 84 99
50 80 98
52 83 95
53 85 99
54 86 100
55 87 107
55 87 107
57 89 114
56 88 108
57 90 118
56 88 105
55 86 99
56 89 106
56 88 103
55 87 102
56 90 109
54 87 105
56 88 115
57 90 106
56 89 108
56 89 117
57 91 115
56 88 108
58 91 114
56 88 103
57 90 111
56 88 110
57 89 111
57 89 114
57 90 118
58 90 118
56 88 105
55 86 105
54 85 96
55 88 100
57 89 113
56 88 115
56 89 110
53 83 93
54 85 102
54 84 93
56 87 111
54 84 101
54 84 98
51 79 92
51 77 73
126 147 66
167 190 0
170 192 0
172 194 0
171 193 0
168 190 0
171 194 0
162 182 0
139 135 0
125 121 0
117 114 0
96 95 0
96 94 0
98 96 0
102 98 0
99 96 0
101 97 0
106 103 0
92 91 0
106 105 0
103 103 0
110 109 0
114 112 0
124 122 0
117 116 0
126 123 0
135 133 0
129 124 0
129 127 0
135 133 0
131 127 0
139 135 0
138 134 0
140 137 0
140 137 0
139 137 0
144 139 0
143 139 0
148 145 0
144 141 0
141 139 0
143 141 0
144 141 0
147 145 0
152 148 0
145 143 0
148 145 0
147 144 0
148 144 0
149 146 0
147 143 0
149 145 0
150 146 0
152 148 0
150 146 0
150 147 0
150 146 0
148 145 0
147 144 0
153 150 0
154 149 0
152 149 0
151 148 0
153 150 0
151 148 0
152 149 0
152 149 0
153 149 0
152 149 0
153 150 0
153 150 0
151 148 0
155 151 0
154 151 0
152 148 0
152 150 0
153 149 0
152 149 0
154 151 0
154 151 0
154 151 0
154 151 0
154 151 0
154 152 0
156 177 0
155 176 0
153 174 0
153 174 0
153 174 0
155 175 0
152 174 0
154 175 0
151 172 0
151 173 0
154 174 0
153 173 0
152 173 0
153 174 0
154 175 0
152 174 0
152 173 0
153 173 0
153 173 0
150 171 0
147 167 0
153 173 0
149 169 0
154 174 0
151 172 0
148 170 0
150 170 0
152 173 0
151 172 0
149 169 0
145 165 0
146 167 0
145 165 0
148 168 0
144 164 0
146 167 0
146 166 0
144 165 0
145 165 0
147 168 0
146 167 0
145 165 0
144 164 0
146 166 0
144 164 0
141 161 0
140 160 0
140 161 0
141 161 0
133 152 0
138 158 0
139 159 0
138 157 0
132 153 0
135 154 0
124 143 0
130 148 0
130 150 0
127 146 0
123 140 0
123 141 0
121 139 0
121 137 0
123 141 0
99 115 0
105 122 0
111 127 0
102 117 0
100 115 0
96 111 0
97 112 0
103 117 0
105 121 0
119 137 0
126 145 0
157 178 0
169 193 0
171 194 0
169 192 0
169 192 0
166 189 0
167 191 0
166 190 0
164 187 16
69 92 63
51 81 91
52 82 96
54 85 107
52 84 85
52 82 77
53 85 101
53 83 92
56 89 114
56 88 107
54 86 99
55 86 104
56 89 105
56 88 103
56 89 118
56 88 105
55 88 105
57 90 112
57 90 117
56 89 103
57 90 111
55 88 106
56 89 105
57 90 107
55 86 107
57 90 115
57 90 117
55 86 101
57 91 113
53 84 108
54 86 99
53 84 96
56 88 113
54 86 92
55 87 99
56 88 97
55 86 102
55 86 104
55 85 98
54 85 96
54 83 105
54 84 100
52 82 89
54 83 98
52 80 94
50 77 85
88 107 71
165 188 0
163 184 0
171 193 0
167 190 0
169 192 0
167 189 0
170 192 0
168 191 0
153 162 0
133 128 0
118 115 0
118 112 0
105 100 0
105 101 0
90 87 0
102 98 0
96 92 0
106 102 0
113 110 0
104 102 0
111 107 0
117 113 0
119 116 0
119 116 0
115 113 0
124 120 0
131 128 0
130 125 0
134 130 0
131 128 0
132 128 0
136 133 0
129 126 0
140 137 0
136 134 0
135 132 0
141 137 0
140 137 0
140 135 0
145 142 0
142 138 0
144 140 0
148 143 0
142 139 0
146 142 0
147 143 0
150 147 0
149 144 0
150 146 0
143 140 0
148 143 0
151 146 0
150 145 0
152 147 0
144 142 0
147 143 0
152 147 0
150 146 0
151 147 0
152 148 0
151 147 0
151 148 0
149 145 0
148 145 0
151 148 0
153 148 0
150 147 0
153 149 0
152 150 0
149 146 0
151 148 0
153 150 0
151 148 0
152 149 0
153 149 0
152 149 0
153 149 0
154 150 0
156 150 0
154 150 0
155 151 0
155 151 0
154 150 0
155 152 0
153 174 0
155 175 0
154 174 0
152 172 0
154 175 0
155 176 0
151 172 0
151 173 0
152 173 0
149 171 0
150 171 0
152 173 0
154 175 0
152 173 0
152 172 0
151 172 0
151 172 0
152 172 0
149 169 0
147 168 0
150 171 0
148 168 0
149 170 0
147 168 0
153 174 0
149 169 0
147 168 0
145 166 0
149 170 0
148 168 0
149 169 0
149 169 0
148 169 0
150 171 0
151 170 0
143 164 0
150 170 0
149 169 0
147 168 0
143 164 0
148 168 0
141 160 0
143 163 0
139 159 0
142 161 0
145 166 0
133 153 0
140 160 0
139 158 0
135 154 0
137 156 0
132 150 0
135 154 0
135 153 0
129 147 0
132 151 0
131 149 0
125 143 0
126 143 0
121 139 0
121 140 0
113 130 0
123 140 0
113 131 0
114 129 0
110 126 0
112 127 0
97 112 0
109 123 0
93 108 0
107 123 0
119 135 0
116 133 0
124 142 0
147 167 0
166 189 0
169 192 0
166 190 0
164 187 0
166 190 0
168 191 0
165 187 0
163 185 0
162 185 0
148 169 36
50 80 92
53 84 104
52 82 93
53 84 92
54 86 104
52 84 97
54 86 95
51 82 95
55 87 100
57 90 110
55 88 92
56 88 109
56 89 110
56 88 105
55 87 99
59 93 129
55 87 102
57 89 118
57 90 110
57 90 115
57 90 103
55 87 92
57 90 97
55 86 105
56 88 99
56 88 110
58 91 110
56 87 104
55 86 102
58 91 121
55 87 105
56 88 116
55 87 107
53 84 94
57 88 110
56 88 111
55 85 103
55 86 103
53 83 79
56 87 114
55 85 93
53 82 97
52 79 95
49 77 77
54 79 64
144 164 37
167 189 0
168 189 0
165 186 0
168 191 0
165 186 0
169 189 0
164 184 0
164 185 0
166 187 0
145 148 0
126 122 0
121 116 0
106 102 0
112 108 0
105 100 0
106 102 0
100 95 0
101 98 0
97 94 0
108 102 0
121 117 0
118 114 0
118 116 0
117 112 0
126 121 0
126 122 0
126 122 0
131 127 0
136 132 0
135 129 0
136 133 0
135 130 0
136 132 0
136 132 0
134 128 0
137 134 0
144 139 0
139 135 0
141 138 0
138 135 0
141 137 0
146 143 0
141 137 0
142 138 0
149 144 0
147 143 0
145 142 0
146 141 0
145 142 0
145 141 0
143 139 0
148 144 0
147 143 0
151 146 0
150 146 0
149 145 0
150 146 0
146 143 0
148 144 0
148 143 0
153 149 0
151 148 0
151 148 0
150 147 0
152 147 0
150 147 0
153 149 0
151 145 0
154 151 0
152 148 0
153 148 0
151 146 0
153 150 0
151 149 0
154 151 0
153 150 0
152 148 0
153 149 0
152 149 0
152 148 0
155 152 0
152 148 0
152 148 0
153 149 0
153 173 0
154 175 0
154 174 0
151 173 0
151 171 0
154 175 0
153 174 0
153 173 0
152 173 0
155 175 0
151 172 0
152 172 0
152 173 0
152 173 0
148 169 0
151 172 0
150 170 0
151 172 0
150 170 0
150 172 0
149 171 0
153 174 0
151 171 0
152 173 0
149 170 0
147 167 0
148 169 0
146 166 0
147 167 0
147 167 0
144 164 0
146 166 0
143 164 0
152 172 0
145 164 0
143 164 0
147 167 0
144 163 0
145 165 0
145 166 0
145 164 0
140 159 0
141 161 0
141 159 0
141 162 0
138 158 0
136 156 0
134 154 0
136 156 0
139 158 0
134 153 0
133 153 0
132 152 0
127 146 0
121 140 0
131 148 0
125 143 0
130 148 0
124 143 0
126 144 0
120 139 0
112 129 0
111 128 0
111 127 0
103 119 0
118 135 0
109 125 0
110 126 0
107 123 0
109 125 0
115 132 0
113 129 0
121 139 0
132 152 0
166 189 0
167 190 0
163 185 0
163 185 0
165 188 0
164 187 0
163 185 0
163 186 0
162 184 0
161 184 0
160 183 0
119 141 60
48 76 81
54 86 103
49 78 75
50 79 82
51 82 87
52 82 86
53 84 85
52 82 86
54 86 108
57 90 108
54 86 95
56 88 92
54 85 100
54 86 111
54 86 103
56 89 109
54 86 103
54 86 99
56 88 107
56 88 110
56 87 108
54 86 95
56 88 108
53 85 97
55 86 99
53 85 100
55 87 101
55 87 103
57 89 108
56 87 107
53 84 99
53 84 100
54 85 99
53 83 95
53 84 92
53 84 96
52 80 89
52 82 77
55 85 102
53 83 94
52 81 103
50 78 76
52 79 91
126 145 44
158 179 0
163 183 0
164 186 0
167 187 0
162 183 0
162 183 0
163 183 0
166 188 0
168 188 0
165 186 0
160 179 0
130 130 0
124 117 0
110 104 0
109 103 0
106 102 0
109 103 0
101 97 0
111 106 0
115 110 0
108 103 0
115 111 0
119 114 0
128 121 0
120 117 0
122 118 0
119 116 0
123 119 0
129 125 0
134 130 0
138 132 0
134 129 0
136 131 0
129 124 0
134 129 0
138 133 0
139 135 0
137 133 0
140 136 0
143 138 0
139 136 0
134 132 0
142 137 0
140 135 0
140 135 0
146 143 0
143 139 0
144 141 0
142 138 0
141 137 0
144 140 0
144 139 0
150 146 0
148 145 0
150 145 0
146 143 0
147 142 0
149 144 0
143 138 0
149 145 0
149 144 0
148 145 0
150 144 0
151 146 0
151 148 0
151 146 0
152 147 0
152 147 0
150 147 0
151 149 0
152 148 0
152 147 0
150 147 0
151 147 0
150 147 0
152 150 0
153 149 0
153 150 0
152 148 0
153 149 0
152 148 0
151 147 0
154 151 0
154 151 0
152 148 0
153 173 0
154 175 0
153 174 0
153 173 0
154 175 0
154 174 0
154 175 0
154 174 0
155 174 0
151 171 0
149 169 0
152 172 0
151 171 0
151 171 0
149 169 0
149 169 0
149 170 0
151 172 0
151 172 0
148 168 0
151 171 0
149 169 0
145 166 0
147 167 0
147 167 0
148 168 0
150 170 0
146 167 0
148 168 0
146 165 0
148 168 0
143 162 0
147 167 0
146 166 0
147 168 0
146 166 0
148 169 0
147 166 0
142 162 0
140 160 0
141 161 0
142 163 0
139 158 0
137 157 0
139 159 0
135 154 0
137 156 0
138 158 0
136 154 0
136 155 0
137 156 0
131 150 0
124 143 0
134 153 0
122 140 0
128 146 0
125 143 0
122 139 0
121 139 0
127 144 0
112 128 0
120 136 0
109 125 0
123 140 0
107 124 0
114 129 0
102 117 0
109 124 0
113 129 0
112 128 0
114 131 0
112 128 0
130 148 0
162 183 0
168 191 0
161 184 0
162 184 0
164 187 0
161 183 0
158 181 0
162 185 0
163 187 0
160 183 0
162 185 0
159 182 0
154 177 0
98 121 60
51 81 92
48 76 77
50 79 86
52 82 88
51 81 93
54 85 106
53 85 102
52 82 93
54 86 96
53 84 98
53 85 95
55 86 100
54 86 100
52 83 86
56 88 98
55 88 105
57 89 108
54 86 99
54 84 100
56 88 105
56 88 97
56 88 103
55 88 102
55 87 99
56 88 94
55 88 105
55 87 99
54 86 97
56 88 110
57 89 114
52 82 83
53 83 99
53 84 101
52 82 95
52 82 80
54 84 96
55 84 107
53 84 95
51 80 81
51 80 87
49 75 71
96 118 71
158 177 0
155 174 0
159 178 0
156 175 0
162 182 0
160 181 0
158 178 0
160 177 0
168 187 0
160 181 0
162 181 0
165 185 0
156 172 0
127 122 0
125 118 0
108 102 0
113 108 0
114 107 0
107 101 0
113 106 0
98 93 0
111 105 0
115 107 0
113 108 0
120 114 0
122 116 0
122 116 0
122 119 0
131 126 0
132 127 0
128 125 0
134 129 0
129 124 0
138 133 0
137 132 0
137 133 0
138 132 0
140 134 0
136 132 0
134 130 0
135 129 0
138 133 0
136 131 0
146 141 0
147 141 0
143 138 0
142 136 0
143 139 0
146 142 0
141 137 0
145 141 0
145 140 0
145 141 0
148 143 0
139 135 0
147 143 0
151 146 0
146 141 0
148 144 0
150 145 0
150 146 0
146 142 0
151 147 0
146 141 0
148 143 0
151 147 0
146 143 0
147 142 0
152 146 0
149 145 0
147 145 0
152 148 0
151 147 0
152 147 0
150 145 0
153 149 0
150 147 0
153 150 0
153 149 0
152 148 0
152 149 0
152 149 0
153 149 0
153 148 0
153 150 0
152 147 0
154 174 0
153 174 0
152 172 0
154 175 0
151 171 0
153 174 0
155 175 0
150 171 0
154 174 0
154 174 0
153 173 0
151 171 0
150 170 0
148 169 0
149 169 0
152 172 0
151 172 0
150 170 0
150 170 0
150 170 0
148 167 0
151 171 0
147 168 0
146 167 0
151 171 0
145 165 0
146 166 0
149 170 0
147 167 0
147 167 0
144 164 0
145 164 0
145 165 0
141 160 0
145 165 0
148 168 0
141 161 0
146 165 0
143 162 0
140 159 0
141 160 0
140 160 0
142 162 0
144 164 0
139 158 0
136 155 0
137 156 0
131 151 0
133 151 0
135 154 0
133 151 0
127 147 0
130 149 0
122 140 0
127 146 0
128 146 0
127 145 0
113 131 0
122 139 0
124 141 0
117 135 0
119 136 0
116 133 0
114 131 0
114 130 0
109 125 0
108 123 0
114 130 0
114 130 0
115 130 0
110 125 0
120 137 0
160 181 0
163 184 0
159 181 0
162 184 0
159 181 0
159 180 0
159 182 0
157 180 0
156 178 0
155 177 0
148 169 0
156 177 0
150 172 0
154 176 0
149 170 31
79 101 72
48 77 74
51 82 86
54 85 93
51 82 90
53 84 93
52 83 84
52 83 88
54 86 103
54 85 85
54 85 105
55 87 97
55 87 105
54 85 95
54 85 93
54 86 88
55 87 97
53 85 95
54 86 105
54 86 97
55 87 108
57 89 115
55 86 95
54 86 95
55 87 108
53 84 90
55 86 101
57 89 105
53 85 94
53 84 105
54 85 97
52 82 102
51 81 88
52 82 84
53 83 100
53 83 101
53 83 85
49 77 68
52 81 91
50 77 89
81 103 68
152 173 8
155 173 0
152 171 0
152 170 0
161 181 0
152 172 0
156 175 0
153 169 0
156 175 0
162 181 0
151 166 0
158 176 0
164 182 0
158 176 0
158 169 0
125 119 0
114 107 0
116 108 0
116 110 0
100 96 0
113 106 0
119 110 0
119 112 0
116 111 0
112 107 0
111 104 0
116 111 0
125 119 0
120 114 0
126 120 0
124 119 0
128 123 0
134 129 0
132 125 0
133 129 0
126 119 0
132 125 0
132 128 0
135 130 0
131 126 0
137 134 0
138 132 0
140 138 0
139 135 0
141 136 0
143 138 0
139 134 0
140 134 0
138 135 0
145 141 0
144 139 0
143 138 0
140 134 0
142 138 0
144 138 0
147 139 0
146 141 0
150 145 0
148 145 0
149 144 0
145 141 0
147 143 0
148 143 0
148 145 0
149 146 0
151 147 0
148 144 0
151 147 0
145 142 0
146 141 0
151 147 0
151 149 0
152 147 0
152 145 0
152 147 0
150 147 0
151 147 0
148 144 0
153 149 0
152 146 0
150 146 0
149 145 0
153 149 0
152 147 0
152 146 0
155 151 0
152 149 0
153 173 0
152 174 0
151 172 0
151 172 0
150 171 0
150 170 0
150 171 0
147 167 0
150 170 0
151 171 0
151 172 0
149 169 0
146 166 0
150 171 0
149 169 0
153 173 0
150 171 0
148 168 0
147 167 0
151 171 0
148 168 0
147 167 0
149 168 0
148 168 0
148 169 0
150 169 0
147 168 0
147 167 0
142 162 0
145 165 0
147 167 0
145 166 0
147 166 0
146 166 0
143 163 0
144 164 0
144 163 0
143 162 0
143 163 0
138 158 0
144 164 0
141 160 0
135 154 0
138 156 0
137 157 0
141 161 0
135 154 0
133 153 0
139 158 0
131 149 0
137 155 0
133 151 0
128 145 0
118 136 0
129 148 0
123 140 0
129 147 0
122 140 0
130 146 0
124 141 0
118 134 0
120 137 0
118 134 0
111 127 0
115 131 0
113 128 0
110 125 0
98 114 0
110 125 0
111 126 0
122 138 0
149 169 0
155 176 0
154 175 0
152 174 0
154 176 0
149 170 0
155 176 0
145 167 0
152 174 0
155 177 0
155 176 0
146 167 0
152 174 0
155 176 0
147 168 0
146 167 0
142 163 31
87 107 62
47 75 67
52 82 84
51 81 93
52 83 84
52 83 95
48 77 82
51 81 87
54 86 102
53 85 90
54 85 91
52 83 94
52 82 98
54 85 99
54 86 88
52 82 82
52 82 94
52 84 90
53 83 97
51 82 86
54 86 100
56 88 103
54 85 100
55 87 94
54 84 102
54 85 85
53 84 97
53 83 89
53 83 95
53 83 97
54 85 108
52 82 81
54 85 100
53 82 78
50 78 78
49 77 84
50 77 79
45 71 60
65 87 67
146 166 8
146 164 0
148 167 0
151 169 0
146 162 0
145 161 0
149 164 0
150 168 0
158 178 0
153 170 0
155 173 0
153 167 0
153 167 0
156 174 0
156 174 0
160 175 0
147 156 0
123 117 0
120 114 0
109 101 0
104 97 0
118 112 0
112 105 0
119 111 0
113 107 0
115 109 0
113 107 0
119 113 0
119 113 0
114 109 0
120 114 0
123 117 0
120 114 0
129 123 0
132 126 0
132 126 0
132 125 0
129 123 0
127 121 0
140 136 0
132 127 0
136 130 0
140 135 0
139 132 0
139 133 0
138 132 0
144 137 0
145 139 0
135 130 0
142 137 0
144 138 0
142 137 0
148 144 0
135 130 0
145 139 0
144 139 0
147 142 0
147 140 0
141 136 0
142 137 0
145 138 0
145 140 0
146 139 0
148 143 0
148 142 0
149 145 0
148 143 0
150 145 0
149 145 0
149 144 0
151 144 0
148 141 0
149 145 0
151 145 0
151 146 0
151 147 0
150 144 0
151 146 0
154 149 0
153 147 0
151 147 0
152 146 0
155 149 0
153 149 0
153 147 0
152 148 0
152 148 0
154 149 0
153 174 0
152 172 0
152 172 0
152 172 0
152 173 0
151 171 0
153 173 0
151 172 0
150 171 0
150 170 0
152 173 0
150 170 0
150 170 0
150 170 0
148 168 0
148 169 0
148 168 0
150 170 0
149 169 0
148 168 0
150 169 0
148 167 0
147 167 0
147 166 0
147 166 0
146 167 0
146 165 0
147 167 0
148 167 0
142 162 0
143 162 0
145 164 0
142 162 0
143 162 0
140 159 0
146 166 0
145 163 0
146 165 0
144 162 0
140 158 0
142 161 0
142 160 0
140 159 0
140 159 0
140 159 0
136 155 0
129 146 0
136 154 0
134 152 0
131 149 0
125 145 0
129 147 0
129 147 0
123 140 0
121 138 0
121 137 0
120 137 0
120 136 0
127 143 0
118 133 0
127 145 0
117 133 0
111 126 0
113 129 0
108 124 0
107 122 0
109 124 0
115 130 0
113 129 0
124 140 0
147 167 0
152 171 0
157 176 0
145 164 0
153 173 0
153 174 0
154 174 0
154 174 0
148 168 0
153 174 0
149 171 0
148 168 0
144 165 0
144 165 0
139 160 0
136 157 0
145 166 0
137 158 0
141 161 0
81 103 54
48 77 83
49 78 77
46 73 62
49 78 86
53 83 103
51 81 78
50 80 87
50 80 76
53 84 93
52 83 87
54 86 94
55 86 103
51 82 90
53 84 86
52 83 82
51 82 92
52 83 88
51 82 74
52 82 84
52 83 88
56 88 107
55 87 86
53 84 94
52 82 97
52 82 99
54 84 92
52 82 80
51 81 92
53 83 102
53 83 94
51 81 75
49 77 76
50 77 80
46 72 56
48 76 77
79 99 70
128 145 0
132 150 0
139 158 0
136 153 0
142 159 0
139 155 0
142 157 0
148 165 0
145 163 0
139 154 0
152 168 0
149 163 0
145 157 0
146 160 0
154 167 0
154 170 0
155 169 0
158 174 0
148 158 0
119 114 0
113 104 0
104 97 0
107 101 0
111 103 0
118 109 0
117 108 0
117 108 0
115 108 0
123 113 0
121 114 0
124 116 0
124 116 0
125 117 0
131 124 0
124 119 0
128 123 0
126 120 0
134 127 0
131 126 0
125 119 0
139 132 0
135 128 0
132 126 0
136 129 0
130 124 0
139 132 0
140 134 0
140 134 0
145 138 0
142 135 0
140 135 0
143 137 0
147 141 0
140 134 0
142 136 0
150 145 0
147 141 0
141 134 0
151 145 0
145 139 0
149 142 0
145 139 0
147 143 0
148 143 0
146 140 0
145 140 0
148 142 0
150 145 0
149 144 0
146 141 0
149 143 0
145 140 0
151 146 0
149 145 0
151 146 0
149 142 0
147 142 0
147 142 0
150 145 0
151 148 0
150 145 0
151 146 0
154 150 0
155 150 0
151 146 0
152 148 0
147 143 0
153 149 0
152 148 0
150 171 0
151 172 0
154 174 0
152 172 0
153 173 0
152 172 0
153 172 0
152 173 0
151 171 0
148 167 0
150 171 0
151 170 0
148 168 0
148 168 0
148 168 0
147 168 0
151 171 0
145 165 0
149 169 0
148 167 0
151 171 0
148 168 0
147 167 0
148 168 0
146 166 0
145 164 0
144 164 0
147 166 0
146 166 0
146 166 0
144 163 0
142 161 0
139 157 0
144 164 0
142 162 0
144 164 0
143 162 0
137 156 0
138 156 0
144 163 0
136 155 0
137 155 0
134 152 0
133 151 0
142 161 0
132 150 0
136 154 0
134 153 0
138 155 0
126 143 0
137 156 0
129 146 0
134 152 0
129 146 0
131 148 0
123 139 0
124 139 0
124 141 0
126 142 0
116 131 0
114 129 0
109 124 0
108 123 0
109 123 0
104 118 0
101 116 0
118 133 0
109 124 0
126 142 0
146 165 0
149 167 0
147 166 0
146 165 0
148 167 0
151 170 0
150 170 0
140 159 0
143 163 0
148 166 0
147 168 0
137 157 0
137 156 0
145 167 0
135 155 0
126 146 0
130 150 0
132 153 0
125 145 0
143 163 0
130 150 0
77 99 59
47 75 75
50 80 79
50 80 76
52 82 80
51 81 95
52 83 80
52 83 82
48 76 86
50 79 78
53 84 94
51 81 74
50 80 78
54 85 100
53 84 92
52 83 92
53 83 97
54 84 102
54 85 107
51 82 82
54 85 110
54 85 99
52 82 86
55 86 101
51 81 94
54 85 107
53 84 96
50 80 78
50 78 68
49 77 78
47 75 63
48 75 60
49 76 72
48 74 76
86 103 51
122 138 18
133 147 0
126 142 0
135 150 0
134 150 0
135 153 0
145 161 0
137 150 0
144 158 0
140 154 0
145 162 0
142 155 0
150 164 0
140 152 0
150 163 0
146 159 0
141 153 0
147 161 0
156 166 0
153 164 0
145 151 0
118 112 0
115 107 0
115 104 0
104 95 0
112 104 0
114 105 0
114 105 0
118 108 0
116 110 0
116 110 0
126 117 0
123 114 0
123 116 0
130 122 0
121 112 0
123 117 0
133 124 0
130 122 0
130 122 0
133 126 0
136 131 0
134 125 0
134 128 0
134 126 0
135 130 0
134 128 0
138 128 0
139 132 0
141 135 0
142 137 0
138 130 0
137 130 0
141 134 0
141 133 0
143 136 0
141 135 0
147 141 0
142 134 0
142 135 0
146 139 0
144 139 0
142 136 0
144 137 0
144 138 0
147 139 0
143 137 0
144 137 0
148 142 0
147 139 0
147 141 0
146 140 0
147 141 0
148 142 0
147 141 0
150 146 0
147 141 0
151 146 0
149 144 0
152 146 0
150 145 0
151 145 0
151 146 0
152 146 0
152 147 0
150 145 0
152 148 0
151 146 0
152 147 0
150 145 0
152 173 0
153 172 0
155 175 0
150 171 0
152 171 0
152 172 0
152 173 0
151 172 0
151 171 0
149 169 0
150 170 0
151 170 0
149 168 0
146 167 0
149 168 0
148 167 0
148 169 0
144 163 0
149 168 0
145 164 0
147 167 0
151 171 0
147 167 0
143 163 0
146 164 0
144 163 0
147 166 0
145 164 0
144 163 0
140 159 0
140 159 0
137 156 0
147 166 0
146 166 0
147 166 0
141 159 0
143 161 0
141 160 0
138 156 0
135 153 0
134 152 0
137 155 0
139 158 0
134 152 0
135 154 0
134 153 0
131 149 0
134 151 0
125 142 0
131 147 0
132 150 0
134 151 0
127 144 0
127 144 0
125 141 0
124 141 0
113 129 0
120 137 0
123 139 0
107 122 0
111 127 0
112 127 0
109 124 0
106 121 0
109 123 0
114 127 0
113 127 0
126 140 0
138 156 0
143 161 0
143 161 0
144 163 0
135 153 0
142 160 0
141 159 0
136 154 0
134 152 0
145 165 0
140 159 0
133 151 0
129 149 0
133 152 0
129 148 0
136 156 0
129 149 0
124 144 0
120 139 0
130 149 0
118 137 0
124 143 0
114 132 0
83 103 54
57 82 62
45 73 67
47 75 76
50 78 84
51 80 90
49 78 78
51 82 82
51 81 82
50 79 86
52 83 88
50 80 88
49 79 88
50 80 84
51 82 84
50 80 90
54 85 97
51 81 72
53 83 97
53 83 84
52 81 99
50 78 82
49 78 86
49 78 85
49 78 70
49 77 75
52 82 90
48 76 64
45 70 57
49 76 79
48 74 66
56 80 54
102 121 36
127 143 0
117 131 0
123 138 0
127 144 0
125 140 0
136 152 0
140 157 0
137 152 0
135 151 0
125 139 0
131 144 0
133 147 0
138 151 0
132 144 0
138 148 0
132 142 0
147 158 0
146 154 0
147 158 0
144 155 0
151 162 0
144 155 0
149 156 0
128 125 0
110 100 0
112 103 0
105 96 0
101 91 0
103 95 0
116 110 0
111 103 0
116 107 0
118 108 0
125 118 0
120 113 0
123 115 0
116 109 0
128 122 0
132 123 0
131 124 0
129 121 0
131 123 0
137 128 0
135 127 0
130 124 0
135 127 0
135 128 0
134 126 0
137 128 0
136 129 0
142 134 0
139 133 0
134 128 0
138 130 0
141 134 0
146 139 0
139 133 0
141 134 0
140 132 0
141 134 0
140 135 0
145 139 0
145 138 0
143 137 0
146 140 0
148 137 0
145 138 0
150 144 0
145 138 0
143 137 0
149 145 0
147 140 0
149 144 0
151 144 0
149 142 0
150 146 0
150 144 0
147 142 0
150 145 0
152 147 0
153 148 0
148 144 0
149 144 0
151 146 0
155 150 0
155 149 0
151 145 0
150 145 0
154 149 0
151 145 0
151 145 0
149 169 0
152 172 0
152 171 0
153 173 0
151 171 0
150 169 0
151 171 0
150 170 0
148 168 0
152 172 0
150 170 0
148 168 0
150 170 0
147 166 0
147 167 0
149 169 0
149 169 0
144 164 0
145 165 0
149 168 0
144 164 0
144 163 0
147 166 0
149 169 0
143 163 0
143 162 0
148 166 0
149 168 0
140 158 0
144 164 0
142 161 0
144 162 0
141 159 0
144 163 0
142 161 0
136 153 0
141 160 0
139 156 0
140 158 0
140 158 0
136 153 0
129 148 0
136 154 0
138 156 0
142 161 0
134 151 0
132 148 0
132 149 0
131 148 0
127 145 0
123 139 0
131 146 0
130 147 0
124 140 0
123 139 0
126 142 0
116 132 0
123 138 0
117 131 0
106 120 0
115 129 0
117 132 0
104 118 0
101 114 0
105 118 0
112 126 0
120 135 0
137 153 0
143 161 0
143 160 0
135 153 0
141 158 0
131 148 0
125 142 0
139 157 0
134 153 0
123 140 0
132 150 0
134 152 0
131 151 0
124 142 0
120 138 0
134 152 0
123 143 0
129 148 0
135 154 0
107 125 0
115 132 0
119 138 0
114 130 0
98 115 0
104 121 0
93 110 18
73 91 47
44 71 53
47 74 78
48 77 72
47 75 69
47 76 86
48 77 71
50 79 88
50 79 82
50 80 74
52 83 88
49 78 78
50 80 76
47 75 80
53 84 97
47 75 70
51 81 82
48 77 74
49 78 82
51 81 87
49 78 72
49 76 84
47 74 72
50 79 76
47 75 70
50 78 86
48 75 72
45 71 67
71 90 47
103 118 36
112 126 0
104 116 0
109 123 0
122 136 0
118 130 0
126 139 0
126 141 0
131 145 0
118 131 0
113 125 0
134 145 0
129 145 0
132 144 0
136 146 0
130 144 0
135 147 0
123 133 0
141 151 0
120 126 0
129 136 0
127 135 0
131 140 0
141 149 0
143 150 0
136 142 0
125 125 0
104 92 0
97 88 0
107 98 0
114 100 0
108 98 0
116 107 0
112 101 0
116 108 0
113 105 0
116 107 0
121 110 0
121 112 0
114 104 0
125 117 0
124 115 0
129 121 0
134 123 0
127 116 0
131 122 0
131 121 0
137 128 0
132 124 0
131 123 0
136 127 0
138 129 0
141 132 0
135 126 0
137 128 0
136 126 0
140 130 0
142 134 0
141 132 0
135 128 0
138 130 0
140 133 0
141 131 0
141 135 0
144 137 0
145 139 0
143 137 0
142 135 0
147 142 0
145 137 0
146 140 0
147 140 0
143 137 0
145 137 0
147 139 0
150 143 0
148 141 0
148 140 0
146 140 0
149 142 0
147 139 0
149 144 0
152 145 0
148 142 0
151 145 0
148 141 0
149 142 0
151 145 0
152 146 0
152 146 0
150 143 0
151 145 0
149 142 0
154 174 0
151 172 0
148 169 0
152 172 0
152 171 0
148 167 0
148 167 0
155 175 0
150 171 0
150 169 0
151 171 0
152 172 0
147 166 0
149 169 0
148 166 0
150 170 0
148 167 0
145 164 0
146 165 0
147 166 0
146 165 0
144 164 0
147 166 0
143 161 0
145 163 0
147 166 0
143 163 0
143 161 0
140 158 0
150 169 0
141 159 0
138 156 0
136 154 0
140 159 0
141 159 0
148 166 0
140 157 0
136 154 0
139 157 0
136 154 0
124 141 0
135 152 0
135 153 0
138 155 0
133 150 0
131 148 0
134 151 0
133 150 0
128 144 0
127 143 0
124 141 0
125 141 0
128 145 0
129 146 0
121 135 0
118 135 0
117 132 0
112 126 0
113 127 0
107 121 0
111 127 0
113 126 0
107 121 0
100 113 0
116 131 0
125 140 0
137 154 0
133 150 0
125 141 0
136 153 0
122 139 0
124 141 0
133 149 0
128 146 0
132 150 0
130 148 0
129 146 0
122 139 0
123 140 0
127 145 0
124 143 0
135 152 0
128 147 0
126 143 0
104 120 0
128 147 0
126 144 0
107 125 0
115 132 0
111 128 0
105 120 0
98 114 0
104 120 0
83 99 0
74 90 36
55 76 50
47 76 70
47 74 80
46 73 72
47 76 60
48 76 74
44 70 74
48 77 74
49 79 62
47 75 80
51 81 88
51 80 97
48 77 74
49 78 74
50 78 92
47 75 72
50 80 82
51 81 78
46 75 60
48 76 77
45 71 65
46 72 67
45 71 72
45 71 54
55 75 62
94 105 31
97 109 0
95 107 0
113 126 0
107 119 0
98 110 0
115 129 0
116 128 0
113 126 0
115 129 0
121 132 0
121 132 0
131 142 0
130 143 0
136 148 0
122 136 0
114 126 0
121 130 0
132 142 0
130 140 0
134 143 0
138 146 0
119 128 0
130 137 0
134 139 0
125 131 0
136 144 0
131 138 0
128 127 0
137 137 0
110 101 0
107 96 0
112 101 0
115 103 0
109 98 0
111 102 0
114 103 0
112 101 0
119 108 0
117 107 0
116 107 0
126 116 0
122 112 0
133 122 0
131 121 0
122 112 0
130 117 0
135 127 0
129 120 0
127 117 0
136 126 0
138 130 0
128 121 0
137 128 0
136 127 0
142 133 0
137 128 0
137 127 0
140 131 0
139 129 0
140 132 0
144 134 0
143 137 0
148 139 0
142 136 0
149 142 0
143 135 0
145 139 0
139 132 0
143 135 0
141 133 0
149 141 0
148 141 0
146 138 0
147 139 0
148 142 0
145 138 0
150 141 0
145 138 0
148 143 0
147 141 0
148 141 0
152 146 0
151 143 0
147 142 0
149 142 0
152 146 0
152 145 0
150 143 0
151 145 0
151 143 0
149 142 0
150 143 0
148 142 0
150 145 0
149 170 0
151 170 0
150 170 0
152 172 0
152 171 0
149 168 0
149 168 0
149 169 0
149 168 0
149 169 0
148 167 0
149 168 0
147 166 0
145 164 0
153 172 0
149 168 0
146 166 0
146 165 0
145 163 0
144 163 0
144 163 0
147 167 0
142 161 0
145 163 0
143 161 0
148 167 0
145 163 0
142 161 0
140 159 0
143 161 0
144 162 0
147 165 0
143 161 0
140 157 0
142 160 0
136 153 0
140 157 0
133 150 0
140 159 0
138 157 0
127 145 0
133 150 0
135 150 0
135 153 0
131 147 0
130 147 0
129 146 0
130 146 0
121 137 0
127 142 0
124 140 0
126 141 0
120 136 0
118 133 0
123 138 0
118 132 0
120 134 0
114 128 0
111 124 0
111 124 0
108 121 0
102 115 0
114 126 0
124 138 0
125 139 0
134 150 0
134 149 0
126 141 0
126 142 0
129 145 0
119 136 0
122 138 0
128 144 0
123 139 0
126 142 0
110 127 0
133 150 0
116 134 0
133 150 0
119 135 0
124 141 0
119 135 0
124 141 0
120 138 0
121 138 0
112 130 0
105 123 0
107 124 0
103 119 0
100 116 0
105 121 0
84 99 0
105 120 0
102 117 0
86 101 0
90 104 0
74 88 25
60 79 51
47 69 44
42 68 60
43 69 60
45 72 62
46 73 62
46 73 65
46 73 60
45 72 60
44 71 62
45 73 67
45 72 67
47 75 72
46 74 65
45 73 54
44 71 70
43 68 67
46 74 67
44 70 72
54 77 67
58 74 40
71 83 18
84 95 0
91 102 0
99 110 0
105 118 0
106 118 0
106 118 0
111 123 0
112 123 0
110 123 0
127 139 0
112 127 0
119 131 0
122 133 0
114 126 0
131 142 0
121 131 0
127 135 0
125 133 0
128 140 0
130 139 0
128 138 0
130 141 0
130 139 0
113 119 0
131 138 0
130 138 0
129 134 0
117 118 0
119 122 0
124 123 0
125 129 0
124 124 0
128 125 0
102 91 0
99 86 0
104 91 0
102 89 0
109 96 0
120 109 0
113 101 0
119 109 0
118 107 0
116 105 0
123 112 0
117 107 0
122 109 0
124 113 0
133 122 0
126 116 0
130 121 0
128 118 0
132 121 0
139 131 0
131 120 0
134 125 0
137 127 0
138 128 0
137 126 0
140 131 0
139 129 0
138 128 0
136 127 0
141 133 0
145 136 0
145 137 0
138 130 0
146 136 0
142 133 0
145 136 0
141 132 0
146 137 0
146 136 0
141 133 0
145 135 0
147 138 0
149 140 0
146 137 0
147 139 0
143 136 0
144 138 0
148 140 0
145 137 0
147 139 0
147 140 0
149 143 0
149 141 0
147 139 0
150 142 0
149 143 0
148 142 0
149 142 0
151 145 0
152 144 0
152 146 0
149 143 0
150 143 0
152 170 0
150 170 0
150 170 0
151 170 0
149 168 0
150 171 0
146 166 0
147 166 0
150 168 0
151 169 0
150 169 0
143 162 0
149 169 0
148 167 0
149 168 0
145 164 0
145 164 0
142 161 0
149 167 0
143 161 0
143 162 0
146 164 0
146 163 0
145 163 0
140 158 0
140 159 0
143 161 0
140 158 0
139 157 0
140 158 0
140 158 0
143 161 0
136 154 0
142 161 0
133 151 0
137 155 0
136 152 0
136 153 0
141 159 0
134 152 0
135 152 0
134 151 0
134 149 0
131 149 0
136 153 0
133 150 0
131 148 0
125 141 0
129 144 0
131 146 0
119 134 0
121 136 0
113 127 0
114 128 0
116 130 0
102 116 0
111 124 0
108 122 0
106 119 0
107 120 0
105 116 0
107 119 0
117 129 0
113 126 0
116 130 0
114 128 0
115 130 0
117 132 0
129 145 0
131 146 0
127 143 0
111 127 0
123 139 0
128 143 0
122 138 0
123 139 0
130 147 0
134 152 0
105 123 0
130 149 0
128 145 0
133 151 0
117 134 0
120 138 0
116 134 0
108 126 0
105 121 0
115 131 0
119 135 0
100 114 0
98 115 0
96 111 0
91 107 0
87 101 0
92 106 0
83 97 0
88 100 0
74 86 0
69 80 0
70 84 31
52 70 31
40 63 44
39 63 47
42 66 65
46 73 62
46 74 60
45 72 60
45 73 70
45 72 62
45 72 60
44 70 57
42 66 62
43 67 65
48 68 60
57 75 65
55 66 18
70 78 0
69 78 0
92 102 0
94 103 0
77 90 0
85 94 0
87 98 0
102 111 0
107 117 0
109 121 0
96 110 0
114 127 0
110 121 0
99 113 0
122 136 0
114 124 0
123 135 0
116 126 0
132 144 0
114 124 0
119 131 0
130 141 0
125 136 0
124 134 0
120 129 0
128 139 0
120 127 0
119 124 0
120 125 0
117 120 0
123 126 0
116 119 0
126 131 0
125 128 0
124 124 0
122 120 0
120 119 0
107 99 0
101 87 0
107 93 0
107 93 0
105 91 0
109 96 0
118 105 0
122 108 0
121 108 0
118 107 0
124 114 0
124 113 0
120 109 0
125 114 0
127 116 0
125 115 0
139 129 0
133 122 0
129 120 0
131 119 0
138 128 0
139 129 0
137 126 0
135 123 0
136 127 0
133 123 0
135 125 0
140 128 0
132 122 0
141 132 0
136 124 0
143 132 0
143 134 0
143 135 0
142 134 0
139 130 0
144 135 0
145 136 0
146 138 0
144 135 0
147 140 0
147 138 0
149 140 0
146 138 0
148 140 0
144 134 0
150 141 0
147 138 0
149 141 0
147 139 0
149 141 0
147 139 0
149 142 0
150 143 0
150 141 0
149 142 0
149 141 0
150 143 0
150 142 0
151 144 0
149 141 0
153 147 0
152 171 0
150 169 0
152 171 0
149 168 0
149 168 0
151 170 0
148 167 0
151 169 0
147 165 0
145 163 0
148 167 0
149 168 0
143 162 0
147 165 0
147 166 0
147 166 0
145 164 0
144 162 0
147 165 0
146 164 0
141 158 0
143 162 0
147 165 0
145 163 0
144 162 0
144 161 0
140 158 0
147 165 0
139 156 0
138 156 0
136 153 0
136 153 0
144 162 0
140 157 0
140 157 0
140 157 0
136 154 0
140 156 0
140 156 0
129 146 0
133 149 0
134 151 0
130 145 0
133 150 0
130 146 0
125 141 0
124 139 0
134 149 0
129 145 0
127 142 0
119 133 0
115 130 0
132 147 0
118 132 0
108 121 0
114 127 0
108 121 0
103 115 0
98 109 0
102 114 0
109 121 0
118 130 0
113 126 0
112 124 0
113 129 0
125 139 0
114 128 0
114 130 0
120 134 0
124 140 0
125 142 0
122 139 0
116 132 0
119 135 0
112 129 0
120 136 0
129 147 0
111 128 0
117 134 0
124 143 0
113 130 0
112 131 0
116 134 0
113 129 0
116 132 0
106 122 0
102 119 0
110 128 0
111 127 0
115 131 0
105 122 0
85 101 0
84 101 0
105 121 0
95 110 0
88 104 0
85 99 0
80 93 0
80 92 0
65 78 0
56 67 0
56 67 0
45 54 0
59 71 25
46 61 31
46 65 40
48 63 36
49 63 51
35 51 44
49 65 40
40 53 36
50 60 18
52 62 0
66 75 0
54 64 0
56 65 0
69 79 0
80 90 0
89 100 0
87 98 0
93 104 0
89 100 0
102 113 0
103 116 0
103 115 0
105 117 0
105 116 0
106 116 0
111 123 0
113 127 0
105 117 0
115 125 0
119 130 0
108 118 0
139 152 0
117 131 0
118 128 0
120 130 0
133 143 0
128 136 0
126 135 0
121 131 0
128 136 0
124 130 0
123 127 0
129 134 0
118 121 0
132 136 0
118 121 0
112 109 0
123 124 0
119 118 0
113 111 0
112 112 0
115 108 0
110 99 0
102 88 0
99 85 0
110 94 0
109 96 0
113 100 0
115 103 0
116 103 0
122 111 0
117 105 0
119 107 0
121 109 0
124 111 0
127 116 0
126 115 0
126 116 0
126 115 0
131 120 0
127 116 0
135 124 0
136 126 0
135 124 0
128 117 0
135 125 0
140 128 0
138 125 0
141 132 0
144 133 0
140 130 0
137 129 0
141 133 0
140 131 0
141 129 0
141 132 0
145 136 0
141 132 0
142 133 0
148 139 0
142 133 0
144 136 0
144 133 0
142 132 0
138 128 0
146 136 0
143 134 0
145 138 0
147 137 0
147 140 0
148 139 0
151 143 0
148 139 0
149 142 0
147 139 0
150 142 0
149 141 0
150 142 0
149 142 0
153 147 0
151 143 0
152 144 0
150 170 0
151 170 0
151 171 0
150 169 0
149 167 0
150 168 0
151 170 0
148 168 0
147 165 0
149 168 0
144 162 0
152 169 0
148 166 0
147 166 0
145 162 0
147 165 0
144 162 0
146 164 0
145 162 0
145 163 0
146 164 0
145 162 0
140 157 0
143 161 0
144 161 0
141 159 0
142 160 0
142 159 0
138 156 0
142 159 0
140 156 0
142 159 0
141 157 0
138 155 0
137 153 0
138 154 0
139 156 0
138 155 0
128 144 0
133 149 0
131 146 0
133 149 0
131 147 0
128 143 0
130 146 0
121 135 0
121 136 0
121 135 0
121 135 0
125 139 0
117 130 0
111 123 0
106 119 0
114 127 0
107 119 0
104 116 0
100 112 0
103 114 0
110 121 0
107 118 0
103 115 0
102 114 0
119 132 0
115 128 0
108 121 0
114 128 0
115 130 0
124 139 0
112 128 0
116 131 0
111 127 0
123 138 0
120 136 0
119 135 0
111 126 0
126 143 0
116 133 0
123 140 0
125 144 0
117 135 0
121 138 0
122 140 0
124 141 0
122 140 0
121 138 0
120 137 0
116 133 0
105 122 0
108 126 0
113 130 0
91 106 0
95 111 0
108 123 0
101 116 0
96 112 0
89 103 0
85 98 0
90 103 0
84 96 0
95 108 0
80 93 0
69 82 0
77 89 0
54 65 0
81 92 0
72 83 0
70 80 0
59 68 0
73 82 0
67 78 0
75 84 0
66 75 0
77 87 0
70 81 0
90 100 0
81 92 0
92 103 0
83 95 0
97 107 0
99 111 0
98 111 0
96 106 0
109 120 0
103 115 0
98 110 0
103 115 0
103 115 0
112 122 0
111 123 0
102 115 0
114 127 0
111 124 0
122 135 0
120 133 0
122 132 0
119 131 0
120 132 0
122 134 0
126 136 0
115 123 0
121 130 0
115 125 0
121 131 0
118 125 0
120 126 0
122 129 0
113 118 0
120 121 0
125 127 0
112 114 0
117 120 0
114 113 0
127 126 0
101 99 0
105 99 0
104 98 0
102 97 0
91 81 0
94 78 0
102 88 0
108 92 0
104 90 0
108 94 0
106 94 0
120 107 0
119 106 0
114 100 0
119 105 0
125 112 0
121 107 0
122 109 0
127 113 0
131 119 0
127 113 0
134 123 0
129 117 0
129 115 0
131 118 0
137 127 0
135 122 0
136 124 0
138 126 0
140 129 0
143 133 0
142 130 0
137 128 0
134 123 0
142 130 0
145 135 0
143 132 0
143 132 0
146 136 0
141 131 0
145 134 0
139 127 0
143 133 0
141 129 0
146 135 0
149 139 0
148 138 0
143 133 0
147 138 0
147 138 0
147 135 0
147 137 0
148 139 0
148 140 0
150 142 0
148 139 0
148 139 0
145 136 0
147 138 0
150 143 0
152 144 0
150 142 0
155 176 0
151 170 0
150 170 0
151 170 0
152 171 0
152 171 0
147 167 0
147 165 0
151 169 0
147 166 0
148 166 0
143 161 0
146 165 0
145 163 0
149 168 0
144 162 0
143 160 0
143 160 0
144 162 0
143 160 0
144 161 0
142 159 0
145 163 0
142 159 0
143 160 0
143 158 0
145 162 0
141 157 0
139 156 0
143 161 0
144 161 0
137 154 0
141 158 0
138 155 0
138 154 0
127 143 0
132 148 0
128 144 0
129 144 0
132 148 0
127 142 0
124 138 0
123 139 0
128 142 0
121 136 0
126 141 0
126 141 0
116 129 0
117 130 0
114 127 0
108 120 0
108 120 0
103 115 0
94 105 0
96 107 0
89 98 0
91 101 0
103 113 0
96 107 0
111 123 0
110 122 0
108 122 0
116 131 0
121 136 0
114 128 0
126 141 0
121 137 0
124 140 0
120 135 0
117 132 0
122 138 0
118 135 0
120 136 0
124 142 0
121 138 0
126 144 0
132 150 0
122 139 0
121 141 0
114 132 0
122 139 0
116 133 0
111 129 0
125 143 0
108 125 0
118 136 0
112 129 0
115 132 0
117 134 0
99 116 0
114 131 0
108 125 0
97 113 0
109 125 0
95 111 0
94 109 0
92 108 0
84 98 0
85 99 0
74 88 0
89 103 0
82 96 0
74 89 0
78 92 0
85 100 0
83 96 0
73 84 0
77 88 0
71 81 0
64 75 0
69 81 0
81 92 0
85 97 0
73 86 0
80 92 0
84 96 0
98 109 0
87 99 0
89 101 0
105 117 0
105 119 0
99 110 0
110 122 0
97 106 0
113 124 0
117 129 0
105 118 0
123 137 0
103 115 0
109 119 0
111 124 0
117 127 0
114 127 0
117 129 0
123 135 0
125 140 0
118 130 0
125 136 0
121 133 0
128 139 0
125 132 0
118 127 0
118 129 0
133 142 0
125 132 0
124 131 0
125 130 0
119 123 0
115 117 0
115 120 0
123 125 0
111 111 0
108 108 0
105 105 0
110 106 0
111 107 0
100 94 0
91 83 0
93 84 0
104 91 0
98 85 0
100 85 0
102 86 0
115 99 0
112 95 0
122 109 0
121 109 0
120 106 0
123 108 0
112 98 0
126 114 0
128 113 0
131 117 0
128 115 0
130 116 0
135 121 0
128 114 0
131 118 0
135 121 0
136 123 0
135 122 0
132 120 0
140 129 0
141 128 0
135 125 0
135 124 0
137 124 0
141 128 0
137 125 0
142 130 0
143 131 0
137 125 0
144 136 0
145 136 0
144 133 0
145 134 0
142 131 0
144 135 0
143 132 0
145 133 0
148 137 0
145 135 0
152 144 0
145 134 0
142 131 0
146 135 0
149 141 0
147 138 0
150 142 0
149 140 0
150 142 0
154 147 0
151 144 0
152 144 0
158 157 0
172 195 0
167 189 0
159 180 0
154 175 0
151 170 0
149 168 0
150 169 0
146 164 0
142 160 0
148 166 0
148 166 0
142 159 0
146 164 0
145 162 0
144 161 0
144 163 0
143 160 0
147 164 0
141 158 0
140 157 0
142 160 0
141 158 0
139 156 0
143 160 0
140 157 0
137 154 0
139 156 0
138 155 0
137 153 0
140 157 0
137 153 0
138 154 0
133 149 0
129 145 0
137 153 0
126 141 0
134 149 0
127 142 0
127 142 0
133 148 0
127 141 0
125 139 0
128 143 0
123 138 0
116 130 0
127 139 0
115 129 0
113 126 0
112 124 0
108 120 0
105 116 0
101 111 0
88 97 0
85 93 0
90 99 0
92 103 0
104 115 0
113 124 0
115 127 0
107 120 0
110 123 0
117 130 0
122 137 0
122 137 0
117 132 0
128 144 0
131 146 0
120 136 0
128 145 0
118 134 0
118 135 0
125 142 0
124 141 0
119 135 0
127 144 0
118 135 0
122 139 0
124 142 0
127 145 0
123 140 0
113 130 0
129 147 0
128 146 0
115 134 0
117 135 0
124 141 0
114 132 0
120 138 0
118 135 0
113 130 0
113 131 0
100 117 0
90 105 0
97 114 0
106 122 0
99 117 0
85 101 0
91 106 0
78 94 0
79 95 0
94 109 0
88 102 0
91 104 0
84 98 0
76 90 0
84 97 0
99 111 0
85 98 0
85 98 0
88 101 0
87 97 0
73 86 0
81 95 0
92 104 0
84 97 0
93 107 0
99 112 0
92 105 0
98 111 0
103 117 0
105 118 0
113 128 0
114 126 0
99 112 0
106 118 0
117 131 0
106 119 0
125 139 0
97 110 0
117 131 0
127 141 0
122 134 0
112 124 0
123 136 0
130 143 0
120 130 0
124 136 0
117 130 0
121 130 0
119 128 0
121 130 0
132 141 0
122 133 0
133 142 0
130 137 0
123 131 0
127 133 0
120 126 0
127 133 0
123 130 0
124 131 0
115 117 0
107 107 0
111 113 0
111 110 0
103 104 0
109 108 0
112 105 0
97 88 0
108 101 0
100 91 0
84 73 0
94 81 0
92 76 0
107 87 0
104 88 0
107 91 0
120 103 0
120 105 0
118 102 0
125 109 0
122 108 0
123 106 0
133 117 0
125 108 0
127 111 0
129 114 0
133 118 0
127 113 0
133 118 0
130 117 0
138 127 0
135 122 0
138 124 0
132 121 0
144 132 0
138 126 0
133 121 0
136 124 0
137 124 0
139 126 0
140 128 0
144 132 0
144 132 0
139 125 0
143 131 0
146 134 0
145 135 0
139 127 0
146 133 0
145 133 0
142 130 0
147 137 0
146 134 0
147 136 0
147 136 0
147 135 0
147 139 0
149 139 0
150 143 0
148 140 0
155 152 0
161 167 0
168 185 0
173 192 0
171 194 0
169 192 0
169 191 0
169 191 0
168 190 0
160 180 0
155 174 0
151 169 0
148 166 0
146 164 0
148 166 0
145 163 0
143 160 0
145 162 0
145 162 0
142 158 0
141 158 0
141 158 0
143 160 0
146 163 0
143 160 0
141 158 0
136 152 0
141 158 0
144 161 0
136 152 0
137 153 0
140 156 0
136 152 0
138 154 0
135 151 0
136 153 0
131 146 0
136 152 0
122 136 0
130 144 0
127 142 0
121 135 0
128 142 0
126 140 0
130 145 0
128 141 0
122 135 0
116 129 0
121 133 0
117 128 0
108 120 0
109 121 0
96 105 0
79 88 0
93 102 0
93 103 0
90 101 0
88 98 0
98 110 0
111 123 0
112 124 0
108 121 0
119 132 0
121 135 0
119 133 0
126 142 0
123 138 0
125 141 0
120 135 0
124 140 0
133 149 0
123 139 0
124 140 0
132 148 0
130 147 0
128 144 0
123 140 0
128 146 0
129 148 0
121 139 0
119 137 0
137 155 0
122 139 0
125 142 0
127 145 0
124 143 0
129 149 0
107 125 0
120 138 0
109 128 0
120 138 0
117 135 0
114 132 0
109 127 0
117 134 0
117 134 0
113 130 0
118 136 0
93 109 0
103 119 0
105 122 0
98 113 0
108 125 0
105 122 0
96 112 0
104 120 0
95 110 0
96 111 0
91 105 0
94 108 0
90 104 0
99 114 0
96 110 0
89 105 0
98 111 0
97 112 0
95 108 0
97 111 0
93 106 0
93 107 0
101 114 0
107 123 0
95 109 0
103 117 0
105 118 0
107 120 0
108 121 0
109 122 0
119 134 0
116 130 0
117 132 0
126 142 0
108 120 0
124 138 0
115 129 0
132 146 0
120 133 0
128 143 0
127 139 0
115 125 0
119 131 0
126 140 0
129 140 0
122 134 0
121 130 0
123 132 0
136 147 0
125 131 0
128 137 0
130 138 0
126 132 0
121 126 0
126 130 0
126 131 0
127 133 0
115 118 0
116 118 0
120 123 0
115 115 0
117 116 0
119 114 0
116 111 0
123 119 0
111 105 0
99 94 0
110 102 0
89 83 0
88 80 0
82 70 0
98 83 0
94 78 0
101 81 0
107 89 0
120 103 0
109 89 0
110 91 0
125 110 0
118 103 0
114 98 0
126 111 0
129 116 0
125 108 0
132 116 0
135 120 0
127 112 0
129 115 0
134 118 0
134 120 0
140 125 0
131 117 0
139 126 0
137 124 0
143 129 0
135 123 0
142 129 0
141 127 0
146 133 0
142 127 0
144 132 0
139 123 0
145 133 0
145 133 0
144 132 0
143 130 0
146 135 0
144 134 0
147 134 0
145 133 0
146 134 0
145 135 0
147 137 0
148 138 0
156 155 0
158 163 0
169 185 0
173 192 0
171 191 0
168 185 0
172 192 0
170 192 0
168 191 0
169 192 0
168 190 0
167 190 0
167 188 0
169 190 0
165 186 0
159 180 0
156 175 0
151 169 0
141 159 0
144 161 0
145 162 0
142 159 0
142 159 0
142 158 0
141 157 0
144 160 0
145 162 0
135 150 0
140 156 0
140 156 0
137 152 0
133 148 0
135 151 0
136 151 0
137 152 0
128 143 0
133 148 0
130 145 0
129 143 0
131 147 0
134 148 0
126 140 0
124 138 0
130 144 0
123 136 0
117 130 0
121 133 0
119 131 0
110 122 0
113 125 0
109 120 0
100 110 0
94 103 0
94 103 0
97 107 0
92 101 0
96 106 0
104 114 0
111 122 0
115 126 0
112 125 0
115 129 0
131 144 0
114 127 0
125 139 0
116 130 0
111 126 0
125 140 0
120 135 0
120 137 0
130 146 0
124 140 0
127 143 0
132 149 0
127 144 0
124 142 0
139 157 0
124 142 0
117 135 0
127 144 0
129 148 0
132 151 0
119 136 0
133 151 0
119 137 0
128 147 0
124 141 0
114 133 0
130 149 0
122 140 0
110 129 0
115 134 0
131 149 0
115 134 0
108 125 0
117 135 0
115 131 0
124 142 0
106 124 0
107 124 0
125 144 0
113 130 0
104 121 0
97 114 0
109 126 0
109 127 0
121 137 0
109 126 0
112 128 0
106 122 0
106 123 0
100 116 0
97 112 0
100 115 0
99 114 0
99 115 0
109 125 0
105 120 0
97 112 0
94 109 0
114 130 0
111 124 0
112 126 0
94 109 0
92 106 0
106 121 0
110 125 0
101 115 0
117 132 0
118 133 0
110 122 0
113 127 0
122 136 0
121 136 0
127 141 0
113 129 0
119 132 0
132 145 0
117 131 0
124 138 0
124 134 0
120 133 0
130 145 0
121 134 0
128 142 0
124 136 0
117 131 0
129 141 0
124 138 0
117 127 0
129 139 0
131 141 0
129 141 0
138 149 0
118 128 0
130 139 0
128 134 0
132 141 0
118 121 0
130 140 0
121 123 0
118 122 0
125 129 0
127 128 0
121 123 0
122 124 0
124 124 0
118 115 0
105 101 0
109 103 0
96 89 0
113 104 0
94 84 0
94 83 0
89 78 0
92 79 0
93 81 0
94 75 0
104 84 0
115 92 0
113 95 0
119 101 0
119 100 0
121 100 0
121 102 0
125 109 0
125 108 0
130 115 0
133 117 0
133 117 0
133 117 0
134 116 0
135 121 0
133 117 0
136 122 0
137 121 0
140 127 0
137 122 0
139 125 0
140 126 0
141 126 0
141 127 0
143 128 0
143 131 0
140 124 0
149 137 0
147 133 0
143 130 0
144 132 0
146 135 0
148 138 0
151 147 0
160 165 0
162 169 0
168 182 0
172 191 0
171 192 0
167 185 0
169 186 0
170 190 0
168 187 0
170 189 0
167 189 0
167 190 0
172 193 0
168 190 0
169 190 0
170 191 0
166 188 0
167 188 0
169 191 0
170 191 0
166 187 0
165 186 0
161 180 0
154 173 0
151 169 0
143 160 0
145 161 0
141 156 0
137 152 0
133 149 0
140 155 0
137 152 0
137 152 0
139 154 0
136 151 0
138 153 0
126 139 0
133 147 0
128 142 0
133 148 0
133 147 0
127 141 0
127 140 0
123 136 0
129 142 0
119 132 0
122 134 0
116 127 0
114 125 0
113 124 0
102 112 0
89 97 0
109 120 0
97 106 0
106 115 0
96 105 0
104 114 0
122 134 0
100 111 0
105 117 0
112 124 0
121 134 0
113 126 0
115 130 0
110 124 0
116 131 0
119 133 0
141 156 0
122 137 0
118 134 0
130 147 0
120 136 0
124 140 0
131 147 0
131 148 0
127 144 0
127 145 0
132 150 0
133 150 0
123 140 0
129 146 0
133 150 0
140 158 0
133 153 0
130 149 0
124 142 0
125 144 0
131 149 0
136 156 0
134 152 0
121 139 0
127 146 0
132 151 0
125 145 0
129 148 0
116 134 0
128 148 0
126 145 0
125 142 0
118 137 0
113 131 0
116 135 0
111 128 0
110 127 0
113 132 0
114 132 0
105 121 0
110 128 0
114 132 0
117 134 0
114 131 0
119 137 0
111 127 0
109 126 0
106 124 0
106 122 0
104 121 0
108 123 0
106 122 0
109 124 0
100 114 0
118 136 0
98 111 0
106 122 0
111 125 0
105 122 0
107 123 0
114 129 0
110 126 0
108 122 0
121 136 0
124 142 0
113 128 0
119 133 0
116 132 0
111 127 0
113 128 0
129 143 0
128 143 0
122 138 0
113 128 0
118 131 0
116 130 0
135 149 0
132 147 0
133 147 0
127 141 0
136 150 0
124 137 0
127 141 0
131 143 0
130 143 0
126 138 0
133 146 0
130 141 0
124 134 0
129 138 0
132 146 0
132 142 0
129 137 0
124 134 0
126 132 0
133 139 0
134 142 0
134 140 0
115 117 0
131 132 0
121 121 0
127 127 0
116 116 0
117 116 0
112 111 0
111 108 0
126 122 0
121 115 0
109 100 0
104 94 0
110 106 0
104 97 0
100 89 0
106 93 0
95 85 0
109 99 0
98 83 0
103 84 0
113 97 0
116 99 0
112 90 0
115 94 0
118 98 0
128 109 0
122 105 0
126 106 0
124 108 0
132 114 0
134 117 0
131 114 0
130 113 0
132 116 0
133 117 0
136 120 0
135 119 0
138 123 0
133 117 0
135 119 0
138 124 0
138 122 0
137 122 0
143 133 0
149 142 0
156 158 0
158 162 0
160 166 0
166 175 0
168 180 0
168 182 0
166 178 0
167 183 0
169 187 0
169 187 0
169 186 0
168 185 0
167 185 0
173 191 0
170 189 0
167 190 0
166 187 0
167 188 0
168 190 0
170 191 0
167 187 0
167 187 0
166 187 0
168 188 0
166 187 0
166 185 0
162 182 0
166 186 0
165 184 0
162 182 0
165 184 0
161 179 0
162 180 0
157 174 0
151 168 0
151 167 0
145 161 0
142 158 0
148 164 0
138 152 0
134 148 0
136 150 0
132 146 0
133 146 0
127 139 0
130 143 0
127 139 0
127 139 0
118 130 0
120 131 0
114 125 0
108 118 0
110 120 0
110 120 0
112 123 0
115 126 0
118 129 0
111 123 0
121 133 0
116 127 0
122 134 0
111 122 0
127 140 0
124 137 0
119 132 0
125 138 0
126 139 0
116 131 0
124 138 0
109 123 0
129 144 0
128 145 0
134 149 0
124 139 0
128 145 0
123 138 0
132 149 0
122 139 0
131 148 0
137 154 0
132 149 0
123 141 0
135 153 0
128 146 0
129 147 0
131 151 0
134 153 0
131 150 0
130 149 0
130 149 0
126 145 0
120 137 0
133 152 0
127 146 0
131 150 0
126 145 0
126 146 0
125 145 0
130 150 0
125 143 0
112 131 0
129 148 0
127 147 0
125 142 0
120 139 0
120 138 0
104 121 0
121 140 0
120 138 0
109 128 0
123 141 0
115 133 0
117 135 0
108 126 0
114 132 0
101 118 0
113 130 0
117 135 0
116 133 0
100 117 0
111 127 0
117 134 0
119 135 0
110 128 0
113 131 0
117 135 0
107 124 0
114 131 0
100 118 0
123 140 0
121 138 0
110 126 0
116 133 0
116 132 0
117 134 0
121 136 0
112 128 0
122 137 0
115 131 0
136 152 0
122 138 0
124 139 0
132 148 0
125 140 0
119 135 0
134 151 0
117 133 0
130 145 0
124 140 0
126 141 0
132 144 0
134 151 0
137 151 0
132 146 0
131 145 0
132 148 0
124 137 0
127 139 0
140 154 0
126 139 0
131 142 0
123 131 0
129 139 0
133 146 0
138 147 0
132 139 0
138 144 0
137 144 0
132 138 0
133 139 0
125 131 0
135 140 0
125 128 0
138 143 0
131 133 0
132 134 0
125 129 0
129 128 0
131 130 0
121 120 0
114 110 0
121 115 0
110 102 0
116 110 0
117 110 0
110 99 0
121 114 0
112 105 0
108 95 0
109 99 0
114 105 0
121 111 0
109 94 0
126 118 0
121 111 0
115 102 0
128 119 0
128 115 0
123 107 0
130 118 0
134 118 0
130 118 0
135 124 0
134 119 0
130 117 0
143 139 0
144 139 0
141 134 0
144 138 0
152 153 0
154 154 0
160 165 0
157 163 0
159 168 0
161 171 0
167 177 0
165 177 0
164 176 0
164 175 0
165 177 0
167 180 0
168 181 0
166 179 0
170 185 0
167 184 0
167 181 0
167 183 0
166 182 0
166 183 0
169 188 0
170 190 0
169 190 0
169 191 0
166 187 0
166 187 0
167 187 0
168 188 0
167 188 0
164 185 0
164 184 0
164 184 0
163 182 0
159 178 0
165 184 0
156 175 0
165 183 0
157 175 0
161 179 0
159 176 0
156 174 0
156 173 0
151 168 0
156 173 0
148 164 0
145 160 0
143 158 0
137 152 0
140 154 0
139 153 0
139 152 0
136 149 0
134 147 0
126 138 0
133 146 0
125 137 0
113 124 0
124 137 0
133 145 0
127 140 0
123 134 0
129 142 0
127 140 0
123 135 0
123 136 0
132 146 0
130 144 0
127 141 0
129 143 0
121 136 0
130 145 0
132 148 0
126 141 0
128 142 0
129 144 0
138 155 0
119 134 0
123 139 0
131 148 0
134 150 0
124 141 0
130 146 0
124 142 0
130 149 0
134 152 0
131 149 0
133 153 0
130 149 0
138 157 0
138 157 0
144 162 0
135 154 0
126 145 0
126 146 0
140 159 0
132 151 0
134 152 0
137 157 0
127 147 0
129 148 0
131 150 0
135 153 0
126 145 0
132 151 0
130 149 0
126 145 0
121 140 0
131 150 0
140 159 0
131 150 0
119 137 0
131 151 0
122 141 0
114 133 0
122 141 0
118 136 0
124 142 0
120 138 0
120 139 0
117 136 0
118 136 0
130 149 0
119 137 0
111 128 0
117 134 0
115 134 0
124 141 0
109 125 0
115 132 0
102 120 0
111 130 0
120 137 0
113 130 0
108 124 0
119 138 0
119 137 0
122 139 0
121 137 0
116 132 0
125 144 0
118 136 0
130 145 0
120 136 0
129 148 0
114 128 0
127 143 0
122 142 0
114 129 0
122 139 0
120 135 0
131 149 0
124 142 0
125 142 0
125 140 0
136 150 0
139 153 0
129 143 0
140 157 0
122 135 0
131 146 0
137 151 0
135 149 0
132 145 0
134 149 0
135 148 0
128 137 0
136 148 0
143 156 0
137 149 0
133 147 0
136 147 0
133 142 0
127 133 0
133 140 0
138 147 0
129 136 0
136 140 0
131 137 0
130 135 0
136 138 0
132 137 0
128 133 0
134 137 0
143 143 0
129 130 0
133 134 0
123 122 0
125 121 0
127 122 0
115 113 0
128 125 0
122 115 0
138 134 0
121 111 0
121 113 0
112 103 0
126 119 0
128 123 0
123 117 0
120 114 0
131 127 0
120 111 0
119 111 0
124 114 0
127 118 0
134 131 0
139 134 0
144 141 0
144 142 0
147 146 0
147 146 0
151 154 0
149 150 0
149 149 0
159 164 0
157 162 0
153 157 0
160 167 0
160 169 0
162 171 0
159 166 0
163 172 0
162 171 0
165 177 0
158 164 0
163 173 0
162 172 0
166 175 0
165 177 0
168 182 0
166 181 0
167 183 0
167 182 0
166 181 0
166 182 0
169 185 0
167 188 0
170 191 0
167 187 0
165 186 0
167 188 0
164 183 0
166 186 0
164 184 0
165 185 0
167 185 0
164 184 0
164 182 0
163 182 0
162 181 0
161 179 0
158 176 0
157 175 0
157 174 0
156 173 0
155 172 0
151 167 0
148 164 0
144 160 0
150 166 0
145 160 0
146 161 0
145 160 0
141 155 0
136 150 0
137 151 0
131 145 0
133 146 0
132 145 0
128 141 0
136 149 0
134 148 0
130 143 0
132 145 0
118 131 0
125 138 0
129 142 0
126 140 0
134 148 0
129 143 0
127 141 0
132 146 0
131 146 0
131 146 0
131 146 0
140 156 0
131 147 0
128 143 0
134 151 0
131 147 0
135 152 0
136 152 0
129 146 0
131 148 0
137 154 0
142 159 0
131 148 0
140 158 0
136 155 0
126 144 0
133 152 0
125 143 0
139 159 0
138 156 0
138 156 0
137 155 0
138 157 0
128 147 0
142 161 0
132 149 0
139 158 0
135 154 0
134 153 0
136 155 0
129 148 0
124 142 0
125 144 0
122 141 0
131 150 0
134 153 0
124 143 0
124 141 0
136 155 0
135 155 0
126 147 0
118 136 0
126 146 0
133 152 0
117 135 0
119 138 0
119 138 0
119 138 0
124 142 0
122 139 0
126 144 0
133 152 0
136 156 0
118 137 0
116 133 0
121 140 0
122 140 0
117 134 0
109 127 0
113 132 0
118 135 0
113 130 0
125 144 0
113 130 0
121 138 0
129 147 0
130 148 0
127 146 0
131 147 0
123 140 0
124 143 0
123 139 0
134 151 0
123 140 0
115 131 0
125 142 0
136 154 0
115 131 0
131 149 0
130 147 0
124 141 0
128 142 0
140 158 0
133 150 0
133 151 0
129 145 0
132 148 0
133 146 0
137 153 0
130 143 0
120 131 0
129 142 0
133 146 0
137 153 0
129 142 0
138 151 0
137 150 0
138 152 0
128 138 0
136 147 0
143 156 0
136 148 0
139 153 0
129 137 0
128 141 0
131 141 0
136 146 0
128 140 0
136 145 0
137 145 0
136 142 0
124 128 0
130 137 0
129 133 0
138 143 0
130 133 0
147 153 0
131 131 0
125 125 0
131 129 0
135 135 0
123 121 0
131 130 0
126 126 0
123 119 0
126 121 0
125 119 0
129 123 0
130 124 0
129 120 0
131 126 0
130 121 0
127 122 0
125 118 0
129 124 0
133 125 0
131 125 0
137 133 0
134 130 0
137 133 0
139 136 0
145 143 0
146 146 0
143 143 0
148 148 0
146 146 0
148 148 0
153 155 0
158 160 0
151 155 0
157 161 0
157 163 0
160 167 0
159 165 0
164 174 0
163 172 0
162 173 0
166 175 0
165 177 0
168 181 0
166 179 0
166 179 0
166 181 0
167 182 0
168 182 0
161 173 0
168 183 0
166 187 0
167 187 0
165 186 0
164 184 0
167 187 0
167 186 0
163 183 0
165 185 0
161 180 0
161 181 0
158 176 0
162 181 0
161 179 0
163 181 0
161 179 0
155 171 0
151 168 0
150 167 0
153 170 0
155 173 0
153 169 0
153 169 0
147 162 0
148 163 0
148 163 0
147 163 0
137 151 0
138 153 0
142 157 0
148 162 0
137 151 0
132 145 0
134 148 0
135 149 0
135 150 0
135 149 0
132 146 0
132 147 0
138 152 0
128 142 0
133 148 0
131 145 0
129 144 0
133 148 0
135 150 0
133 149 0
141 157 0
124 140 0
128 144 0
131 147 0
132 148 0
131 149 0
133 149 0
135 152 0
134 150 0
127 144 0
134 151 0
141 159 0
142 161 0
135 153 0
141 159 0
136 155 0
140 158 0
136 155 0
135 152 0
127 146 0
139 157 0
139 158 0
137 155 0
146 166 0
133 154 0
146 166 0
144 164 0
135 156 0
137 158 0
139 159 0
136 156 0
132 151 0
147 169 0
132 152 0
130 151 0
131 151 0
127 146 0
137 156 0
137 156 0
134 154 0
124 144 0
123 142 0
131 152 0
133 151 0
121 141 0
124 144 0
130 150 0
119 137 0
128 149 0
130 151 0
133 151 0
125 143 0
126 146 0
120 140 0
117 135 0
129 149 0
133 150 0
120 138 0
114 132 0
127 146 0
125 142 0
121 141 0
135 154 0
125 142 0
118 137 0
121 138 0
127 143 0
132 150 0
125 144 0
115 133 0
124 141 0
115 134 0
126 145 0
122 140 0
128 145 0
131 149 0
130 149 0
127 146 0
123 139 0
134 150 0
127 145 0
129 145 0
132 150 0
131 148 0
128 145 0
130 146 0
130 146 0
138 156 0
135 152 0
132 147 0
131 150 0
138 153 0
136 151 0
133 150 0
141 155 0
136 151 0
134 152 0
142 154 0
143 157 0
139 153 0
141 155 0
131 145 0
140 154 0
134 146 0
140 153 0
137 147 0
133 142 0
137 148 0
139 150 0
144 154 0
136 148 0
138 146 0
133 141 0
137 147 0
144 150 0
135 141 0
136 142 0
137 142 0
140 147 0
135 141 0
133 138 0
144 150 0
143 148 0
134 138 0
136 138 0
132 130 0
134 133 0
134 135 0
134 130 0
135 134 0
138 136 0
134 132 0
128 125 0
122 117 0
130 124 0
128 123 0
133 127 0
136 133 0
141 136 0
141 141 0
136 130 0
141 139 0
135 131 0
143 142 0
145 142 0
146 145 0
147 145 0
154 157 0
152 153 0
152 151 0
156 159 0
158 160 0
152 153 0
158 163 0
159 163 0
159 166 0
160 167 0
163 172 0
162 170 0
164 174 0
162 170 0
159 168 0
164 176 0
162 173 0
166 176 0
165 176 0
167 180 0
168 183 0
166 181 0
168 189 0
166 186 0
165 186 0
161 181 0
160 179 0
166 186 0
161 180 0
160 178 0
163 180 0
161 179 0
158 177 0
164 182 0
158 175 0
157 175 0
159 176 0
158 175 0
156 173 0
154 171 0
154 170 0
147 163 0
145 162 0
147 163 0
146 162 0
148 164 0
149 164 0
145 160 0
138 153 0
147 163 0
143 157 0
144 159 0
139 153 0
134 148 0
133 147 0
136 150 0
136 151 0
123 137 0
138 153 0
139 154 0
143 158 0
135 149 0
146 162 0
143 159 0
133 148 0
136 151 0
140 156 0
139 156 0
135 150 0
135 151 0
142 157 0
135 153 0
136 153 0
137 155 0
137 155 0
143 160 0
133 150 0
144 163 0
138 156 0
146 165 0
143 161 0
139 159 0
136 153 0
139 157 0
140 160 0
140 158 0
131 151 0
145 163 0
141 162 0
134 153 0
151 171 0
143 164 0
141 160 0
126 144 0
135 153 0
142 161 0
136 155 0
127 148 0
132 151 0
144 165 0
135 154 0
132 152 0
141 161 0
139 159 0
126 145 0
129 149 0
126 145 0
136 156 0
130 150 0
133 153 0
128 147 0
135 155 0
132 151 0
142 162 0
123 141 0
130 149 0
128 148 0
130 150 0
124 145 0
135 155 0
127 146 0
123 143 0
132 151 0
115 135 0
133 152 0
123 143 0
130 150 0
120 139 0
124 143 0
120 141 0
127 147 0
120 137 0
127 146 0
129 148 0
123 140 0
108 126 0
133 151 0
127 147 0
123 141 0
134 151 0
137 155 0
127 144 0
130 150 0
135 154 0
120 138 0
124 140 0
129 147 0
123 140 0
135 152 0
138 154 0
128 146 0
128 147 0
138 156 0
134 151 0
137 153 0
128 145 0
138 155 0
134 152 0
145 160 0
124 142 0
136 152 0
141 156 0
132 147 0
137 153 0
134 149 0
137 152 0
134 150 0
137 151 0
146 161 0
131 144 0
138 151 0
143 157 0
140 151 0
134 144 0
135 149 0
142 154 0
139 150 0
144 156 0
128 138 0
140 151 0
143 153 0
140 147 0
139 148 0
137 145 0
138 149 0
133 142 0
138 144 0
133 135 0
132 140 0
140 144 0
138 142 0
138 142 0
129 129 0
137 139 0
129 134 0
140 144 0
137 138 0
136 135 0
131 129 0
141 140 0
137 137 0
139 137 0
137 136 0
132 128 0
138 135 0
138 132 0
144 144 0
142 141 0
144 144 0
139 138 0
146 143 0
142 139 0
151 153 0
144 140 0
148 149 0
154 157 0
150 152 0
153 153 0
147 148 0
157 161 0
160 168 0
153 155 0
152 151 0
159 165 0
157 161 0
158 164 0
163 172 0
159 167 0
165 176 0
158 167 0
158 165 0
166 177 0
168 179 0
166 179 0
164 175 0
168 180 0
162 172 0
163 183 0
165 185 0
164 184 0
162 181 0
162 181 0
163 183 0
160 179 0
160 179 0
162 181 0
157 175 0
160 178 0
158 176 0
156 173 0
157 175 0
157 175 0
151 168 0
155 171 0
155 172 0
155 172 0
153 170 0
157 173 0
147 163 0
153 169 0
143 158 0
144 158 0
140 155 0
142 158 0
149 164 0
146 162 0
144 160 0
140 154 0
137 151 0
145 160 0
146 162 0
142 156 0
144 160 0
149 165 0
134 150 0
139 155 0
143 159 0
141 157 0
145 162 0
144 161 0
140 157 0
140 157 0
131 148 0
145 163 0
138 155 0
148 165 0
140 157 0
136 154 0
138 156 0
147 165 0
136 154 0
144 163 0
134 151 0
138 156 0
139 158 0
141 160 0
134 154 0
139 158 0
144 164 0
136 155 0
146 166 0
142 162 0
143 162 0
134 152 0
143 163 0
137 157 0
138 159 0
128 149 0
139 158 0
137 158 0
144 163 0
141 162 0
138 158 0
135 154 0
142 161 0
141 161 0
143 163 0
139 160 0
135 156 0
136 155 0
135 154 0
136 158 0
138 159 0
132 153 0
129 150 0
137 157 0
133 153 0
135 155 0
139 160 0
127 147 0
132 152 0
127 148 0
126 146 0
136 156 0
133 153 0
130 151 0
131 151 0
122 142 0
132 151 0
122 142 0
131 150 0
115 134 0
119 137 0
127 146 0
135 155 0
118 139 0
126 144 0
121 140 0
129 146 0
123 140 0
133 153 0
128 148 0
127 144 0
118 136 0
139 157 0
132 151 0
135 153 0
123 143 0
131 149 0
128 148 0
127 147 0
137 156 0
127 145 0
131 149 0
126 144 0
124 142 0
137 156 0
140 157 0
136 154 0
139 157 0
139 157 0
128 146 0
140 158 0
132 148 0
138 152 0
137 155 0
126 139 0
140 155 0
133 151 0
140 156 0
145 160 0
140 156 0
137 150 0
140 154 0
140 155 0
137 150 0
139 153 0
142 155 0
137 151 0
134 146 0
144 156 0
147 160 0
142 155 0
143 152 0
140 153 0
143 155 0
140 149 0
139 148 0
140 148 0
145 154 0
142 149 0
142 150 0
139 149 0
139 144 0
147 152 0
143 150 0
143 148 0
143 148 0
148 152 0
134 135 0
138 141 0
141 145 0
140 141 0
146 149 0
137 137 0
146 146 0
145 145 0
140 139 0
141 142 0
149 151 0
141 139 0
146 146 0
141 137 0
145 143 0
145 145 0
147 148 0
142 141 0
142 141 0
149 148 0
150 153 0
149 151 0
151 152 0
154 158 0
150 154 0
151 153 0
152 154 0
158 161 0
157 162 0
153 154 0
157 163 0
158 162 0
158 167 0
159 165 0
157 163 0
159 166 0
160 166 0
160 167 0
164 176 0
162 172 0
162 173 0
164 175 0
163 174 0
165 185 0
161 180 0
164 185 0
160 179 0
157 176 0
165 183 0
160 179 0
165 184 0
158 176 0
156 174 0
160 178 0
159 177 0
152 170 0
153 171 0
149 167 0
154 171 0
153 170 0
152 169 0
147 164 0
152 168 0
152 168 0
142 158 0
151 167 0
147 164 0
149 165 0
145 161 0
151 167 0
143 158 0
136 151 0
148 164 0
144 160 0
144 160 0
147 163 0
143 158 0
151 167 0
145 161 0
138 154 0
135 152 0
144 160 0
143 159 0
148 164 0
136 151 0
142 159 0
149 167 0
143 161 0
145 162 0
146 164 0
148 166 0
145 163 0
137 155 0
146 164 0
145 164 0
147 166 0
138 157 0
144 163 0
142 160 0
143 162 0
146 165 0
149 169 0
144 163 0
137 157 0
140 161 0
141 162 0
142 162 0
140 159 0
141 161 0
145 165 0
140 161 0
148 169 0
144 164 0
138 158 0
141 161 0
135 155 0
145 165 0
136 155 0
136 157 0
142 162 0
136 157 0
134 154 0
131 152 0
127 147 0
140 160 0
136 156 0
135 155 0
131 151 0
132 151 0
134 154 0
144 164 0
135 157 0
129 149 0
135 155 0
138 158 0
125 144 0
133 153 0
130 150 0
134 154 0
129 149 0
129 148 0
132 152 0
129 149 0
132 152 0
141 160 0
138 159 0
132 151 0
138 159 0
139 159 0
130 149 0
128 148 0
131 150 0
135 156 0
127 148 0
131 151 0
130 149 0
136 154 0
132 152 0
137 155 0
141 161 0
135 153 0
126 146 0
136 153 0
134 153 0
128 146 0
130 148 0
140 159 0
141 160 0
134 152 0
141 157 0
131 149 0
134 151 0
145 166 0
132 150 0
129 147 0
131 148 0
131 149 0
133 151 0
136 153 0
146 163 0
136 151 0
136 153 0
136 153 0
138 156 0
139 157 0
141 157 0
137 152 0
147 162 0
140 153 0
139 155 0
141 156 0
142 155 0
140 154 0
144 160 0
141 155 0
144 157 0
149 162 0
149 165 0
146 159 0
142 155 0
142 156 0
150 163 0
148 160 0
144 156 0
143 154 0
143 155 0
138 147 0
138 148 0
144 154 0
145 154 0
142 148 0
139 144 0
132 136 0
146 153 0
141 148 0
146 152 0
148 154 0
145 150 0
144 151 0
143 146 0
152 156 0
143 146 0
137 137 0
144 146 0
139 137 0
152 155 0
145 147 0
151 155 0
151 154 0
149 150 0
141 140 0
146 148 0
146 149 0
150 152 0
150 152 0
147 147 0
146 146 0
152 153 0
154 154 0
151 155 0
149 149 0
159 165 0
159 163 0
157 163 0
155 158 0
159 165 0
156 161 0
158 167 0
161 168 0
159 166 0
161 170 0
161 170 0
153 159 0
158 165 0
163 173 0
163 170 0
163 176 0
163 173 0
163 183 0
163 182 0
162 181 0
159 178 0
164 184 0
159 177 0
159 177 0
162 181 0
156 174 0
164 182 0
152 170 0
155 173 0
156 173 0
157 174 0
152 168 0
156 173 0
155 172 0
148 164 0
153 171 0
145 162 0
152 170 0
150 166 0
153 170 0
146 162 0
144 159 0
144 160 0
150 166 0
144 160 0
143 158 0
145 162 0
148 164 0
146 163 0
142 158 0
142 158 0
145 162 0
146 164 0
146 164 0
150 168 0
140 156 0
140 157 0
152 171 0
148 165 0
149 167 0
143 161 0
148 166 0
146 164 0
138 155 0
140 158 0
149 167 0
149 168 0
144 163 0
141 161 0
138 158 0
144 163 0
145 165 0
148 167 0
146 164 0
146 166 0
146 167 0
140 159 0
152 173 0
137 156 0
146 167 0
148 167 0
140 160 0
143 163 0
143 163 0
147 167 0
141 161 0
137 158 0
135 154 0
145 165 0
139 160 0
133 153 0
143 165 0
142 162 0
140 160 0
142 161 0
132 153 0
143 165 0
136 157 0
139 161 0
139 160 0
146 168 0
139 161 0
129 147 0
138 157 0
138 159 0
140 160 0
136 156 0
140 160 0
137 156 0
133 152 0
133 153 0
134 155 0
141 160 0
137 157 0
127 148 0
134 152 0
140 161 0
139 159 0
130 148 0
135 156 0
133 152 0
129 148 0
129 149 0
131 150 0
128 147 0
124 145 0
137 157 0
138 158 0
137 155 0
133 151 0
141 160 0
139 159 0
137 155 0
131 150 0
130 149 0
127 146 0
146 165 0
143 164 0
130 149 0
138 159 0
141 157 0
133 151 0
140 159 0
140 156 0
139 156 0
138 158 0
136 154 0
143 162 0
125 144 0
134 150 0
135 152 0
137 152 0
131 148 0
138 155 0
144 161 0
143 161 0
144 160 0
132 148 0
149 166 0
143 158 0
143 159 0
149 167 0
137 153 0
143 161 0
142 155 0
144 159 0
149 165 0
137 149 0
143 158 0
133 145 0
138 151 0
149 165 0
143 157 0
146 160 0
144 157 0
140 151 0
141 152 0
139 150 0
138 149 0
149 162 0
149 158 0
144 153 0
142 153 0
150 159 0
143 153 0
150 162 0
141 152 0
141 147 0
143 152 0
145 151 0
140 146 0
146 153 0
140 148 0
143 148 0
148 152 0
141 146 0
144 146 0
141 140 0
151 156 0
146 151 0
142 146 0
148 152 0
149 155 0
153 157 0
149 149 0
147 147 0
147 150 0
148 151 0
153 157 0
147 147 0
153 157 0
154 157 0
149 152 0
151 155 0
160 166 0
154 156 0
153 157 0
153 158 0
155 158 0
157 163 0
159 165 0
154 160 0
157 161 0
159 169 0
160 166 0
164 172 0
158 165 0
159 168 0
161 171 0
159 166 0
163 172 0
165 176 0
164 183 0
159 179 0
161 180 0
160 178 0
156 174 0
164 183 0
159 178 0
156 174 0
154 172 0
158 176 0
157 175 0
157 176 0
156 174 0
151 168 0
159 178 0
153 171 0
153 170 0
154 170 0
154 171 0
147 164 0
149 165 0
154 171 0
152 169 0
148 165 0
153 170 0
151 168 0
155 172 0
151 169 0
146 163 0
148 166 0
147 165 0
149 165 0
142 159 0
144 160 0
144 161 0
147 164 0
145 163 0
142 160 0
144 161 0
155 174 0
142 160 0
150 167 0
147 166 0
155 173 0
144 162 0
152 171 0
148 167 0
142 161 0
147 166 0
146 166 0
143 162 0
144 162 0
151 171 0
149 169 0
146 166 0
141 161 0
136 156 0
139 159 0
154 174 0
147 165 0
144 161 0
144 163 0
147 167 0
148 168 0
141 162 0
147 168 0
145 166 0
140 160 0
144 165 0
139 159 0
139 160 0
145 166 0
144 164 0
142 162 0
142 164 0
141 162 0
141 162 0
151 171 0
139 159 0
145 165 0
143 163 0
146 167 0
137 158 0
146 166 0
144 164 0
142 162 0
144 165 0
135 157 0
144 164 0
132 153 0
141 161 0
137 156 0
136 157 0
129 151 0
129 149 0
138 160 0
132 153 0
135 155 0
132 151 0
136 156 0
136 157 0
140 160 0
136 155 0
118 138 0
125 144 0
130 150 0
133 153 0
135 154 0
137 157 0
134 154 0
132 152 0
128 148 0
133 153 0
130 151 0
130 150 0
140 158 0
134 154 0
137 156 0
138 157 0
145 164 0
136 155 0
139 159 0
140 158 0
133 153 0
142 161 0
137 157 0
136 155 0
135 155 0
141 160 0
135 154 0
141 159 0
137 156 0
142 159 0
143 160 0
144 163 0
151 169 0
142 159 0
144 160 0
140 159 0
147 166 0
133 151 0
142 159 0
140 157 0
148 163 0
137 154 0
140 156 0
143 158 0
150 165 0
149 166 0
138 153 0
138 153 0
139 152 0
154 168 0
137 150 0
151 166 0
141 155 0
132 145 0
146 161 0
150 164 0
137 149 0
143 156 0
145 156 0
141 154 0
150 162 0
141 155 0
151 164 0
142 152 0
142 154 0
147 156 0
142 150 0
144 155 0
150 159 0
148 158 0
148 154 0
149 159 0
144 152 0
151 158 0
146 154 0
139 143 0
152 159 0
150 158 0
143 149 0
147 153 0
144 150 0
146 153 0
144 146 0
154 157 0
148 152 0
147 152 0
149 154 0
145 146 0
159 165 0
150 154 0
147 149 0
149 153 0
154 159 0
154 157 0
148 151 0
157 160 0
158 164 0
153 158 0
156 160 0
153 157 0
155 157 0
158 161 0
155 159 0
157 163 0
161 168 0
161 170 0
161 169 0
157 164 0
157 164 0
158 166 0
163 172 0
166 176 0
165 185 0
161 180 0
161 181 0
160 179 0
161 181 0
158 175 0
157 175 0
161 179 0
160 176 0
158 176 0
153 171 0
156 175 0
151 169 0
158 176 0
154 172 0
153 170 0
145 162 0
153 170 0
151 168 0
158 176 0
152 169 0
151 169 0
147 164 0
147 164 0
154 171 0
147 164 0
153 171 0
150 167 0
146 163 0
146 164 0
143 161 0
153 171 0
149 166 0
155 173 0
149 168 0
151 169 0
152 170 0
149 167 0
147 165 0
146 164 0
149 168 0
147 166 0
137 155 0
145 164 0
147 166 0
147 166 0
146 164 0
144 161 0
137 157 0
150 169 0
149 168 0
148 167 0
147 166 0
142 162 0
145 165 0
146 165 0
147 168 0
143 163 0
145 164 0
142 163 0
150 170 0
147 168 0
147 168 0
146 166 0
141 161 0
150 170 0
149 169 0
149 170 0
140 160 0
148 168 0
145 166 0
139 160 0
145 166 0
148 169 0
145 166 0
138 160 0
140 162 0
141 161 0
143 165 0
144 164 0
149 169 0
147 168 0
150 171 0
141 162 0
153 174 0
136 159 0
136 157 0
141 162 0
139 161 0
138 160 0
139 159 0
140 161 0
134 154 0
134 153 0
146 167 0
130 150 0
141 164 0
134 153 0
141 160 0
142 162 0
137 157 0
136 157 0
148 170 0
137 156 0
136 156 0
136 154 0
136 156 0
136 155 0
143 162 0
135 155 0
132 152 0
137 158 0
143 162 0
146 166 0
127 145 0
130 150 0
131 150 0
139 159 0
143 163 0
144 163 0
134 153 0
143 161 0
141 162 0
141 160 0
141 161 0
135 153 0
141 159 0
145 164 0
148 167 0
144 163 0
139 159 0
147 166 0
143 161 0
140 159 0
144 162 0
143 160 0
139 157 0
143 160 0
147 165 0
138 157 0
141 157 0
142 160 0
146 164 0
151 169 0
142 161 0
149 166 0
144 163 0
143 159 0
146 159 0
150 167 0
152 170 0
137 152 0
142 157 0
147 162 0
146 163 0
143 156 0
144 161 0
150 162 0
143 157 0
147 159 0
154 168 0
150 166 0
147 160 0
152 166 0
148 160 0
150 160 0
146 158 0
142 155 0
151 163 0
147 158 0
148 161 0
151 163 0
147 155 0
148 159 0
148 157 0
144 152 0
159 166 0
143 151 0
148 156 0
149 156 0
152 161 0
150 158 0
141 143 0
147 154 0
153 161 0
153 157 0
150 154 0
153 158 0
151 156 0
150 155 0
157 162 0
150 153 0
156 160 0
152 155 0
148 149 0
156 161 0
151 155 0
152 156 0
150 152 0
150 155 0
155 161 0
160 167 0
155 161 0
153 158 0
162 169 0
159 163 0
159 166 0
157 164 0
158 164 0
163 173 0
160 168 0
161 170 0
157 163 0
165 176 0
167 179 0
163 182 0
162 182 0
162 181 0
163 182 0
161 179 0
160 178 0
159 178 0
161 179 0
161 181 0
155 173 0
152 169 0
155 172 0
156 174 0
155 172 0
158 176 0
159 176 0
158 176 0
151 167 0
161 180 0
153 170 0
155 172 0
153 170 0
151 168 0
151 169 0
153 171 0
151 169 0
149 166 0
145 163 0
149 166 0
147 166 0
154 172 0
150 167 0
153 171 0
151 169 0
147 166 0
151 170 0
151 170 0
148 167 0
149 169 0
154 172 0
142 160 0
148 167 0
142 162 0
150 169 0
150 171 0
144 162 0
153 172 0
146 165 0
149 169 0
145 166 0
148 168 0
151 171 0
142 163 0
142 162 0
149 169 0
146 166 0
145 166 0
145 166 0
138 157 0
146 166 0
147 169 0
150 171 0
151 171 0
145 166 0
139 159 0
148 169 0
144 165 0
143 165 0
143 163 0
148 170 0
145 164 0
149 170 0
148 168 0
148 169 0
147 170 0
140 161 0
141 162 0
145 165 0
139 159 0
139 160 0
139 160 0
143 164 0
142 164 0
147 168 0
144 164 0
139 160 0
140 161 0
146 167 0
145 166 0
140 161 0
143 162 0
145 167 0
140 162 0
141 162 0
135 155 0
128 148 0
133 153 0
141 162 0
151 173 0
134 153 0
128 148 0
143 164 0
143 164 0
141 161 0
136 156 0
127 145 0
130 150 0
141 162 0
130 150 0
142 162 0
140 160 0
145 164 0
138 157 0
140 161 0
134 154 0
141 161 0
132 151 0
149 169 0
139 159 0
141 161 0
138 158 0
141 162 0
144 165 0
144 163 0
131 150 0
140 158 0
142 161 0
142 162 0
137 156 0
145 163 0
141 161 0
146 165 0
142 161 0
141 159 0
146 164 0
138 156 0
148 166 0
138 156 0
146 162 0
135 154 0
145 162 0
143 161 0
148 164 0
149 169 0
140 157 0
148 166 0
141 157 0
148 167 0
146 163 0
143 158 0
142 159 0
143 159 0
156 171 0
140 155 0
142 157 0
143 159 0
146 164 0
152 167 0
145 159 0
154 171 0
146 161 0
147 161 0
148 161 0
150 163 0
142 154 0
147 159 0
147 158 0
148 161 0
152 165 0
147 157 0
150 162 0
149 160 0
151 158 0
153 165 0
150 158 0
150 154 0
154 163 0
152 162 0
153 161 0
152 159 0
150 158 0
147 158 0
151 159 0
148 155 0
149 157 0
143 150 0
152 161 0
152 157 0
155 162 0
152 158 0
151 157 0
155 160 0
158 165 0
154 160 0
150 155 0
151 157 0
153 157 0
154 159 0
160 168 0
152 157 0
159 166 0
156 162 0
157 161 0
155 162 0
157 162 0
154 160 0
162 171 0
156 164 0
155 161 0
159 166 0
162 171 0
164 172 0
159 165 0
161 171 0
160 169 0
158 177 0
165 185 0
162 181 0
155 174 0
160 179 0
161 180 0
158 177 0
161 180 0
161 179 0
148 166 0
153 170 0
153 171 0
156 174 0
156 175 0
154 173 0
155 174 0
154 172 0
152 169 0
157 175 0
156 174 0
148 165 0
153 172 0
149 166 0
148 165 0
155 174 0
152 171 0
146 163 0
159 178 0
154 172 0
155 174 0
149 167 0
154 174 0
153 171 0
149 167 0
153 172 0
153 172 0
152 172 0
150 169 0
151 170 0
144 162 0
154 173 0
151 170 0
148 167 0
140 159 0
147 167 0
151 169 0
142 161 0
143 162 0
152 171 0
147 166 0
142 162 0
143 163 0
146 167 0
147 168 0
145 166 0
145 165 0
147 167 0
139 159 0
146 167 0
148 169 0
146 167 0
147 168 0
146 168 0
148 169 0
151 170 0
152 174 0
148 168 0
151 174 0
149 171 0
143 163 0
143 164 0
149 169 0
143 165 0
147 169 0
141 162 0
153 173 0
138 159 0
145 166 0
147 168 0
138 159 0
135 157 0
149 171 0
145 165 0
142 163 0
140 161 0
150 172 0
140 162 0
132 152 0
139 160 0
149 170 0
144 166 0
147 169 0
147 168 0
133 154 0
145 166 0
145 166 0
137 157 0
141 162 0
139 159 0
142 163 0
143 163 0
137 158 0
144 166 0
137 158 0
146 166 0
141 162 0
146 166 0
137 159 0
126 146 0
134 155 0
141 161 0
142 161 0
140 161 0
144 165 0
138 158 0
141 161 0
141 161 0
132 153 0
127 147 0
148 168 0
143 164 0
143 162 0
136 154 0
146 165 0
129 149 0
146 165 0
139 161 0
147 167 0
139 158 0
141 160 0
142 162 0
151 170 0
144 163 0
141 160 0
145 165 0
143 162 0
142 160 0
141 160 0
152 169 0
143 160 0
146 163 0
150 168 0
145 164 0
145 162 0
145 164 0
144 162 0
147 166 0
146 165 0
142 159 0
141 157 0
154 171 0
146 164 0
146 161 0
151 166 0
145 160 0
144 158 0
151 166 0
148 164 0
151 166 0
142 156 0
147 162 0
145 160 0
149 165 0
151 163 0
143 156 0
152 165 0
151 164 0
151 164 0
154 167 0
159 174 0
151 164 0
149 162 0
154 166 0
151 164 0
144 155 0
150 159 0
141 152 0
144 153 0
148 155 0
149 160 0
152 161 0
153 163 0
152 160 0
151 158 0
148 156 0
154 161 0
153 162 0
156 165 0
151 158 0
154 161 0
149 156 0
156 161 0
154 160 0
148 154 0
155 160 0
157 166 0
156 162 0
157 165 0
158 166 0
158 167 0
161 170 0
152 158 0
155 160 0
152 154 0
159 167 0
165 171 0
154 159 0
156 162 0
162 170 0
162 172 0
163 172 0
163 172 0
164 175 0
156 163 0
163 172 0
160 178 0
162 182 0
159 177 0
160 179 0
154 172 0
160 179 0
158 177 0
159 178 0
156 174 0
158 176 0
160 178 0
152 169 0
160 179 0
150 168 0
151 170 0
157 175 0
159 177 0
161 180 0
146 164 0
157 174 0
155 173 0
153 172 0
153 172 0
153 172 0
149 167 0
147 165 0
151 169 0
150 169 0
152 170 0
151 170 0
146 165 0
154 173 0
151 171 0
149 168 0
153 172 0
151 170 0
145 165 0
152 171 0
152 170 0
144 162 0
146 165 0
144 164 0
151 171 0
146 165 0
151 171 0
147 165 0
150 170 0
154 174 0
140 159 0
153 173 0
148 167 0
147 168 0
150 171 0
150 170 0
155 176 0
146 167 0
148 169 0
147 168 0
144 165 0
152 174 0
146 166 0
145 167 0
147 167 0
151 173 0
155 176 0
146 165 0
147 168 0
149 170 0
139 159 0
147 168 0
144 166 0
141 163 0
144 164 0
149 171 0
145 166 0
149 171 0
155 176 0
149 170 0
142 164 0
142 163 0
147 168 0
148 169 0
144 165 0
142 162 0
140 162 0
143 164 0
134 155 0
143 163 0
148 169 0
142 163 0
144 166 0
141 161 0
144 164 0
140 162 0
152 173 0
146 166 0
142 162 0
140 161 0
143 163 0
140 161 0
143 164 0
140 160 0
138 158 0
144 164 0
144 166 0
139 159 0
137 158 0
146 166 0
137 157 0
134 154 0
140 161 0
141 163 0
143 164 0
139 159 0
142 164 0
137 157 0
148 170 0
143 164 0
137 156 0
141 160 0
144 163 0
134 155 0
143 164 0
153 175 0
144 163 0
146 163 0
135 155 0
137 157 0
133 151 0
148 165 0
139 161 0
144 163 0
141 159 0
145 164 0
141 159 0
141 158 0
144 162 0
144 164 0
144 160 0
154 173 0
155 173 0
149 168 0
139 156 0
143 161 0
150 167 0
142 158 0
151 166 0
154 169 0
140 159 0
150 167 0
141 157 0
149 164 0
145 162 0
147 162 0
149 163 0
149 164 0
149 167 0
146 163 0
148 165 0
152 168 0
144 159 0
152 164 0
150 165 0
148 162 0
147 161 0
143 157 0
147 163 0
148 162 0
148 162 0
150 161 0
144 155 0
141 153 0
145 156 0
155 170 0
148 163 0
151 163 0
156 166 0
152 166 0
150 162 0
151 161 0
152 162 0
152 162 0
158 167 0
155 165 0
150 159 0
155 164 0
148 153 0
154 162 0
154 162 0
155 165 0
154 163 0
157 164 0
152 160 0
154 163 0
153 162 0
152 160 0
150 157 0
157 164 0
157 166 0
152 159 0
151 155 0
150 156 0
158 168 0
159 166 0
157 166 0
160 171 0
163 172 0
160 170 0
159 168 0
157 165 0
157 164 0
158 167 0
165 174 0
157 164 0
161 168 0
159 178 0
158 176 0
157 176 0
157 177 0
160 179 0
153 171 0
161 180 0
155 174 0
157 175 0
158 177 0
158 176 0
153 171 0
156 176 0
156 174 0
161 180 0
155 173 0
155 174 0
157 176 0
157 176 0
152 170 0
158 176 0
158 177 0
158 177 0
155 173 0
158 177 0
144 162 0
157 176 0
154 173 0
147 165 0
152 171 0
149 169 0
153 173 0
148 166 0
153 173 0
156 176 0
154 173 0
151 170 0
151 170 0
151 172 0
156 176 0
152 172 0
148 168 0
151 171 0
151 170 0
154 174 0
143 163 0
150 169 0
143 163 0
151 172 0
146 167 0
161 182 0
146 167 0
150 170 0
153 172 0
154 175 0
153 174 0
150 172 0
149 170 0
144 166 0
151 173 0
149 170 0
149 171 0
153 174 0
150 171 0
150 173 0
148 170 0
153 173 0
148 170 0
147 167 0
152 174 0
144 166 0
152 174 0
147 169 0
147 170 0
149 170 0
151 173 0
156 178 0
141 162 0
143 164 0
147 168 0
142 165 0
147 168 0
148 170 0
132 152 0
147 168 0
143 164 0
144 166 0
136 157 0
140 160 0
148 169 0
148 170 0
140 162 0
139 160 0
138 159 0
136 157 0
143 163 0
145 167 0
136 156 0
137 157 0
143 163 0
137 159 0
143 162 0
135 156 0
149 171 0
145 164 0
149 168 0
142 162 0
136 155 0
142 163 0
140 161 0
150 171 0
142 164 0
142 163 0
149 171 0
148 168 0
138 159 0
143 164 0
148 169 0
148 168 0
133 155 0
151 171 0
145 165 0
144 162 0
142 162 0
142 162 0
143 164 0
148 168 0
149 168 0
151 170 0
140 159 0
139 158 0
144 164 0
151 172 0
142 161 0
149 167 0
140 160 0
145 164 0
148 167 0
155 175 0
146 164 0
148 167 0
146 163 0
153 173 0
147 167 0
148 166 0
141 159 0
145 160 0
142 160 0
150 169 0
153 171 0
152 168 0
149 166 0
151 167 0
146 161 0
148 164 0
147 166 0
150 166 0
145 161 0
148 165 0
147 162 0
149 164 0
148 162 0
150 166 0
158 175 0
146 162 0
152 166 0
151 165 0
145 159 0
155 168 0
157 171 0
144 155 0
147 161 0
149 161 0
151 162 0
151 164 0
152 167 0
154 167 0
150 163 0
159 170 0
149 161 0
146 158 0
151 161 0
152 163 0
155 165 0
151 159 0
152 162 0
150 160 0
151 158 0
155 167 0
156 163 0
152 162 0
151 160 0
157 168 0
151 157 0
152 158 0
156 163 0
151 159 0
154 163 0
154 162 0
158 166 0
156 163 0
157 166 0
153 160 0
153 159 0
152 157 0
159 170 0
159 167 0
163 171 0
163 173 0
155 160 0
157 162 0
164 176 0
156 163 0
160 169 0
162 172 0
165 184 0
156 176 0
160 179 0
160 179 0
159 178 0
156 176 0
161 180 0
156 174 0
159 178 0
158 177 0
162 182 0
156 175 0
162 180 0
156 175 0
156 174 0
156 175 0
158 177 0
152 170 0
158 178 0
156 175 0
154 172 0
153 171 0
157 177 0
155 174 0
159 179 0
147 166 0
151 170 0
151 170 0
152 171 0
152 172 0
155 175 0
148 168 0
155 175 0
154 173 0
157 177 0
153 173 0
156 176 0
149 168 0
147 166 0
156 175 0
152 172 0
151 172 0
152 173 0
154 174 0
151 172 0
155 175 0
152 172 0
151 171 0
157 177 0
149 170 0
152 173 0
146 166 0
153 174 0
148 168 0
151 171 0
147 168 0
146 167 0
155 176 0
144 165 0
144 165 0
147 168 0
140 160 0
147 169 0
149 170 0
152 172 0
156 178 0
154 174 0
152 171 0
146 167 0
151 172 0
150 171 0
144 166 0
146 168 0
142 163 0
144 165 0
151 174 0
149 171 0
146 167 0
147 170 0
149 170 0
149 169 0
151 173 0
148 169 0
152 173 0
142 164 0
145 167 0
150 171 0
149 170 0
139 160 0
142 163 0
152 173 0
138 159 0
143 164 0
140 161 0
143 164 0
151 172 0
145 166 0
141 163 0
141 163 0
146 168 0
140 161 0
133 154 0
144 165 0
148 169 0
140 161 0
146 167 0
148 168 0
140 161 0
144 166 0
149 170 0
139 160 0
144 165 0
149 171 0
149 171 0
143 163 0
141 160 0
146 167 0
146 167 0
145 166 0
144 164 0
148 170 0
147 167 0
151 171 0
149 170 0
148 169 0
137 157 0
132 154 0
147 165 0
146 166 0
151 171 0
142 162 0
145 163 0
147 166 0
146 165 0
157 176 0
150 168 0
141 160 0
150 169 0
141 159 0
142 159 0
153 172 0
152 169 0
150 170 0
150 170 0
141 160 0
145 163 0
149 167 0
147 166 0
145 163 0
138 157 0
149 167 0
145 161 0
153 170 0
148 166 0
145 162 0
140 156 0
152 170 0
150 168 0
149 167 0
157 174 0
144 160 0
145 162 0
150 165 0
152 167 0
152 167 0
147 161 0
151 165 0
149 164 0
148 162 0
149 161 0
149 163 0
157 170 0
157 170 0
148 162 0
157 172 0
151 165 0
151 163 0
155 167 0
152 166 0
153 159 0
155 166 0
152 162 0
156 168 0
152 164 0
155 168 0
152 162 0
153 164 0
146 155 0
155 168 0
159 170 0
152 163 0
153 160 0
154 162 0
149 159 0
152 158 0
154 161 0
156 167 0
154 164 0
162 172 0
156 163 0
156 164 0
152 161 0
154 161 0
155 164 0
153 160 0
160 167 0
162 176 0
159 168 0
157 166 0
156 164 0
158 166 0
156 165 0
160 170 0
161 170 0
159 168 0
162 180 0
159 178 0
160 179 0
159 178 0
160 179 0
153 172 0
159 179 0
160 179 0
161 181 0
158 178 0
155 173 0
161 180 0
159 177 0
153 172 0
158 176 0
160 179 0
152 171 0
157 176 0
156 175 0
161 180 0
157 176 0
157 176 0
156 176 0
155 175 0
159 179 0
158 178 0
153 171 0
159 179 0
160 180 0
155 175 0
148 168 0
156 175 0
150 170 0
154 174 0
151 172 0
155 175 0
158 179 0
155 175 0
149 169 0
147 167 0
152 173 0
146 166 0
146 166 0
154 174 0
144 164 0
148 167 0
150 171 0
149 170 0
157 178 0
152 173 0
149 170 0
150 170 0
149 170 0
153 174 0
148 168 0
157 178 0
144 166 0
153 175 0
144 165 0
149 170 0
154 175 0
141 161 0
150 170 0
157 179 0
148 168 0
146 168 0
149 171 0
155 176 0
144 166 0
151 172 0
148 170 0
146 167 0
143 164 0
143 163 0
148 170 0
158 180 0
144 165 0
148 170 0
146 168 0
149 171 0
147 167 0
149 171 0
144 166 0
149 170 0
143 164 0
147 169 0
149 171 0
147 170 0
149 169 0
145 167 0
143 164 0
147 168 0
136 157 0
142 163 0
148 169 0
150 172 0
142 163 0
144 164 0
142 163 0
139 161 0
145 166 0
149 170 0
152 174 0
144 163 0
138 159 0
149 171 0
143 165 0
144 165 0
149 170 0
143 162 0
142 163 0
145 164 0
143 163 0
143 164 0
135 154 0
139 158 0
136 155 0
148 168 0
143 163 0
150 171 0
138 157 0
138 159 0
147 167 0
152 174 0
152 172 0
139 159 0
150 170 0
147 166 0
146 165 0
151 170 0
152 173 0
149 169 0
147 167 0
150 169 0
149 167 0
145 163 0
149 167 0
142 162 0
142 163 0
151 166 0
142 162 0
149 166 0
147 166 0
146 165 0
147 164 0
152 169 0
152 169 0
144 163 0
146 164 0
151 170 0
150 167 0
154 172 0
146 164 0
149 169 0
154 171 0
149 165 0
147 162 0
151 170 0
149 166 0
148 162 0
148 164 0
147 163 0
145 159 0
151 167 0
148 163 0
144 159 0
151 165 0
151 166 0
156 174 0
153 168 0
154 170 0
150 165 0
146 160 0
152 167 0
146 162 0
152 166 0
163 177 0
154 168 0
155 169 0
151 164 0
145 155 0
152 163 0
149 160 0
152 164 0
153 166 0
156 167 0
153 165 0
155 166 0
157 170 0
152 164 0
150 161 0
157 168 0
156 168 0
154 162 0
156 164 0
153 164 0
156 166 0
154 166 0
155 166 0
155 162 0
158 165 0
154 166 0
161 172 0
158 167 0
160 169 0
156 163 0
153 159 0
150 158 0
161 174 0
164 174 0
154 163 0
163 175 0
160 171 0
160 170 0
163 174 0
158 178 0
162 182 0
156 175 0
163 183 0
163 183 0
159 178 0
155 174 0
157 177 0
159 178 0
159 178 0
157 176 0
152 171 0
160 180 0
161 181 0
159 179 0
151 170 0
157 176 0
152 171 0
161 181 0
161 181 0
159 178 0
153 172 0
147 166 0
158 178 0
155 174 0
158 177 0
156 176 0
152 172 0
149 169 0
155 174 0
150 170 0
150 169 0
152 173 0
159 179 0
151 171 0
150 170 0
154 175 0
154 175 0
150 171 0
155 176 0
153 172 0
160 181 0
148 168 0
159 179 0
150 171 0
150 170 0
152 172 0
142 162 0
147 167 0
146 166 0
153 173 0
149 170 0
149 170 0
153 173 0
159 181 0
157 178 0
143 165 0
156 177 0
152 173 0
142 165 0
154 175 0
152 174 0
158 179 0
142 162 0
150 171 0
152 173 0
146 167 0
147 168 0
143 165 0
157 179 0
147 169 0
140 162 0
154 176 0
150 173 0
156 178 0
143 164 0
157 179 0
142 162 0
137 158 0
145 168 0
152 174 0
152 174 0
152 174 0
145 167 0
151 173 0
149 172 0
155 177 0
151 174 0
150 172 0
148 169 0
150 170 0
147 168 0
149 169 0
146 168 0
144 165 0
154 175 0
143 163 0
148 169 0
146 168 0
132 153 0
154 175 0
149 170 0
150 171 0
142 164 0
140 160 0
153 174 0
152 171 0
142 162 0
137 157 0
145 165 0
148 168 0
140 161 0
153 174 0
153 174 0
146 168 0
143 163 0
150 169 0
146 167 0
146 167 0
143 162 0
144 162 0
145 166 0
148 168 0
147 167 0
145 166 0
143 164 0
145 165 0
142 162 0
147 166 0
138 160 0
149 167 0
151 172 0
137 157 0
148 168 0
150 170 0
149 169 0
154 175 0
146 164 0
157 177 0
160 181 0
146 164 0
151 171 0
149 169 0
153 172 0
153 169 0
147 165 0
145 164 0
154 171 0
152 171 0
147 166 0
155 172 0
148 166 0
149 167 0
158 177 0
149 167 0
142 158 0
150 168 0
147 164 0
151 169 0
148 164 0
143 160 0
148 162 0
149 165 0
150 165 0
159 176 0
159 177 0
151 167 0
151 167 0
155 171 0
146 160 0
154 171 0
146 161 0
155 170 0
150 165 0
149 164 0
151 165 0
154 168 0
158 171 0
153 167 0
148 163 0
157 171 0
154 167 0
159 170 0
156 167 0
149 165 0
156 170 0
157 170 0
154 165 0
156 165 0
161 174 0
151 162 0
152 163 0
161 174 0
156 167 0
155 166 0
154 163 0
155 166 0
153 161 0
159 167 0
157 168 0
163 176 0
157 169 0
159 171 0
156 165 0
162 176 0
161 171 0
157 167 0
155 163 0
158 170 0
159 170 0
164 177 0
164 177 0
160 170 0
162 171 0
159 171 0
156 176 0
161 181 0
157 177 0
159 178 0
155 173 0
159 179 0
157 178 0
159 179 0
160 179 0
157 176 0
161 181 0
156 174 0
163 182 0
162 182 0
155 174 0
158 177 0
157 176 0
152 171 0
154 173 0
158 177 0
155 176 0
156 174 0
159 178 0
151 171 0
159 179 0
157 177 0
158 178 0
152 172 0
153 173 0
155 174 0
157 178 0
152 171 0
157 177 0
155 175 0
149 170 0
152 172 0
149 169 0
152 172 0
149 170 0
155 176 0
152 173 0
153 174 0
155 176 0
153 173 0
155 176 0
148 169 0
156 178 0
153 173 0
150 171 0
149 171 0
152 173 0
155 176 0
155 176 0
153 173 0
155 177 0
157 178 0
156 178 0
154 176 0
151 173 0
148 169 0
152 173 0
154 175 0
152 173 0
150 171 0
153 174 0
152 173 0
153 175 0
146 166 0
149 171 0
157 179 0
151 171 0
146 167 0
146 168 0
151 172 0
155 177 0
149 171 0
151 172 0
154 177 0
149 171 0
153 175 0
142 164 0
152 173 0
143 165 0
146 167 0
148 170 0
153 176 0
150 172 0
138 159 0
149 170 0
147 168 0
141 163 0
151 173 0
146 167 0
146 167 0
144 166 0
155 178 0
146 166 0
150 171 0
148 169 0
143 163 0
147 168 0
142 163 0
142 163 0
140 160 0
148 169 0
148 170 0
146 167 0
151 172 0
147 166 0
141 163 0
143 164 0
149 170 0
155 176 0
141 160 0
148 169 0
143 164 0
152 173 0
150 170 0
151 172 0
151 170 0
153 175 0
154 173 0
143 165 0
142 163 0
144 163 0
151 171 0
144 163 0
154 176 0
152 171 0
145 165 0
149 170 0
141 162 0
154 177 0
144 163 0
147 168 0
137 157 0
146 167 0
146 164 0
149 168 0
148 166 0
147 168 0
153 173 0
154 175 0
156 174 0
153 172 0
149 168 0
152 172 0
157 176 0
148 168 0
151 171 0
154 172 0
149 169 0
145 162 0
149 167 0
152 169 0
154 172 0
157 175 0
155 172 0
154 171 0
155 173 0
152 172 0
149 165 0
154 171 0
152 168 0
155 171 0
146 163 0
146 161 0
155 172 0
150 166 0
153 171 0
152 168 0
158 174 0
152 170 0
153 167 0
154 169 0
156 171 0
149 164 0
153 167 0
151 165 0
154 169 0
157 171 0
154 170 0
154 167 0
151 164 0
157 171 0
149 159 0
151 165 0
153 164 0
157 168 0
154 167 0
156 170 0
159 169 0
157 166 0
156 167 0
154 167 0
160 172 0
155 168 0
156 169 0
155 165 0
160 172 0
153 163 0
161 175 0
157 167 0
160 170 0
158 170 0
158 171 0
162 172 0
159 170 0
156 166 0
160 172 0
163 176 0
157 169 0
160 171 0
162 174 0
161 172 0
163 182 0
161 180 0
160 180 0
158 176 0
156 175 0
158 178 0
158 178 0
159 178 0
157 176 0
160 179 0
158 178 0
157 177 0
154 172 0
161 181 0
158 177 0
157 176 0
156 175 0
158 177 0
161 182 0
155 175 0
162 181 0
155 174 0
154 174 0
151 171 0
152 173 0
158 179 0
157 178 0
152 172 0
156 177 0
154 175 0
156 177 0
155 175 0
153 172 0
152 172 0
153 173 0
154 174 0
152 173 0
149 168 0
148 167 0
145 166 0
156 178 0
153 173 0
148 168 0
156 178 0
153 174 0
148 168 0
155 175 0
152 173 0
144 164 0
145 168 0
146 166 0
156 178 0
153 173 0
149 170 0
158 180 0
155 176 0
161 183 0
154 177 0
156 178 0
155 177 0
151 172 0
149 170 0
147 168 0
146 166 0
148 169 0
153 174 0
149 171 0
151 171 0
145 166 0
148 169 0
149 171 0
143 165 0
156 178 0
145 168 0
150 172 0
155 177 0
152 173 0
151 172 0
149 170 0
153 175 0
152 173 0
148 169 0
152 174 0
140 161 0
143 165 0
146 168 0
143 165 0
144 165 0
147 168 0
149 169 0
159 182 0
147 168 0
149 172 0
144 166 0
138 158 0
141 163 0
152 173 0
150 173 0
157 177 0
151 173 0
149 170 0
139 162 0
154 177 0
142 164 0
150 170 0
153 174 0
142 163 0
146 165 0
154 174 0
149 171 0
153 173 0
150 170 0
142 163 0
145 165 0
149 170 0
141 163 0
149 169 0
148 167 0
150 170 0
147 166 0
149 169 0
150 169 0
148 169 0
147 168 0
148 168 0
153 172 0
146 166 0
142 164 0
148 168 0
150 169 0
145 166 0
148 169 0
154 174 0
142 161 0
143 163 0
150 170 0
149 167 0
150 171 0
152 173 0
152 173 0
148 169 0
160 179 0
151 169 0
144 163 0
160 177 0
151 169 0
145 163 0
158 178 0
151 169 0
152 171 0
158 177 0
147 164 0
151 169 0
148 166 0
157 176 0
160 180 0
148 166 0
153 171 0
146 163 0
149 166 0
147 164 0
155 174 0
150 169 0
153 170 0
151 167 0
153 170 0
151 169 0
144 161 0
151 166 0
155 172 0
156 174 0
153 168 0
153 171 0
156 171 0
155 170 0
157 173 0
150 165 0
149 162 0
153 167 0
149 161 0
153 165 0
154 169 0
153 166 0
152 167 0
155 170 0
157 171 0
147 159 0
156 170 0
156 170 0
155 169 0
161 175 0
151 162 0
156 170 0
150 161 0
157 170 0
155 166 0
156 167 0
157 167 0
150 160 0
153 162 0
160 171 0
160 170 0
161 172 0
150 159 0
155 167 0
159 171 0
164 177 0
163 175 0
158 169 0
162 174 0
155 163 0
159 170 0
165 177 0
161 172 0
156 165 0
159 179 0
161 181 0
159 178 0
162 183 0
158 180 0
158 177 0
153 172 0
165 184 0
155 176 0
158 178 0
157 176 0
162 182 0
158 179 0
159 179 0
159 179 0
158 177 0
156 175 0
162 183 0
156 176 0
158 178 0
158 177 0
157 178 0
160 181 0
154 175 0
158 179 0
157 176 0
149 169 0
152 172 0
153 173 0
155 175 0
160 180 0
158 178 0
156 178 0
155 175 0
156 175 0
159 181 0
159 179 0
157 179 0
153 174 0
157 179 0
143 164 0
153 173 0
156 176 0
157 178 0
154 175 0
151 171 0
151 173 0
156 177 0
157 178 0
152 172 0
154 175 0
146 168 0
145 166 0
151 174 0
151 173 0
156 177 0
153 174 0
157 179 0
149 171 0
154 175 0
151 174 0
141 163 0
156 178 0
151 173 0
150 173 0
146 167 0
151 171 0
153 175 0
154 175 0
153 175 0
145 166 0
153 175 0
151 171 0
155 177 0
155 177 0
156 179 0
150 173 0
149 171 0
151 173 0
145 165 0
155 177 0
151 173 0
153 175 0
158 180 0
148 170 0
145 167 0
146 166 0
157 179 0
145 166 0
147 169 0
153 175 0
149 170 0
145 166 0
151 172 0
140 159 0
146 168 0
146 166 0
150 170 0
149 172 0
148 169 0
147 167 0
140 161 0
154 177 0
150 172 0
152 174 0
143 165 0
145 166 0
143 163 0
149 171 0
150 171 0
142 164 0
147 168 0
143 163 0
147 167 0
150 172 0
155 177 0
134 155 0
149 170 0
152 173 0
142 163 0
145 166 0
152 173 0
152 172 0
156 178 0
151 170 0
150 172 0
149 168 0
144 164 0
151 170 0
146 167 0
144 165 0
156 177 0
144 164 0
148 167 0
159 180 0
149 169 0
147 167 0
151 171 0
140 159 0
144 162 0
154 173 0
154 173 0
153 172 0
155 174 0
148 169 0
145 165 0
155 175 0
150 167 0
150 169 0
153 171 0
148 168 0
156 175 0
151 169 0
148 167 0
151 167 0
151 170 0
147 165 0
146 163 0
154 172 0
160 178 0
155 171 0
155 174 0
146 160 0
154 172 0
156 175 0
158 174 0
154 171 0
154 171 0
154 172 0
157 174 0
158 176 0
157 172 0
152 167 0
149 165 0
150 166 0
156 170 0
156 173 0
155 169 0
156 172 0
153 168 0
152 166 0
157 173 0
153 168 0
157 170 0
158 175 0
159 174 0
152 166 0
159 175 0
160 174 0
155 170 0
155 168 0
154 167 0
157 168 0
161 175 0
152 166 0
161 173 0
155 166 0
160 174 0
154 165 0
158 169 0
151 163 0
159 172 0
161 173 0
156 171 0
157 169 0
154 164 0
158 169 0
159 171 0
157 167 0
153 163 0
159 168 0
155 165 0
158 170 0
159 168 0
161 170 0
163 184 0
159 180 0
163 183 0
158 177 0
159 179 0
156 177 0
159 178 0
156 176 0
151 172 0
159 179 0
157 177 0
161 181 0
157 177 0
158 178 0
159 178 0
156 175 0
156 176 0
154 175 0
148 168 0
157 177 0
156 175 0
154 175 0
153 174 0
159 180 0
159 179 0
157 177 0
156 177 0
158 179 0
160 180 0
156 176 0
161 182 0
155 176 0
152 174 0
152 174 0
157 177 0
156 176 0
153 174 0
158 180 0
154 175 0
157 178 0
154 175 0
147 168 0
155 177 0
155 177 0
151 173 0
149 171 0
154 175 0
156 177 0
152 172 0
159 181 0
157 179 0
147 168 0
151 172 0
152 173 0
150 171 0
150 172 0
149 171 0
151 174 0
151 174 0
152 174 0
152 174 0
149 170 0
151 173 0
156 177 0
144 166 0
150 173 0
158 180 0
153 174 0
149 170 0
149 170 0
142 164 0
149 171 0
156 178 0
143 163 0
150 173 0
153 174 0
145 167 0
149 171 0
148 170 0
154 175 0
149 171 0
148 168 0
152 174 0
157 180 0
150 172 0
151 172 0
142 165 0
149 171 0
154 176 0
143 165 0
153 175 0
145 167 0
152 172 0
149 171 0
153 173 0
150 171 0
144 166 0
143 164 0
144 166 0
147 170 0
158 180 0
145 167 0
147 169 0
153 175 0
149 170 0
140 161 0
149 172 0
148 169 0
153 175 0
151 171 0
146 167 0
142 163 0
154 176 0
145 166 0
151 172 0
146 167 0
148 168 0
154 174 0
153 175 0
155 176 0
143 164 0
147 168 0
147 167 0
153 175 0
150 171 0
149 171 0
148 170 0
146 166 0
149 169 0
150 172 0
144 163 0
154 172 0
148 168 0
146 166 0
153 174 0
154 173 0
151 171 0
145 166 0
156 177 0
151 171 0
146 166 0
151 171 0
147 166 0
153 171 0
147 167 0
144 164 0
148 166 0
154 173 0
157 177 0
155 175 0
152 171 0
151 171 0
158 178 0
149 167 0
156 174 0
148 165 0
158 178 0
151 169 0
152 171 0
144 160 0
155 173 0
150 167 0
145 161 0
155 174 0
155 172 0
148 166 0
150 168 0
157 172 0
150 166 0
153 170 0
155 173 0
158 176 0
156 176 0
161 180 0
156 169 0
160 179 0
152 169 0
157 174 0
157 174 0
158 175 0
154 169 0
156 173 0
153 170 0
148 162 0
155 168 0
159 175 0
152 165 0
155 169 0
155 170 0
159 174 0
156 168 0
158 175 0
155 166 0
159 173 0
158 169 0
158 169 0
158 171 0
159 170 0
159 170 0
156 168 0
159 173 0
152 166 0
154 167 0
160 173 0
162 173 0
162 172 0
163 177 0
157 170 0
159 169 0
159 171 0
161 173 0
159 172 0
158 169 0
160 172 0
164 178 0
160 180 0
160 180 0
159 179 0
158 178 0
164 185 0
164 184 0
161 181 0
157 176 0
161 182 0
159 179 0
162 183 0
159 179 0
154 174 0
157 177 0
155 175 0
157 177 0
159 180 0
161 181 0
156 176 0
162 183 0
161 182 0
152 173 0
160 181 0
158 179 0
152 173 0
159 178 0
158 179 0
153 174 0
153 174 0
151 172 0
158 179 0
158 178 0
160 182 0
158 180 0
159 180 0
154 175 0
154 175 0
159 181 0
154 175 0
152 173 0
154 176 0
159 180 0
152 173 0
154 174 0
155 176 0
153 174 0
156 177 0
153 175 0
155 176 0
156 177 0
155 177 0
152 174 0
158 180 0
150 171 0
153 174 0
157 180 0
156 179 0
154 176 0
155 178 0
155 179 0
154 176 0
151 173 0
148 169 0
148 170 0
151 172 0
153 175 0
150 171 0
148 169 0
151 172 0
150 172 0
155 176 0
152 172 0
154 176 0
149 171 0
152 173 0
146 167 0
152 174 0
148 170 0
152 173 0
146 167 0
153 174 0
141 162 0
148 170 0
143 165 0
141 163 0
152 173 0
153 175 0
154 176 0
151 173 0
150 172 0
139 160 0
146 170 0
152 174 0
153 174 0
144 166 0
151 173 0
147 169 0
152 174 0
147 170 0
148 169 0
149 168 0
150 171 0
149 170 0
147 169 0
144 165 0
141 159 0
150 172 0
154 176 0
148 168 0
141 160 0
142 164 0
152 174 0
154 175 0
147 169 0
150 171 0
156 177 0
146 166 0
148 170 0
142 162 0
146 165 0
146 167 0
152 173 0
147 169 0
154 174 0
148 169 0
146 166 0
152 171 0
154 173 0
149 170 0
153 172 0
149 170 0
152 172 0
153 173 0
150 171 0
151 173 0
152 173 0
149 169 0
152 172 0
151 171 0
156 174 0
156 176 0
150 169 0
149 169 0
149 168 0
154 176 0
150 169 0
153 173 0
147 166 0
159 180 0
148 166 0
153 172 0
154 174 0
157 177 0
155 174 0
150 171 0
156 175 0
148 166 0
150 169 0
154 173 0
154 174 0
154 171 0
151 171 0
155 174 0
152 171 0
151 171 0
157 175 0
156 174 0
152 170 0
155 173 0
148 163 0
151 168 0
152 167 0
159 178 0
152 169 0
156 173 0
156 172 0
152 169 0
159 176 0
159 173 0
155 169 0
159 175 0
154 169 0
155 171 0
152 167 0
152 168 0
154 168 0
153 168 0
159 176 0
151 166 0
160 177 0
151 165 0
155 170 0
155 170 0
151 165 0
157 170 0
156 168 0
158 172 0
153 162 0
159 172 0
160 172 0
161 175 0
159 171 0
156 168 0
157 169 0
152 163 0
163 176 0
159 171 0
159 173 0
159 173 0
163 175 0
163 177 0
162 174 0
154 163 0
161 174 0
163 176 0
157 177 0
160 180 0
159 180 0
160 180 0
162 182 0
160 180 0
161 182 0
160 180 0
158 179 0
157 178 0
159 179 0
159 178 0
162 181 0
159 179 0
156 175 0
163 185 0
161 182 0
156 177 0
158 179 0
153 174 0
152 173 0
153 173 0
155 175 0
153 173 0
164 184 0
158 178 0
156 177 0
158 180 0
156 177 0
157 179 0
152 173 0
153 174 0
156 177 0
159 180 0
158 179 0
148 170 0
149 171 0
158 179 0
157 177 0
152 173 0
159 180 0
157 178 0
153 175 0
152 173 0
151 172 0
152 173 0
155 176 0
156 177 0
151 172 0
159 181 0
155 177 0
149 171 0
154 177 0
159 180 0
151 173 0
151 173 0
156 177 0
151 173 0
153 175 0
149 171 0
156 178 0
155 177 0
148 169 0
148 170 0
145 167 0
157 179 0
152 173 0
151 173 0
152 174 0
155 177 0
153 174 0
152 173 0
152 173 0
150 172 0
156 178 0
155 175 0
148 169 0
149 170 0
157 179 0
150 173 0
147 170 0
154 177 0
152 174 0
157 177 0
151 174 0
147 169 0
147 169 0
150 172 0
152 173 0
147 168 0
144 167 0
147 169 0
157 179 0
148 171 0
154 176 0
142 164 0
149 171 0
151 172 0
145 167 0
157 179 0
149 170 0
144 166 0
146 168 0
149 169 0
149 169 0
154 176 0
146 167 0
148 169 0
146 166 0
147 169 0
155 175 0
138 159 0
148 168 0
154 175 0
152 172 0
146 168 0
147 168 0
144 166 0
147 168 0
157 177 0
155 177 0
147 168 0
147 167 0
150 172 0
147 167 0
156 176 0
150 171 0
159 182 0
146 166 0
155 176 0
149 168 0
144 164 0
146 165 0
156 176 0
152 172 0
149 170 0
153 174 0
152 172 0
152 172 0
155 175 0
141 160 0
151 172 0
154 175 0
151 172 0
149 168 0
151 171 0
157 177 0
156 175 0
153 171 0
159 179 0
153 174 0
150 167 0
153 173 0
154 173 0
155 175 0
155 174 0
153 171 0
156 175 0
154 173 0
158 176 0
156 177 0
156 174 0
157 177 0
155 175 0
157 175 0
157 177 0
151 169 0
157 173 0
156 174 0
157 176 0
152 171 0
155 170 0
161 177 0
160 176 0
154 170 0
155 173 0
161 180 0
152 165 0
155 171 0
158 176 0
155 173 0
158 173 0
156 170 0
155 171 0
149 161 0
152 165 0
157 173 0
158 176 0
160 173 0
156 169 0
155 167 0
163 178 0
156 171 0
158 172 0
159 174 0
155 168 0
156 171 0
156 169 0
159 173 0
157 169 0
152 167 0
153 165 0
162 176 0
158 171 0
158 172 0
159 173 0
160 171 0
160 173 0
158 169 0
157 170 0
163 178 0
160 172 0
157 167 0
160 171 0
162 177 0
159 180 0
160 179 0
163 183 0
158 178 0
162 181 0
159 179 0
158 178 0
162 182 0
153 174 0
161 182 0
156 177 0
163 183 0
158 179 0
156 176 0
160 181 0
162 183 0
153 174 0
160 181 0
159 180 0
159 180 0
160 181 0
155 175 0
162 182 0
153 173 0
153 175 0
152 173 0
161 182 0
151 171 0
153 174 0
163 184 0
153 174 0
157 178 0
156 178 0
160 182 0
150 171 0
152 173 0
154 174 0
153 173 0
153 175 0
154 175 0
152 173 0
157 179 0
151 173 0
154 176 0
154 176 0
148 170 0
144 164 0
156 177 0
155 179 0
150 170 0
152 173 0
152 175 0
159 180 0
158 180 0
157 180 0
158 180 0
153 175 0
151 172 0
161 184 0
156 178 0
156 179 0
156 178 0
155 177 0
155 177 0
156 178 0
149 170 0
153 174 0
156 178 0
156 177 0
148 169 0
146 168 0
154 175 0
144 166 0
147 168 0
154 176 0
149 171 0
150 171 0
153 175 0
153 175 0
153 175 0
154 177 0
151 174 0
150 172 0
145 166 0
147 169 0
155 178 0
148 170 0
149 172 0
149 171 0
153 174 0
145 167 0
149 171 0
151 173 0
145 168 0
156 177 0
151 172 0
153 175 0
149 171 0
149 171 0
157 177 0
152 173 0
151 172 0
156 177 0
149 171 0
150 169 0
146 167 0
149 169 0
145 167 0
142 164 0
155 178 0
150 171 0
152 173 0
149 170 0
153 174 0
154 175 0
155 175 0
148 170 0
143 164 0
150 171 0
156 177 0
155 176 0
154 176 0
146 168 0
152 173 0
153 174 0
149 170 0
151 174 0
153 175 0
155 176 0
153 173 0
153 173 0
148 168 0
154 174 0
153 172 0
154 175 0
155 176 0
155 175 0
152 172 0
156 177 0
158 176 0
154 175 0
151 172 0
144 165 0
154 173 0
155 173 0
152 171 0
156 177 0
151 169 0
153 173 0
156 176 0
155 173 0
153 171 0
149 169 0
154 173 0
152 171 0
154 173 0
155 175 0
156 174 0
155 175 0
156 177 0
151 170 0
152 170 0
160 178 0
151 168 0
157 176 0
156 176 0
149 169 0
150 168 0
158 176 0
157 175 0
157 175 0
151 168 0
160 176 0
153 169 0
160 178 0
154 168 0
152 170 0
156 172 0
154 169 0
155 172 0
148 161 0
149 165 0
155 171 0
154 166 0
155 172 0
157 174 0
157 170 0
154 169 0
157 173 0
156 171 0
159 175 0
157 173 0
161 178 0
159 172 0
158 174 0
157 175 0
154 169 0
159 173 0
159 173 0
160 176 0
158 171 0
158 174 0
158 173 0
162 175 0
158 173 0
158 171 0
164 178 0
160 174 0
159 174 0
162 174 0
158 172 0
158 173 0
161 176 0
163 176 0
157 171 0
157 178 0
162 183 0
158 178 0
161 181 0
155 177 0
162 183 0
159 180 0
159 179 0
160 181 0
157 178 0
164 186 0
151 172 0
157 177 0
161 182 0
161 181 0
160 180 0
159 180 0
157 177 0
153 174 0
159 179 0
153 174 0
156 176 0
160 182 0
158 180 0
155 176 0
161 181 0
159 180 0
160 181 0
149 170 0
158 179 0
155 175 0
154 175 0
151 172 0
155 175 0
155 175 0
156 177 0
153 175 0
152 174 0
159 181 0
156 177 0
156 178 0
155 178 0
159 180 0
148 169 0
151 173 0
155 177 0
154 175 0
152 174 0
149 171 0
152 174 0
154 176 0
156 178 0
156 179 0
157 180 0
151 174 0
152 174 0
157 178 0
159 181 0
158 179 0
151 173 0
155 177 0
157 180 0
145 167 0
158 179 0
150 172 0
156 179 0
152 174 0
155 177 0
152 174 0
146 167 0
149 170 0
142 163 0
145 166 0
148 170 0
156 178 0
156 179 0
152 174 0
149 171 0
149 172 0
157 178 0
150 170 0
155 177 0
150 173 0
156 179 0
149 173 0
157 178 0
152 174 0
152 173 0
155 177 0
147 170 0
153 175 0
152 174 0
156 177 0
153 175 0
149 171 0
144 166 0
151 173 0
157 177 0
156 177 0
147 168 0
154 176 0
157 178 0
149 171 0
148 170 0
150 171 0
147 169 0
148 170 0
151 173 0
149 169 0
153 174 0
150 172 0
149 169 0
145 167 0
146 169 0
149 170 0
156 179 0
144 166 0
148 168 0
154 175 0
152 171 0
150 172 0
152 172 0
150 170 0
154 176 0
147 168 0
148 168 0
157 179 0
154 175 0
162 184 0
149 171 0
151 172 0
155 177 0
152 171 0
153 175 0
152 172 0
150 170 0
157 176 0
151 172 0
152 172 0
151 171 0
154 174 0
150 169 0
151 172 0
149 170 0
157 177 0
155 176 0
163 181 0
150 169 0
152 172 0
158 178 0
151 171 0
155 176 0
157 177 0
157 175 0
152 170 0
158 178 0
155 177 0
155 171 0
153 172 0
152 171 0
154 174 0
151 170 0
156 174 0
161 181 0
147 165 0
154 172 0
155 174 0
154 171 0
153 172 0
155 173 0
155 171 0
153 170 0
149 167 0
149 165 0
147 164 0
159 177 0
149 166 0
156 175 0
155 172 0
150 167 0
156 173 0
151 168 0
157 176 0
154 173 0
157 173 0
157 172 0
155 172 0
158 175 0
155 171 0
157 171 0
158 173 0
160 176 0
150 166 0
159 176 0
164 177 0
154 170 0
162 179 0
160 175 0
162 176 0
160 174 0
157 169 0
161 176 0
158 175 0
159 174 0
159 172 0
163 177 0
162 176 0
161 173 0
156 170 0
159 174 0
161 175 0
161 172 0
161 177 0
160 172 0
162 175 0
161 182 0
162 182 0
155 175 0
157 178 0
162 182 0
164 184 0
166 188 0
157 178 0
164 184 0
158 177 0
160 181 0
158 179 0
161 182 0
160 181 0
161 183 0
159 180 0
152 172 0
153 174 0
161 181 0
162 183 0
151 173 0
159 181 0
152 172 0
158 180 0
152 174 0
161 183 0
155 176 0
152 173 0
154 175 0
159 180 0
158 180 0
158 180 0
152 173 0
159 180 0
160 183 0
156 178 0
153 174 0
155 176 0
157 179 0
158 180 0
152 174 0
154 175 0
150 171 0
158 179 0
158 180 0
151 173 0
154 175 0
153 174 0
156 177 0
160 183 0
153 175 0
155 177 0
158 180 0
151 174 0
153 175 0
156 177 0
154 177 0
158 181 0
154 175 0
157 179 0
154 176 0
159 181 0
152 174 0
149 171 0
155 178 0
151 174 0
154 176 0
147 168 0
147 169 0
152 174 0
151 174 0
150 171 0
158 179 0
157 180 0
151 173 0
158 180 0
159 181 0
150 173 0
159 182 0
150 172 0
151 173 0
147 169 0
152 174 0
148 171 0
151 175 0
153 175 0
153 175 0
153 174 0
145 168 0
141 161 0
154 175 0
149 171 0
151 173 0
152 174 0
155 177 0
155 177 0
155 177 0
138 159 0
151 171 0
158 180 0
154 177 0
156 178 0
152 174 0
154 174 0
146 168 0
156 177 0
154 176 0
156 177 0
141 161 0
147 168 0
143 165 0
146 167 0
160 181 0
153 175 0
148 169 0
146 167 0
146 168 0
152 173 0
158 179 0
147 167 0
160 183 0
148 169 0
154 175 0
153 175 0
158 179 0
150 172 0
153 173 0
149 170 0
147 168 0
154 175 0
153 172 0
149 169 0
160 181 0
153 172 0
149 170 0
154 175 0
152 172 0
149 169 0
156 177 0
161 182 0
150 170 0
152 174 0
144 163 0
151 171 0
151 170 0
152 171 0
155 175 0
155 175 0
156 178 0
150 172 0
148 168 0
153 172 0
153 173 0
150 169 0
159 181 0
152 171 0
153 171 0
163 184 0
153 171 0
147 167 0
154 175 0
160 180 0
156 175 0
154 172 0
156 175 0
158 174 0
152 170 0
155 177 0
152 169 0
159 178 0
156 173 0
153 171 0
157 175 0
154 171 0
158 176 0
156 175 0
153 170 0
156 173 0
153 169 0
154 172 0
160 180 0
157 175 0
160 179 0
150 164 0
154 170 0
151 168 0
162 179 0
153 169 0
163 181 0
157 174 0
162 178 0
153 168 0
156 170 0
160 175 0
154 170 0
152 167 0
159 175 0
164 181 0
161 176 0
158 174 0
162 179 0
161 177 0
158 174 0
159 174 0
156 171 0
159 176 0
162 177 0
159 177 0
159 173 0
162 178 0
158 173 0
155 170 0
161 174 0
158 173 0
157 172 0
