P3
200 112
255
220 235 255
220 235 255
220 235 255
220 235 255
220 235 255
220 235 255
220 235 255
220 235 255
220 235 255
220 235 255
220 235 255
220 235 255
220 235 255
220 235 255
220 235 255
220 235 255
220 235 255
220 235 255
220 235 255
220 235 255
220 235 255
220 235 255
220 235 255
220 235 255
220 235 255
220 235 255
220 235 255
220 235 255
220 235 255
220 235 255
220 235 255
220 235 255
220 235 255
220 235 255
220 235 255
220 235 255
220 235 255
220 235 255
220 235 255
220 235 255
220 235 255
220 235 255
220 235 255
220 235 255
220 235 255
220 235 255
220 235 255
220 235 255
220 235 255
220 235 255
220 235 255
220 235 255
220 235 255
220 235 255
220 235 255
220 235 255
220 235 255
220 235 255
220 235 255
220 235 255
220 235 255
220 235 255
220 235 255
220 235 255
220 235 255
220 235 255
220 235 255
220 235 255
220 235 255
220 235 255
220 235 255
220 235 255
220 235 255
220 235 255
220 235 255
220 235 255
220 235 255
220 235 255
220 235 255
220 235 255
220 235 255
220 235 255
220 235 255
220 235 255
220 235 255
220 235 255
220 235 255
220 235 255
220 235 255
220 235 255
220 235 255
220 235 255
220 235 255
220 235 255
220 235 255
220 235 255
220 235 255
220 235 255
220 235 255
220 235 255
220 235 255
220 235 255
220 235 255
220 235 255
220 235 255
220 235 255
220 235 255
220 235 255
220 235 255
220 235 255
220 235 255
220 235 255
220 235 255
220 235 255
220 235 255
220 235 255
220 235 255
220 235 255
220 235 255
220 235 255
220 235 255
220 235 255
220 235 255
220 235 255
220 235 255
220 235 255
220 235 255
220 235 255
220 235 255
220 235 255
220 235 255
220 235 255
220 235 255
220 235 255
220 235 255
220 235 255
220 235 255
220 235 255
220 235 255
220 235 255
220 235 255
220 235 255
220 235 255
220 235 255
220 235 255
220 235 255
220 235 255
220 235 255
220 235 255
220 235 255
220 235 255
220 235 255
220 235 255
220 235 255
220 235 255
220 235 255
220 235 255
220 235 255
220 235 255
220 235 255
220 235 255
220 235 255
220 235 255
220 235 255
220 235 255
220 235 255
220 235 255
220 235 255
220 235 255
220 235 255
220 235 255
220 235 255
220 235 255
220 235 255
220 235 255
220 235 255
220 235 255
220 235 255
220 235 255
220 235 255
220 235 255
220 235 255
220 235 255
220 235 255
220 235 255
220 235 255
220 235 255
220 235 255
220 235 255
220 235 255
220 235 255
220 235 255
220 235 255
220 235 255
220 235 255
220 235 255
220 235 255
220 235 255
220 235 255
220 235 255
220 235 255
220 235 255
220 235 255
220 235 255
220 235 255
220 235 255
220 235 255
220 235 255
220 235 255
220 235 255
220 235 255
220 235 255
220 235 255
220 235 255
220 235 255
220 235 255
220 235 255
220 235 255
220 235 255
220 235 255
220 235 255
220 235 255
220 235 255
220 235 255
220 235 255
220 235 255
220 235 255
220 235 255
220 235 255
220 235 255
220 235 255
220 235 255
220 235 255
220 235 255
220 235 255
220 235 255
220 235 255
220 235 255
220 235 255
220 235 255
220 235 255
220 235 255
220 235 255
220 235 255
220 235 255
220 235 255
220 235 255
220 235 255
220 235 255
220 235 255
220 235 255
220 235 255
220 235 255
220 235 255
220 235 255
220 235 255
220 235 255
220 235 255
220 235 255
220 235 255
220 235 255
220 235 255
220 235 255
220 235 255
220 235 255
220 235 255
220 235 255
220 235 255
220 235 255
220 235 255
220 235 255
220 235 255
220 235 255
220 235 255
220 235 255
220 235 255
220 235 255
220 235 255
220 235 255
220 235 255
220 235 255
220 235 255
220 235 255
220 235 255
220 235 255
220 235 255
220 235 255
220 235 255
220 235 255
220 235 255
220 235 255
220 235 255
220 235 255
220 235 255
220 235 255
220 235 255
220 235 255
220 235 255
220 235 255
220 235 255
220 235 255
220 235 255
220 235 255
220 235 255
220 235 255
220 235 255
220 235 255
220 235 255
220 235 255
220 235 255
220 235 255
220 235 255
220 235 255
220 235 255
220 235 255
220 235 255
220 235 255
220 235 255
220 235 255
220 235 255
220 235 255
220 235 255
220 235 255
220 235 255
220 235 255
220 235 255
220 235 255
220 235 255
220 235 255
220 235 255
220 235 255
220 235 255
220 235 255
220 235 255
220 235 255
220 235 255
220 235 255
220 235 255
220 235 255
220 235 255
220 235 255
220 235 255
220 235 255
220 235 255
220 235 255
220 235 255
220 235 255
220 235 255
220 235 255
220 235 255
220 235 255
220 235 255
220 235 255
220 235 255
220 235 255
220 235 255
220 235 255
220 235 255
220 235 255
220 235 255
220 235 255
220 235 255
220 235 255
220 235 255
220 235 255
220 235 255
220 235 255
220 235 255
220 235 255
220 235 255
220 235 255
220 235 255
220 235 255
220 235 255
220 235 255
220 235 255
220 235 255
220 235 255
220 235 255
220 235 255
220 235 255
220 235 255
220 235 255
220 235 255
220 235 255
220 235 255
220 235 255
220 235 255
220 235 255
220 235 255
220 235 255
220 235 255
220 235 255
220 235 255
220 235 255
220 235 255
220 235 255
220 235 255
220 235 255
220 235 255
221 235 255
221 235 255
221 235 255
221 235 255
221 235 255
221 235 255
221 235 255
221 235 255
221 235 255
221 235 255
221 235 255
221 235 255
221 235 255
221 235 255
221 235 255
221 235 255
221 235 255
221 235 255
221 235 255
221 235 255
221 235 255
221 235 255
221 235 255
221 235 255
221 235 255
221 235 255
221 235 255
221 235 255
221 235 255
221 235 255
221 235 255
221 235 255
221 235 255
221 235 255
221 235 255
221 235 255
221 235 255
221 235 255
221 235 255
221 235 255
221 235 255
221 235 255
221 235 255
221 235 255
221 235 255
221 235 255
221 235 255
221 235 255
221 235 255
221 235 255
221 235 255
221 235 255
221 235 255
221 235 255
221 235 255
221 235 255
221 235 255
221 235 255
221 235 255
221 235 255
221 235 255
221 235 255
221 235 255
221 235 255
221 235 255
221 235 255
221 235 255
221 235 255
221 235 255
221 235 255
221 235 255
221 235 255
221 235 255
221 235 255
221 235 255
221 235 255
221 235 255
221 235 255
221 235 255
221 235 255
221 235 255
221 235 255
221 235 255
221 235 255
221 235 255
221 235 255
221 235 255
221 235 255
221 235 255
221 235 255
221 235 255
221 235 255
221 235 255
221 235 255
221 235 255
221 235 255
221 235 255
221 235 255
221 235 255
221 235 255
221 235 255
221 235 255
221 235 255
221 235 255
221 235 255
221 235 255
221 235 255
221 235 255
221 235 255
221 235 255
221 235 255
221 235 255
221 235 255
221 235 255
221 235 255
221 235 255
221 235 255
221 235 255
221 235 255
221 235 255
221 235 255
221 235 255
221 235 255
221 235 255
221 235 255
221 235 255
221 235 255
221 235 255
221 235 255
221 235 255
221 235 255
221 235 255
221 235 255
221 235 255
221 235 255
221 235 255
221 235 255
221 235 255
221 235 255
221 235 255
221 235 255
221 235 255
221 235 255
221 235 255
221 235 255
221 235 255
221 235 255
221 235 255
221 235 255
221 235 255
221 235 255
221 235 255
221 235 255
221 235 255
221 235 255
221 235 255
221 235 255
221 235 255
221 235 255
221 235 255
221 235 255
221 235 255
221 235 255
221 235 255
221 235 255
221 235 255
221 235 255
221 235 255
221 235 255
221 235 255
221 235 255
221 235 255
221 235 255
221 235 255
221 235 255
221 235 255
221 235 255
221 235 255
221 235 255
221 235 255
221 235 255
221 235 255
221 235 255
221 235 255
221 235 255
221 235 255
221 235 255
221 235 255
221 235 255
221 235 255
221 235 255
221 235 255
221 235 255
221 235 255
221 235 255
221 235 255
221 235 255
221 235 255
221 235 255
221 235 255
221 235 255
221 235 255
221 235 255
221 235 255
221 235 255
221 235 255
221 235 255
221 235 255
221 235 255
221 235 255
221 235 255
221 235 255
221 235 255
221 235 255
221 235 255
221 235 255
221 235 255
221 235 255
221 235 255
221 235 255
221 235 255
221 235 255
221 235 255
221 235 255
221 235 255
221 235 255
221 235 255
221 235 255
221 235 255
221 235 255
221 235 255
221 235 255
221 235 255
221 235 255
221 235 255
221 235 255
221 235 255
221 235 255
221 235 255
221 235 255
221 235 255
221 235 255
221 235 255
221 235 255
221 235 255
221 235 255
221 235 255
221 235 255
221 235 255
221 235 255
221 235 255
221 235 255
221 235 255
221 235 255
221 235 255
221 235 255
221 235 255
221 235 255
221 235 255
221 235 255
221 235 255
221 235 255
221 235 255
221 235 255
221 235 255
221 235 255
221 235 255
221 235 255
221 235 255
221 235 255
221 235 255
221 235 255
221 235 255
221 235 255
221 235 255
221 235 255
221 235 255
221 235 255
221 235 255
221 235 255
221 235 255
221 235 255
221 235 255
221 235 255
221 235 255
221 235 255
221 235 255
221 235 255
221 235 255
221 235 255
221 235 255
221 235 255
221 235 255
221 235 255
221 235 255
221 235 255
221 235 255
221 235 255
221 235 255
221 235 255
221 235 255
221 235 255
221 235 255
221 235 255
221 235 255
221 235 255
221 235 255
221 235 255
221 235 255
221 235 255
221 235 255
221 235 255
221 235 255
221 235 255
221 235 255
221 235 255
221 235 255
221 235 255
221 235 255
221 235 255
221 235 255
221 235 255
221 235 255
221 235 255
221 235 255
221 235 255
221 235 255
221 235 255
221 235 255
221 235 255
221 235 255
221 235 255
221 235 255
221 235 255
221 235 255
221 235 255
221 235 255
221 235 255
221 235 255
221 235 255
221 235 255
221 235 255
221 235 255
221 235 255
221 235 255
221 235 255
221 235 255
221 235 255
221 235 255
221 235 255
221 235 255
221 235 255
221 235 255
221 235 255
221 235 255
221 235 255
221 235 255
221 235 255
221 235 255
221 235 255
221 235 255
221 235 255
221 235 255
221 235 255
221 235 255
221 235 255
221 235 255
221 235 255
221 235 255
221 235 255
221 235 255
221 235 255
221 235 255
221 235 255
221 235 255
221 235 255
221 235 255
221 235 255
221 235 255
221 235 255
221 235 255
221 235 255
221 235 255
221 235 255
221 235 255
221 235 255
221 235 255
221 235 255
221 235 255
221 235 255
221 235 255
221 235 255
221 235 255
221 235 255
221 235 255
221 235 255
221 235 255
221 235 255
221 235 255
221 235 255
221 235 255
221 235 255
221 235 255
221 235 255
221 235 255
221 235 255
221 235 255
221 235 255
221 235 255
221 235 255
221 235 255
221 235 255
221 235 255
221 235 255
221 235 255
221 235 255
221 235 255
221 235 255
221 235 255
221 235 255
221 235 255
221 235 255
221 235 255
221 235 255
221 235 255
221 235 255
221 235 255
221 235 255
221 235 255
221 235 255
221 235 255
221 235 255
221 235 255
221 235 255
221 235 255
221 235 255
221 235 255
221 235 255
221 235 255
221 235 255
221 235 255
221 235 255
221 235 255
221 235 255
221 235 255
221 235 255
221 235 255
221 235 255
221 235 255
221 235 255
221 235 255
221 235 255
221 235 255
221 235 255
221 235 255
221 235 255
221 235 255
221 235 255
221 235 255
221 235 255
221 235 255
221 235 255
221 235 255
221 235 255
221 235 255
221 235 255
221 235 255
221 235 255
221 235 255
221 235 255
221 235 255
221 235 255
221 235 255
221 235 255
221 235 255
221 235 255
221 235 255
221 235 255
221 235 255
221 235 255
221 235 255
221 235 255
221 235 255
221 235 255
221 235 255
221 235 255
221 235 255
221 235 255
221 235 255
221 235 255
221 235 255
221 235 255
221 235 255
221 235 255
221 235 255
221 235 255
221 235 255
221 235 255
221 235 255
221 235 255
221 235 255
221 235 255
221 235 255
221 235 255
221 235 255
221 235 255
221 235 255
221 235 255
221 235 255
221 235 255
221 235 255
221 235 255
221 235 255
221 235 255
221 235 255
221 235 255
221 235 255
221 235 255
221 235 255
221 235 255
221 235 255
221 235 255
221 235 255
221 235 255
221 235 255
221 235 255
221 235 255
221 235 255
221 235 255
221 235 255
221 235 255
221 235 255
221 235 255
221 235 255
221 235 255
221 235 255
221 235 255
221 235 255
221 235 255
221 235 255
221 235 255
221 235 255
221 235 255
221 235 255
221 235 255
221 235 255
221 235 255
221 235 255
221 235 255
221 235 255
221 235 255
221 235 255
221 235 255
221 235 255
221 235 255
221 235 255
221 235 255
221 235 255
221 235 255
221 235 255
221 235 255
221 235 255
221 235 255
221 235 255
221 235 255
221 235 255
221 235 255
221 235 255
221 235 255
221 235 255
221 235 255
221 235 255
221 235 255
221 235 255
221 235 255
221 235 255
221 235 255
221 235 255
221 235 255
221 235 255
221 235 255
221 235 255
221 235 255
221 235 255
221 235 255
221 235 255
221 235 255
221 235 255
221 235 255
221 235 255
221 235 255
221 235 255
221 235 255
221 235 255
221 235 255
221 235 255
221 235 255
221 235 255
221 235 255
221 235 255
221 235 255
221 235 255
221 235 255
221 235 255
221 235 255
221 235 255
221 235 255
221 235 255
221 235 255
221 235 255
221 235 255
221 235 255
221 235 255
221 235 255
221 235 255
221 235 255
221 235 255
221 235 255
221 235 255
221 235 255
221 235 255
221 235 255
221 235 255
221 235 255
221 235 255
221 235 255
221 235 255
221 235 255
221 235 255
221 235 255
221 235 255
221 235 255
221 235 255
221 235 255
221 235 255
221 235 255
221 235 255
221 235 255
221 235 255
221 235 255
221 235 255
221 235 255
221 235 255
221 235 255
221 235 255
221 235 255
221 235 255
221 235 255
221 235 255
221 235 255
221 235 255
221 235 255
221 235 255
221 235 255
221 235 255
221 235 255
221 235 255
221 235 255
221 235 255
221 235 255
221 235 255
221 235 255
221 235 255
221 235 255
221 235 255
221 235 255
221 235 255
221 235 255
221 235 255
221 235 255
221 235 255
221 235 255
221 235 255
221 235 255
221 235 255
221 235 255
221 235 255
221 235 255
221 235 255
221 235 255
221 235 255
221 235 255
221 235 255
221 235 255
221 235 255
221 235 255
221 235 255
221 235 255
221 235 255
221 235 255
221 235 255
221 235 255
221 235 255
221 235 255
221 235 255
221 235 255
221 235 255
221 235 255
221 235 255
221 235 255
221 235 255
221 235 255
221 235 255
221 235 255
221 235 255
221 235 255
221 235 255
221 235 255
221 235 255
221 235 255
221 235 255
221 235 255
221 235 255
221 235 255
221 235 255
221 235 255
221 235 255
221 235 255
221 235 255
221 235 255
221 235 255
221 235 255
221 235 255
221 235 255
221 235 255
221 235 255
221 235 255
221 235 255
221 235 255
221 235 255
221 235 255
221 235 255
221 235 255
221 235 255
221 235 255
221 235 255
221 235 255
221 235 255
221 235 255
221 235 255
221 235 255
221 235 255
221 235 255
221 235 255
221 235 255
221 235 255
221 235 255
221 235 255
221 235 255
221 235 255
221 235 255
221 235 255
221 235 255
221 235 255
221 235 255
221 235 255
221 235 255
221 235 255
221 235 255
221 235 255
221 235 255
221 235 255
221 235 255
221 235 255
221 235 255
221 235 255
221 235 255
221 235 255
221 235 255
221 235 255
221 235 255
221 235 255
221 235 255
221 235 255
221 235 255
221 235 255
221 235 255
221 235 255
221 235 255
221 235 255
221 235 255
221 235 255
221 235 255
221 235 255
221 235 255
221 235 255
221 235 255
221 235 255
221 235 255
221 235 255
221 235 255
221 235 255
221 235 255
221 235 255
221 235 255
221 235 255
221 235 255
221 235 255
221 235 255
221 235 255
221 235 255
221 235 255
221 235 255
221 235 255
221 235 255
221 235 255
221 235 255
221 235 255
221 235 255
221 235 255
221 235 255
221 235 255
221 235 255
221 235 255
221 235 255
221 235 255
221 235 255
221 235 255
221 235 255
221 235 255
221 235 255
221 235 255
221 235 255
221 235 255
221 235 255
221 235 255
221 235 255
221 235 255
221 235 255
221 235 255
221 235 255
221 235 255
221 235 255
221 235 255
221 235 255
221 235 255
221 235 255
221 235 255
221 235 255
221 235 255
221 235 255
221 235 255
221 235 255
221 235 255
221 235 255
221 235 255
221 235 255
221 235 255
221 235 255
221 235 255
221 235 255
221 235 255
221 235 255
221 235 255
221 235 255
221 235 255
221 235 255
221 235 255
221 235 255
221 235 255
221 235 255
221 235 255
221 235 255
221 235 255
221 235 255
221 235 255
221 235 255
221 235 255
221 235 255
221 235 255
221 235 255
221 235 255
221 235 255
221 235 255
221 235 255
221 235 255
221 235 255
221 235 255
221 235 255
221 235 255
221 235 255
221 235 255
221 235 255
221 235 255
221 235 255
221 235 255
221 235 255
221 235 255
221 235 255
221 235 255
221 235 255
221 235 255
221 235 255
221 235 255
221 235 255
221 235 255
221 235 255
221 235 255
221 235 255
221 235 255
221 235 255
221 235 255
221 235 255
221 235 255
221 235 255
221 235 255
221 235 255
221 235 255
221 235 255
221 235 255
221 235 255
221 235 255
221 235 255
221 235 255
221 235 255
221 235 255
221 235 255
221 235 255
221 235 255
221 235 255
221 235 255
221 235 255
221 235 255
221 235 255
221 235 255
221 235 255
221 235 255
221 235 255
221 235 255
221 235 255
221 235 255
221 235 255
221 235 255
221 235 255
221 235 255
221 235 255
221 235 255
221 235 255
221 235 255
221 235 255
221 235 255
221 235 255
221 235 255
221 235 255
221 235 255
221 235 255
221 235 255
221 235 255
221 235 255
221 235 255
221 235 255
221 235 255
221 235 255
221 235 255
221 235 255
221 235 255
221 235 255
221 235 255
221 235 255
221 235 255
221 235 255
221 235 255
221 235 255
221 235 255
221 235 255
221 235 255
221 235 255
221 235 255
221 235 255
221 235 255
221 235 255
221 235 255
221 235 255
221 235 255
221 235 255
221 235 255
221 235 255
221 235 255
221 235 255
221 235 255
221 235 255
221 235 255
221 235 255
221 235 255
221 235 255
221 235 255
221 235 255
221 235 255
221 235 255
221 235 255
221 235 255
221 235 255
221 235 255
221 235 255
221 235 255
221 235 255
221 235 255
221 235 255
221 235 255
221 235 255
221 235 255
221 235 255
221 235 255
221 235 255
221 235 255
221 235 255
221 235 255
221 235 255
221 235 255
221 235 255
221 235 255
221 235 255
221 235 255
221 235 255
221 235 255
221 235 255
221 235 255
221 235 255
221 235 255
221 235 255
221 235 255
221 235 255
221 235 255
221 235 255
221 235 255
221 235 255
221 235 255
221 235 255
221 235 255
221 235 255
221 235 255
221 235 255
221 235 255
221 235 255
221 235 255
221 235 255
221 235 255
221 235 255
221 235 255
221 235 255
221 235 255
221 235 255
221 235 255
221 235 255
221 235 255
221 235 255
221 235 255
221 235 255
221 235 255
221 235 255
221 235 255
221 235 255
221 235 255
221 235 255
221 235 255
221 235 255
221 235 255
221 235 255
221 235 255
221 235 255
221 235 255
221 235 255
221 235 255
221 235 255
221 235 255
221 235 255
221 235 255
221 235 255
221 235 255
221 235 255
221 235 255
221 235 255
221 235 255
221 235 255
221 235 255
221 235 255
221 235 255
221 235 255
221 235 255
221 235 255
221 235 255
220 235 255
220 234 253
220 234 253
220 235 255
221 235 255
221 235 255
221 235 255
221 235 255
221 235 255
221 235 255
221 235 255
221 235 255
221 235 255
221 235 255
221 235 255
221 235 255
221 235 255
221 235 255
221 235 255
221 235 255
221 235 255
221 235 255
221 235 255
221 235 255
221 235 255
221 235 255
221 235 255
221 235 255
221 235 255
221 235 255
221 235 255
221 235 255
221 235 255
221 235 255
221 235 255
221 235 255
221 235 255
221 235 255
221 235 255
221 235 255
221 235 255
221 235 255
221 235 255
221 235 255
221 235 255
221 235 255
221 235 255
221 235 255
221 235 255
221 235 255
221 235 255
221 235 255
221 235 255
221 235 255
221 235 255
221 235 255
221 235 255
221 235 255
221 235 255
221 235 255
221 235 255
221 235 255
221 235 255
221 235 255
221 235 255
221 235 255
221 235 255
221 235 255
221 235 255
221 235 255
221 235 255
221 235 255
221 235 255
221 235 255
221 235 255
221 235 255
221 235 255
221 235 255
221 235 255
221 235 255
221 235 255
221 235 255
221 235 255
221 235 255
221 235 255
221 235 255
221 235 255
221 235 255
221 235 255
221 235 255
221 235 255
221 235 255
221 235 255
221 235 255
221 235 255
221 235 255
221 235 255
221 235 255
221 235 255
221 235 255
221 235 255
221 235 255
221 235 255
221 235 255
221 235 255
221 235 255
221 235 255
221 235 255
221 235 255
221 235 255
221 235 255
221 235 255
221 235 255
221 235 255
221 235 255
221 235 255
221 235 255
221 235 255
221 235 255
221 236 255
221 236 255
221 236 255
221 236 255
221 236 255
221 236 255
221 236 255
221 236 255
221 236 255
221 236 255
221 236 255
221 236 255
221 236 255
221 236 255
221 236 255
221 236 255
221 236 255
221 236 255
221 236 255
221 236 255
221 236 255
221 236 255
221 236 255
221 236 255
221 236 255
221 236 255
221 236 255
221 236 255
221 236 255
221 236 255
221 236 255
221 236 255
221 236 255
221 236 255
221 236 255
221 236 255
221 236 255
221 236 255
221 236 255
221 236 255
221 236 255
221 236 255
221 236 255
221 236 255
221 236 255
221 236 255
221 236 255
221 236 255
221 236 255
221 236 255
221 236 255
221 236 255
221 236 255
221 236 255
221 236 255
221 236 255
221 236 255
221 236 255
221 236 255
221 236 255
221 236 255
221 236 255
221 236 255
221 236 255
221 236 255
221 236 255
221 236 255
221 236 255
221 236 255
221 236 255
221 236 255
221 236 255
221 236 255
221 236 255
221 236 255
221 236 255
221 235 255
217 231 250
210 221 238
196 203 217
189 194 206
178 179 188
168 166 171
170 168 174
175 175 183
181 184 193
195 202 216
206 216 232
214 227 245
220 234 253
221 236 255
221 236 255
221 236 255
221 235 255
218 233 253
216 230 251
209 224 245
201 216 237
193 209 230
195 211 233
195 211 232
196 212 234
201 216 238
207 223 244
215 230 250
220 234 254
221 235 255
221 236 255
221 236 255
221 236 255
221 236 255
221 236 255
221 236 255
221 236 255
221 236 255
221 236 255
221 236 255
221 236 255
221 236 255
221 236 255
221 236 255
221 236 255
221 236 255
221 236 255
219 232 251
214 226 243
207 216 231
203 212 224
198 206 217
196 203 214
195 201 212
197 205 216
198 205 216
202 211 224
208 218 233
211 222 238
218 231 249
221 235 255
221 236 255
221 236 255
221 236 255
221 236 255
221 236 255
221 236 255
221 236 255
221 236 255
221 236 255
221 236 255
221 236 255
221 236 255
221 236 255
221 236 255
221 236 255
221 236 255
221 236 255
221 236 255
221 236 255
221 236 255
221 236 255
221 236 255
221 236 255
221 236 255
221 236 255
221 236 255
221 236 255
221 236 255
221 236 255
221 236 255
221 236 255
221 236 255
221 236 255
221 236 255
221 236 255
221 236 255
221 236 255
221 236 255
221 236 255
221 236 255
221 236 255
221 236 255
221 236 255
221 236 255
221 236 255
221 236 255
221 236 255
221 236 255
221 236 255
221 236 255
221 236 255
221 236 255
221 236 255
221 236 255
221 236 255
221 236 255
221 236 255
221 236 255
221 236 255
221 236 255
221 236 255
221 236 255
221 236 255
221 236 255
221 236 255
221 236 255
221 236 255
221 236 255
221 236 255
221 236 255
221 236 255
221 236 255
221 236 255
221 236 255
221 236 255
221 236 255
221 236 255
221 236 255
221 236 255
221 236 255
221 236 255
221 236 255
221 236 255
221 236 255
221 236 255
221 236 255
221 236 255
221 236 255
221 236 255
221 236 255
221 236 255
221 236 255
221 236 255
221 236 255
221 236 255
221 236 255
221 236 255
221 236 255
221 236 255
221 236 255
221 236 255
221 236 255
221 236 255
221 236 255
221 236 255
221 236 255
221 236 255
221 236 255
221 236 255
221 236 255
221 236 255
221 236 255
221 236 255
221 236 255
221 236 255
221 236 255
221 236 255
221 236 255
221 236 255
221 236 255
221 236 255
221 236 255
221 236 255
221 236 255
221 236 255
221 236 255
221 236 255
221 236 255
221 236 255
221 236 255
221 236 255
221 236 255
221 236 255
221 236 255
221 236 255
221 236 255
220 234 254
213 225 243
191 197 209
165 161 165
143 130 126
131 111 99
125 102 86
124 100 83
123 98 80
123 99 80
123 98 80
125 102 85
130 109 95
136 120 111
157 150 152
178 179 188
203 211 227
215 229 248
205 220 241
186 201 223
174 188 210
156 167 188
151 157 176
147 153 172
140 150 170
140 153 175
146 163 187
144 160 183
151 168 192
152 170 194
164 181 206
171 188 212
189 205 228
205 220 241
218 232 252
221 235 255
221 236 255
221 236 255
221 236 255
221 236 255
221 236 255
221 236 255
221 236 255
221 236 255
221 236 255
221 236 255
218 231 250
207 216 230
196 202 213
183 186 192
176 178 182
173 176 181
172 175 181
171 175 181
170 175 181
170 174 181
169 174 181
170 174 181
170 175 181
171 175 181
171 175 181
173 176 181
174 177 181
180 183 188
195 201 211
204 213 225
216 229 246
221 236 255
221 236 255
221 236 255
221 236 255
221 236 255
221 236 255
221 236 255
221 236 255
221 236 255
221 236 255
221 236 255
221 236 255
221 236 255
221 236 255
221 236 255
221 236 255
221 236 255
221 236 255
221 236 255
221 236 255
221 236 255
221 236 255
221 236 255
221 236 255
221 236 255
221 236 255
221 236 255
221 236 255
221 236 255
221 236 255
221 236 255
221 236 255
221 236 255
221 236 255
221 236 255
221 236 255
221 236 255
221 236 255
221 236 255
221 236 255
221 236 255
221 236 255
221 236 255
221 236 255
221 236 255
221 236 255
221 236 255
221 236 255
221 236 255
221 236 255
221 236 255
221 236 255
221 236 255
221 236 255
221 236 255
221 236 255
221 236 255
221 236 255
221 236 255
221 236 255
221 236 255
221 236 255
221 236 255
221 236 255
221 236 255
221 236 255
221 236 255
221 236 255
221 236 255
221 236 255
221 236 255
221 236 255
221 236 255
221 236 255
221 236 255
221 236 255
221 236 255
221 236 255
221 236 255
221 236 255
221 236 255
221 236 255
221 236 255
221 236 255
221 236 255
221 236 255
221 236 255
221 236 255
221 236 255
221 236 255
221 236 255
221 236 255
221 236 255
221 236 255
221 236 255
221 236 255
221 236 255
221 236 255
221 236 255
221 236 255
221 236 255
221 236 255
221 236 255
221 236 255
221 236 255
221 236 255
221 236 255
221 236 255
221 236 255
221 236 255
221 236 255
221 236 255
221 236 255
221 236 255
221 236 255
221 236 255
221 236 255
221 236 255
221 236 255
221 236 255
221 236 255
221 236 255
221 236 255
221 236 255
221 236 255
221 236 255
221 236 255
221 236 255
221 236 255
221 236 255
221 236 255
221 235 255
211 223 240
186 190 201
150 140 139
128 106 91
123 98 80
123 98 79
122 97 79
122 97 79
123 98 80
122 98 79
122 97 79
122 98 79
122 98 79
123 98 79
122 97 79
124 100 83
139 127 125
166 175 191
171 184 206
159 162 181
154 138 150
157 133 142
156 124 130
157 128 135
155 123 128
146 123 132
131 140 161
133 148 171
132 147 171
138 154 178
137 154 178
138 154 178
142 160 184
150 168 192
152 170 194
171 188 212
192 208 230
216 231 251
221 235 255
221 236 255
221 236 255
221 236 255
221 236 255
221 236 255
220 233 253
205 214 227
189 194 202
176 178 182
172 176 181
170 175 181
169 174 181
167 173 181
166 173 181
165 172 181
165 172 181
164 172 181
164 172 181
164 172 181
164 172 181
164 172 181
165 172 181
165 172 181
166 173 181
167 173 181
168 174 181
170 175 181
172 176 181
174 177 181
187 192 199
203 211 224
219 232 250
221 236 255
221 236 255
221 236 255
221 236 255
221 236 255
221 236 255
221 236 255
221 236 255
221 236 255
221 236 255
221 236 255
221 236 255
221 236 255
221 236 255
221 236 255
221 236 255
221 236 255
221 236 255
221 236 255
221 236 255
221 236 255
221 236 255
221 236 255
221 236 255
221 236 255
221 236 255
221 236 255
221 236 255
221 236 255
221 236 255
221 236 255
221 236 255
221 236 255
221 236 255
221 236 255
221 236 255
221 236 255
221 236 255
221 236 255
221 236 255
221 236 255
221 236 255
221 236 255
221 236 255
221 236 255
221 236 255
221 236 255
221 236 255
221 236 255
221 236 255
221 236 255
221 236 255
221 236 255
221 236 255
221 236 255
221 236 255
222 236 255
222 236 255
222 236 255
222 236 255
222 236 255
222 236 255
222 236 255
222 236 255
222 236 255
222 236 255
222 236 255
222 236 255
222 236 255
222 236 255
222 236 255
222 236 255
222 236 255
222 236 255
222 236 255
222 236 255
222 236 255
222 236 255
222 236 255
222 236 255
222 236 255
222 236 255
222 236 255
222 236 255
222 236 255
222 236 255
222 236 255
222 236 255
222 236 255
222 236 255
222 236 255
222 236 255
222 236 255
222 236 255
222 236 255
222 236 255
222 236 255
222 236 255
222 236 255
222 236 255
222 236 255
222 236 255
222 236 255
222 236 255
222 236 255
222 236 255
222 236 255
222 236 255
222 236 255
222 236 255
222 236 255
222 236 255
222 236 255
222 236 255
222 236 255
222 236 255
222 236 255
222 236 255
222 236 255
222 236 255
222 236 255
222 236 255
222 236 255
222 236 255
222 236 255
222 236 255
222 236 255
220 234 254
198 206 220
154 146 146
128 106 92
122 97 79
123 98 79
122 97 78
122 97 79
122 97 79
122 97 79
122 97 79
122 97 79
123 98 79
123 98 79
122 97 79
121 97 78
135 122 118
153 158 171
159 171 192
157 154 171
162 137 145
164 128 132
163 127 131
161 123 127
158 121 125
151 124 132
141 134 150
135 141 161
129 145 168
130 146 170
133 150 174
131 147 171
135 153 177
134 151 176
134 151 175
135 151 174
138 155 180
144 161 186
153 170 195
164 182 205
191 207 229
215 229 249
221 236 255
222 236 255
219 232 251
199 207 218
179 182 186
173 176 181
170 175 181
168 174 181
166 173 181
165 172 181
164 172 181
163 171 181
162 171 181
161 170 181
161 170 181
160 170 181
160 170 181
160 170 181
160 170 181
161 170 181
161 170 181
161 170 181
162 171 181
163 171 181
164 172 181
165 172 181
166 173 181
168 174 181
170 175 181
173 176 181
177 180 183
193 199 207
215 227 245
222 236 255
222 236 255
222 236 255
222 236 255
222 236 255
222 236 255
222 236 255
222 236 255
222 236 255
222 236 255
222 236 255
222 236 255
222 236 255
222 236 255
222 236 255
222 236 255
222 236 255
222 236 255
222 236 255
222 236 255
222 236 255
222 236 255
222 236 255
222 236 255
222 236 255
222 236 255
222 236 255
222 236 255
222 236 255
222 236 255
222 236 255
222 236 255
222 236 255
222 236 255
222 236 255
222 236 255
222 236 255
222 236 255
222 236 255
222 236 255
222 236 255
222 236 255
222 236 255
222 236 255
222 236 255
222 236 255
222 236 255
222 236 255
222 236 255
222 236 255
222 236 255
222 236 255
222 236 255
222 236 255
222 236 255
222 236 255
222 236 255
222 236 255
222 236 255
222 236 255
222 236 255
222 236 255
222 236 255
222 236 255
222 236 255
222 236 255
222 236 255
222 236 255
222 236 255
222 236 255
222 236 255
222 236 255
222 236 255
222 236 255
222 236 255
222 236 255
222 236 255
222 236 255
222 236 255
222 236 255
222 236 255
222 236 255
222 236 255
222 236 255
222 236 255
222 236 255
222 236 255
222 236 255
222 236 255
222 236 255
222 236 255
222 236 255
222 236 255
222 236 255
222 236 255
222 236 255
222 236 255
222 236 255
222 236 255
222 236 255
222 236 255
222 236 255
222 236 255
222 236 255
222 236 255
222 236 255
222 236 255
222 236 255
222 236 255
222 236 255
222 236 255
222 236 255
222 236 255
222 236 255
222 236 255
222 236 255
222 236 255
222 236 255
222 236 255
222 236 255
222 236 255
222 236 255
222 236 255
222 236 255
218 231 250
185 189 199
139 124 118
122 98 81
121 96 78
121 96 78
122 97 79
121 96 78
122 97 79
123 98 79
121 96 78
121 96 78
122 97 78
120 96 78
121 96 78
123 101 85
146 144 150
162 177 199
156 163 184
159 133 142
164 126 130
163 124 128
159 120 123
148 121 130
138 129 144
134 142 162
131 147 170
127 143 166
129 147 170
131 148 172
131 148 172
131 148 173
131 149 173
130 147 171
132 150 174
133 150 174
132 148 172
136 154 178
135 152 176
141 159 184
139 157 181
153 171 196
170 187 210
204 218 238
198 205 216
177 179 183
172 176 181
170 174 181
167 173 181
166 172 181
164 172 181
162 171 181
161 170 181
160 170 181
160 169 181
159 169 181
158 169 181
158 169 181
158 169 181
157 168 181
157 168 181
157 168 181
158 169 181
158 169 181
158 169 181
159 169 181
159 169 181
160 170 181
161 170 181
162 171 181
164 172 181
165 172 181
167 173 181
169 174 181
172 176 181
176 179 182
196 203 213
217 230 248
222 236 255
222 236 255
222 236 255
222 236 255
222 236 255
222 236 255
222 236 255
222 236 255
222 236 255
222 236 255
222 236 255
222 236 255
222 236 255
222 236 255
222 236 255
222 236 255
222 236 255
222 236 255
222 236 255
222 236 255
222 236 255
222 236 255
222 236 255
222 236 255
222 236 255
222 236 255
222 236 255
222 236 255
222 236 255
222 236 255
222 236 255
222 236 255
222 236 255
222 236 255
222 236 255
222 236 255
222 236 255
222 236 255
222 236 255
222 236 255
222 236 255
222 236 255
222 236 255
222 236 255
222 236 255
222 236 255
222 236 255
222 236 255
222 236 255
222 236 255
222 236 255
222 236 255
222 236 255
222 236 255
222 236 255
222 236 255
222 236 255
222 236 255
222 236 255
222 236 255
222 236 255
222 236 255
222 236 255
222 236 255
222 236 255
222 236 255
222 236 255
222 236 255
222 236 255
222 236 255
222 236 255
222 236 255
222 236 255
222 236 255
222 236 255
222 236 255
222 236 255
222 236 255
222 236 255
222 236 255
222 236 255
222 236 255
222 236 255
222 236 255
222 236 255
222 236 255
222 236 255
222 236 255
222 236 255
222 236 255
222 236 255
222 236 255
222 236 255
222 236 255
222 236 255
222 236 255
222 236 255
222 236 255
222 236 255
222 236 255
222 236 255
222 236 255
222 236 255
222 236 255
222 236 255
222 236 255
222 236 255
222 236 255
222 236 255
222 236 255
222 236 255
222 236 255
222 236 255
222 236 255
222 236 255
222 236 255
222 236 255
222 236 255
222 236 255
222 236 255
222 236 255
218 231 250
183 186 197
131 113 102
120 95 77
121 96 78
121 96 78
121 96 77
120 95 77
121 96 77
121 96 78
122 96 78
120 95 77
121 96 77
121 96 78
120 95 77
126 106 95
156 163 177
156 173 196
149 156 176
160 130 136
161 126 130
156 124 130
143 132 145
134 140 160
128 143 166
126 141 164
127 143 167
127 143 167
127 143 166
128 145 169
128 145 168
129 145 169
128 145 169
130 147 171
130 148 172
127 144 166
128 146 169
131 149 173
129 145 169
131 148 171
134 151 177
136 154 178
140 158 182
159 168 183
176 178 182
173 176 181
170 175 181
167 173 181
165 172 181
164 172 181
162 171 181
161 170 181
160 170 181
159 169 181
158 169 181
157 168 181
157 168 181
156 168 181
156 168 181
155 168 181
155 167 181
155 167 181
155 167 181
155 168 181
156 168 181
156 168 181
157 168 181
157 168 181
158 169 181
159 169 181
160 170 181
161 170 181
162 171 181
164 171 181
165 172 181
167 173 181
170 175 181
173 176 181
178 180 184
202 210 222
221 234 254
222 236 255
222 236 255
222 236 255
222 236 255
222 236 255
222 236 255
222 236 255
222 236 255
222 236 255
222 236 255
222 236 255
222 236 255
222 236 255
222 236 255
222 236 255
222 236 255
222 236 255
222 236 255
222 236 255
222 236 255
222 236 255
222 236 255
222 236 255
222 236 255
222 236 255
222 236 255
222 236 255
222 236 255
222 236 255
222 236 255
222 236 255
222 236 255
222 236 255
222 236 255
222 236 255
222 236 255
222 236 255
222 236 255
222 236 255
222 236 255
222 236 255
222 236 255
222 236 255
222 236 255
222 236 255
222 236 255
222 236 255
222 236 255
222 236 255
222 236 255
222 236 255
222 236 255
222 236 255
222 236 255
222 236 255
222 236 255
222 236 255
222 236 255
222 236 255
222 236 255
222 236 255
222 236 255
222 236 255
222 236 255
222 236 255
222 236 255
222 236 255
222 236 255
222 236 255
222 236 255
222 236 255
222 236 255
222 236 255
222 236 255
222 236 255
222 236 255
222 236 255
222 236 255
222 236 255
222 236 255
222 236 255
222 236 255
222 236 255
222 236 255
222 236 255
222 236 255
222 236 255
222 236 255
222 236 255
222 236 255
222 236 255
222 236 255
222 236 255
222 236 255
222 236 255
222 236 255
222 236 255
222 236 255
222 236 255
222 236 255
222 236 255
222 236 255
222 236 255
222 236 255
222 236 255
222 236 255
222 236 255
222 236 255
222 236 255
222 236 255
222 236 255
222 236 255
222 236 255
222 236 255
222 236 255
222 236 255
222 236 255
222 236 255
219 233 252
179 181 190
129 109 97
121 96 77
121 96 78
119 94 76
121 96 77
121 96 78
119 94 77
121 96 77
119 94 76
120 95 77
119 94 76
120 95 77
119 94 76
130 114 107
160 171 188
154 171 195
139 156 177
133 139 156
134 125 135
129 135 153
125 140 160
125 141 163
125 140 163
122 138 161
123 138 160
123 138 160
123 137 160
126 143 166
125 140 163
125 141 164
124 139 162
128 144 167
128 144 167
128 144 166
128 144 167
127 143 166
128 145 168
129 146 171
129 146 170
131 147 171
135 150 172
168 172 180
175 177 181
171 175 181
168 174 181
166 173 181
164 172 181
163 171 181
161 170 181
160 170 181
159 169 181
158 169 181
157 168 181
156 168 181
155 168 181
155 167 181
154 167 181
154 167 181
154 167 181
154 167 181
154 167 181
154 167 181
154 167 181
154 167 181
154 167 181
155 167 181
155 168 181
156 168 181
157 168 181
158 169 181
159 169 181
160 170 181
161 170 181
163 171 181
164 172 181
166 173 181
168 174 181
171 175 181
174 177 181
188 192 198
216 228 245
222 236 255
222 236 255
222 236 255
222 236 255
222 236 255
222 236 255
222 236 255
222 236 255
222 236 255
222 236 255
222 236 255
222 236 255
222 236 255
222 236 255
222 236 255
222 236 255
222 236 255
222 236 255
222 236 255
222 236 255
222 236 255
222 236 255
222 236 255
222 236 255
222 236 255
222 236 255
222 236 255
222 236 255
222 236 255
222 236 255
222 236 255
222 236 255
222 236 255
222 236 255
222 236 255
222 236 255
222 236 255
222 236 255
222 236 255
222 236 255
222 236 255
222 236 255
222 236 255
222 236 255
222 236 255
222 236 255
222 236 255
222 236 255
222 236 255
222 236 255
222 236 255
222 236 255
222 236 255
222 236 255
222 236 255
222 236 255
222 236 255
222 236 255
222 236 255
222 236 255
222 236 255
222 236 255
222 236 255
222 236 255
222 236 255
222 236 255
222 236 255
222 236 255
222 236 255
222 236 255
222 236 255
222 236 255
222 236 255
222 236 255
222 236 255
222 236 255
222 236 255
222 236 255
222 236 255
222 236 255
222 236 255
222 236 255
222 236 255
222 236 255
222 236 255
222 236 255
222 236 255
222 236 255
222 236 255
222 236 255
222 236 255
222 236 255
222 236 255
222 236 255
222 236 255
222 236 255
222 236 255
222 236 255
222 236 255
222 236 255
222 236 255
222 236 255
222 236 255
222 236 255
222 236 255
222 236 255
222 236 255
222 236 255
222 236 255
222 236 255
222 236 255
222 236 255
222 236 255
222 236 255
222 236 255
222 236 255
221 234 254
191 197 209
129 111 101
120 95 77
120 95 76
120 95 76
120 95 76
119 94 76
119 94 76
119 94 76
119 95 77
119 94 76
119 95 76
119 94 76
118 94 76
127 112 105
159 171 189
152 169 192
136 153 173
118 132 144
105 117 125
109 123 140
119 136 158
117 132 154
117 131 152
114 126 148
110 119 139
109 119 139
109 118 138
115 125 146
120 133 155
117 130 151
122 136 157
126 141 164
121 136 158
123 138 161
126 142 164
127 142 165
125 141 164
127 143 165
128 144 167
127 144 167
142 152 168
174 175 179
173 176 181
170 175 181
168 173 181
165 172 181
164 171 181
162 171 181
160 170 181
159 169 181
158 169 181
157 168 181
156 168 181
155 167 181
155 167 181
154 167 181
154 167 181
153 166 181
153 166 181
153 166 181
152 166 181
152 166 181
152 166 181
153 166 181
153 166 181
153 166 181
154 167 181
154 167 181
155 167 181
155 167 181
156 168 181
157 168 181
158 169 181
159 169 181
160 170 181
162 171 181
164 171 181
165 172 181
168 173 181
170 175 181
173 176 181
179 181 184
208 217 230
222 236 255
222 236 255
222 236 255
222 236 255
222 236 255
222 236 255
222 236 255
222 236 255
222 236 255
222 236 255
222 236 255
222 236 255
222 236 255
222 236 255
222 236 255
222 236 255
222 236 255
222 236 255
222 236 255
222 236 255
222 236 255
222 236 255
222 236 255
222 236 255
222 236 255
222 236 255
222 236 255
222 236 255
222 236 255
222 236 255
222 236 255
222 236 255
222 236 255
222 236 255
222 236 255
222 236 255
222 236 255
222 236 255
222 236 255
222 236 255
222 236 255
222 236 255
222 236 255
222 236 255
222 236 255
222 236 255
222 236 255
222 236 255
222 236 255
222 236 255
222 236 255
222 236 255
222 236 255
222 236 255
222 236 255
222 236 255
222 236 255
222 236 255
222 236 255
222 236 255
222 236 255
222 236 255
222 236 255
222 236 255
222 236 255
222 236 255
222 236 255
222 236 255
222 236 255
222 236 255
222 236 255
222 236 255
222 236 255
222 236 255
222 236 255
222 236 255
222 236 255
222 236 255
222 236 255
222 236 255
222 236 255
222 236 255
222 236 255
222 236 255
222 236 255
222 236 255
222 236 255
222 236 255
222 236 255
222 236 255
222 236 255
222 236 255
222 236 255
222 236 255
222 236 255
222 236 255
222 236 255
222 236 255
222 236 255
222 236 255
222 236 255
222 236 255
222 236 255
222 236 255
222 236 255
222 236 255
222 236 255
222 236 255
222 236 255
222 236 255
222 236 255
222 236 255
222 236 255
222 236 255
222 236 255
206 216 232
140 126 121
119 94 76
119 94 76
120 94 76
118 94 76
120 95 76
117 93 75
117 93 75
117 93 75
117 93 75
119 94 76
117 93 74
120 94 76
123 103 92
157 168 186
153 171 195
138 155 175
118 131 139
112 125 129
111 126 132
112 129 150
110 124 146
103 114 135
91 91 110
90 81 101
96 84 105
95 88 106
105 112 131
111 122 141
116 130 151
119 133 154
121 134 154
124 139 161
125 140 162
124 140 162
125 139 161
123 138 159
124 140 162
122 137 157
123 138 159
152 159 171
176 178 180
173 176 181
170 174 181
167 173 181
165 172 181
163 171 181
162 171 181
160 170 181
159 169 181
158 169 181
157 168 181
156 168 181
155 167 181
154 167 181
154 167 181
153 166 181
153 166 181
152 166 181
152 166 181
152 166 181
152 166 181
152 166 181
152 166 181
152 166 181
152 166 181
152 166 181
153 166 181
153 166 181
154 167 181
154 167 181
155 167 181
156 168 181
157 168 181
158 169 181
159 169 181
160 170 181
162 171 181
163 171 181
165 172 181
167 173 181
170 174 181
173 176 181
177 178 181
200 207 217
222 236 255
222 236 255
222 236 255
222 236 255
222 236 255
222 236 255
222 236 255
222 236 255
222 236 255
222 236 255
222 236 255
222 236 255
222 236 255
222 236 255
222 236 255
222 236 255
222 236 255
222 236 255
222 236 255
222 236 255
222 236 255
222 236 255
222 236 255
222 236 255
222 236 255
222 236 255
222 236 255
222 236 255
222 236 255
222 236 255
222 236 255
222 236 255
222 236 255
222 236 255
222 236 255
222 236 255
222 236 255
222 236 255
222 236 255
222 236 255
222 236 255
222 236 255
222 236 255
222 236 255
222 236 255
222 236 255
222 236 255
222 236 255
222 236 255
222 236 255
222 236 255
222 236 255
222 236 255
222 236 255
222 236 255
222 236 255
222 236 255
222 236 255
222 236 255
222 236 255
222 236 255
222 236 255
222 236 255
222 236 255
222 236 255
222 236 255
222 236 255
222 236 255
222 236 255
222 236 255
222 236 255
222 236 255
222 236 255
222 236 255
222 236 255
222 236 255
222 236 255
222 236 255
222 236 255
222 236 255
222 236 255
222 236 255
222 236 255
222 236 255
222 236 255
222 236 255
222 236 255
222 236 255
222 236 255
222 236 255
222 236 255
222 236 255
222 236 255
222 236 255
222 236 255
222 236 255
222 236 255
222 236 255
222 236 255
222 236 255
222 236 255
222 236 255
222 236 255
222 236 255
222 236 255
222 236 255
222 236 255
222 236 255
222 236 255
222 236 255
222 236 255
222 236 255
222 236 255
218 231 249
166 163 169
120 96 79
117 92 74
119 93 75
119 94 75
119 94 76
116 92 74
117 93 75
118 93 75
119 94 76
116 92 74
117 93 75
115 91 73
119 97 84
155 162 177
158 177 200
143 161 183
130 145 150
143 146 146
124 131 133
97 109 126
102 116 139
94 103 123
94 76 99
107 76 104
109 64 96
109 65 96
106 68 97
110 108 128
121 135 156
120 134 155
121 136 157
121 136 157
121 135 155
121 136 156
122 137 158
118 132 151
120 134 154
121 135 155
121 135 156
152 157 165
176 178 180
173 176 181
170 175 181
167 173 181
165 172 181
163 171 181
162 171 181
160 170 181
159 169 181
158 169 181
157 168 181
156 168 181
155 167 181
154 167 181
154 167 181
153 166 181
153 166 181
152 166 181
152 166 181
152 166 181
151 166 181
151 166 181
151 166 181
151 166 181
151 166 181
152 166 181
152 166 181
152 166 181
153 166 181
153 166 181
154 167 181
154 167 181
155 167 181
156 168 181
157 168 181
158 169 181
159 169 181
160 170 181
162 171 181
163 171 181
165 172 181
167 173 181
170 174 181
172 176 181
176 178 181
198 205 214
221 235 253
222 236 255
222 236 255
222 236 255
222 236 255
222 236 255
222 236 255
222 236 255
222 236 255
222 236 255
222 236 255
222 236 255
222 236 255
222 236 255
222 236 255
222 236 255
222 236 255
222 236 255
222 236 255
222 236 255
222 236 255
222 236 255
222 236 255
222 236 255
222 236 255
222 236 255
222 236 255
222 236 255
222 236 255
222 236 255
222 236 255
222 236 255
222 236 255
222 236 255
222 236 255
222 236 255
222 236 255
222 236 255
222 236 255
222 236 255
222 236 255
222 236 255
222 236 255
222 236 255
222 236 255
222 236 255
222 236 255
222 236 255
222 236 255
222 236 255
222 236 255
222 236 255
222 236 255
222 236 255
222 236 255
222 236 255
222 236 255
222 236 255
222 236 255
222 236 255
222 236 255
222 236 255
222 236 255
222 236 255
222 236 255
222 236 255
222 236 255
222 236 255
222 236 255
222 236 255
222 236 255
222 236 255
222 236 255
222 236 255
222 236 255
222 236 255
222 236 255
222 236 255
222 236 255
222 236 255
222 236 255
222 236 255
222 236 255
222 236 255
222 236 255
222 236 255
222 236 255
222 236 255
222 236 255
222 236 255
222 236 255
222 236 255
222 236 255
222 236 255
222 236 255
222 236 255
222 236 255
222 236 255
222 236 255
222 236 255
222 236 255
222 236 255
222 236 255
222 236 255
222 236 255
222 236 255
222 236 255
222 236 255
222 236 255
222 236 255
222 236 255
222 236 255
201 210 225
128 110 101
117 93 75
116 91 73
117 92 74
115 91 73
118 93 74
116 91 73
115 91 74
117 93 75
117 92 74
116 92 74
116 91 73
116 92 74
147 145 153
154 172 194
144 163 186
141 157 167
168 186 186
160 173 171
85 93 116
83 100 126
99 108 132
101 76 102
113 71 103
117 72 105
118 71 105
113 66 99
110 64 96
113 112 134
121 135 156
122 138 159
118 132 152
122 138 158
121 137 157
118 133 151
117 131 150
117 130 149
114 126 144
113 126 143
149 153 161
176 178 180
173 176 181
170 175 181
168 173 181
165 172 181
164 172 181
162 171 181
161 170 181
159 169 181
158 169 181
157 168 181
156 168 181
155 167 181
155 167 181
154 167 181
153 166 181
153 166 181
152 166 181
152 166 181
152 166 181
151 166 181
151 165 181
151 165 181
151 165 181
151 165 181
151 165 181
151 166 181
152 166 181
152 166 181
152 166 181
153 166 181
153 166 181
154 167 181
155 167 181
155 167 181
156 168 181
157 168 181
158 169 181
159 169 181
161 170 181
162 171 181
164 172 181
165 172 181
167 173 181
170 175 181
173 176 181
176 178 181
195 200 208
221 235 254
222 236 255
222 236 255
222 236 255
222 236 255
222 236 255
222 236 255
222 236 255
222 236 255
222 236 255
222 236 255
222 236 255
222 236 255
222 236 255
222 236 255
222 236 255
222 236 255
222 236 255
222 236 255
222 236 255
222 236 255
222 236 255
222 236 255
222 236 255
222 236 255
222 236 255
222 236 255
222 236 255
222 236 255
222 236 255
222 236 255
222 236 255
222 236 255
222 236 255
222 236 255
222 236 255
222 236 255
222 236 255
222 236 255
222 236 255
222 236 255
222 236 255
222 236 255
222 236 255
222 236 255
222 236 255
222 236 255
222 236 255
222 236 255
222 236 255
222 236 255
222 236 255
222 236 255
222 236 255
222 236 255
222 236 255
222 236 255
222 236 255
222 236 255
222 236 255
222 236 255
222 236 255
222 236 255
222 236 255
222 236 255
222 236 255
222 236 255
222 236 255
222 236 255
222 236 255
222 236 255
222 236 255
222 236 255
222 236 255
222 236 255
222 236 255
222 236 255
222 236 255
222 236 255
222 236 255
222 236 255
222 236 255
222 236 255
222 236 255
222 236 255
222 236 255
222 236 255
222 236 255
222 236 255
222 236 255
222 236 255
222 236 255
222 236 255
222 236 255
222 236 255
222 236 255
222 236 255
222 236 255
222 236 255
222 236 255
222 236 255
222 236 255
222 236 255
222 236 255
222 236 255
222 236 255
222 236 255
222 236 255
222 236 255
222 236 255
218 230 249
166 163 168
116 91 73
116 91 74
117 92 74
115 91 73
115 91 73
116 91 74
116 92 74
115 91 73
115 90 73
114 90 72
116 91 74
117 92 74
129 116 113
161 177 198
147 165 188
144 161 177
168 188 189
165 186 188
118 135 154
52 105 162
97 120 152
107 91 117
118 76 109
123 76 111
124 74 110
120 71 106
117 68 103
111 82 109
122 136 157
120 135 155
119 135 155
119 135 155
118 132 151
114 129 146
112 126 143
112 127 143
108 122 138
109 123 139
145 149 155
177 178 180
173 176 181
171 175 181
168 174 181
166 173 181
164 172 181
163 171 181
161 170 181
160 170 181
159 169 181
158 169 181
157 168 181
156 168 181
155 167 181
154 167 181
154 167 181
153 166 181
153 166 181
152 166 181
152 166 181
152 166 181
151 166 181
151 165 181
151 165 181
151 165 181
151 165 181
151 166 181
151 166 181
152 166 181
152 166 181
152 166 181
153 166 181
153 166 181
154 167 181
154 167 181
155 167 181
156 168 181
157 168 181
158 169 181
159 169 181
160 170 181
161 170 181
163 171 181
164 172 181
166 173 181
168 174 181
170 175 181
173 176 181
177 178 181
198 204 214
222 236 255
222 236 255
222 236 255
222 236 255
222 236 255
222 236 255
222 236 255
222 236 255
222 236 255
222 236 255
222 236 255
222 236 255
222 236 255
222 236 255
222 236 255
222 236 255
222 236 255
222 236 255
222 236 255
222 236 255
222 236 255
222 236 255
222 236 255
222 236 255
222 236 255
222 236 255
222 236 255
222 236 255
222 236 255
222 236 255
222 236 255
222 236 255
222 236 255
222 236 255
222 236 255
222 236 255
222 236 255
222 236 255
222 236 255
222 236 255
222 236 255
222 236 255
222 236 255
222 236 255
223 236 255
223 236 255
223 236 255
223 236 255
223 236 255
223 236 255
223 236 255
223 236 255
223 236 255
223 236 255
223 236 255
223 236 255
223 236 255
223 236 255
223 236 255
223 236 255
223 236 255
223 236 255
223 236 255
223 236 255
223 236 255
223 236 255
223 236 255
223 236 255
223 236 255
223 236 255
223 236 255
223 236 255
223 236 255
223 236 255
223 236 255
223 236 255
223 236 255
223 236 255
223 236 255
223 236 255
223 236 255
223 236 255
223 236 255
223 236 255
223 236 255
223 236 255
223 236 255
223 236 255
223 236 255
223 236 255
223 236 255
223 236 255
223 236 255
223 236 255
223 236 255
223 236 255
223 236 255
223 236 255
223 236 255
223 236 255
223 236 255
223 236 255
223 236 255
223 236 255
223 236 255
223 236 255
223 236 255
223 236 255
223 236 255
207 217 233
134 120 115
116 91 73
114 90 72
115 90 73
113 89 72
113 89 72
114 90 73
116 91 73
114 90 72
113 89 72
115 91 73
112 88 71
115 93 79
153 160 174
148 166 189
142 160 183
159 178 183
166 191 196
140 167 186
64 118 176
59 109 166
119 131 160
117 72 108
127 77 114
127 78 115
126 73 109
120 69 103
114 82 109
122 132 154
116 130 148
119 134 155
114 129 147
114 128 147
110 125 142
104 119 134
99 114 127
80 96 99
77 93 95
122 126 130
176 177 179
174 177 181
171 175 181
169 174 181
167 173 181
165 172 181
164 171 181
162 171 181
161 170 181
160 170 181
158 169 181
157 169 181
157 168 181
156 168 181
155 167 181
154 167 181
154 167 181
153 166 181
153 166 181
152 166 181
152 166 181
152 166 181
152 166 181
151 166 181
151 166 181
151 166 181
151 166 181
151 166 181
152 166 181
152 166 181
152 166 181
152 166 181
153 166 181
153 167 181
154 167 181
154 167 181
155 167 181
156 168 181
157 168 181
158 169 181
159 169 181
160 170 181
161 170 181
162 171 181
164 171 181
165 172 181
167 173 181
169 174 181
171 175 181
174 177 181
178 179 181
202 209 219
223 236 255
223 236 255
223 236 255
223 236 255
223 236 255
223 236 255
223 236 255
223 236 255
223 236 255
223 236 255
223 236 255
223 236 255
223 236 255
223 236 255
223 236 255
223 236 255
223 236 255
223 236 255
223 236 255
223 236 255
223 236 255
223 236 255
223 236 255
223 236 255
223 236 255
223 236 255
223 236 255
223 236 255
223 236 255
223 236 255
223 236 255
223 236 255
223 236 255
223 236 255
223 236 255
223 236 255
223 236 255
223 236 255
223 236 255
223 236 255
223 236 255
223 236 255
223 236 255
223 236 255
223 236 255
223 236 255
223 236 255
223 236 255
223 236 255
223 236 255
223 236 255
223 236 255
223 236 255
223 236 255
223 236 255
223 236 255
223 236 255
223 236 255
223 236 255
223 236 255
223 236 255
223 236 255
223 236 255
223 236 255
223 236 255
223 236 255
223 236 255
223 236 255
223 236 255
223 236 255
223 236 255
223 236 255
223 236 255
223 236 255
223 236 255
223 236 255
223 236 255
223 236 255
223 236 255
223 236 255
223 236 255
223 236 255
223 236 255
223 236 255
223 236 255
223 236 255
223 236 255
223 236 255
223 236 255
223 236 255
223 236 255
223 236 255
223 236 255
223 236 255
223 236 255
223 236 255
223 236 255
223 236 255
223 236 255
223 236 255
223 236 255
223 236 255
223 236 255
223 236 255
223 236 255
223 236 255
223 236 255
223 236 255
186 191 202
118 97 83
114 90 72
115 90 73
116 91 73
114 90 73
115 90 72
113 89 71
115 90 73
114 90 72
114 90 72
115 91 73
113 90 72
136 129 130
161 177 199
146 163 186
141 158 181
168 187 188
137 168 191
58 125 194
56 120 190
95 126 169
126 132 158
129 76 116
130 75 115
130 81 118
123 73 107
119 107 130
119 133 154
116 133 154
110 125 145
110 123 143
100 111 128
99 109 126
99 110 127
96 107 122
79 102 89
69 99 64
90 106 86
175 175 176
175 177 181
172 176 181
170 175 181
168 174 181
166 173 181
164 172 181
163 171 181
162 171 181
161 170 181
159 169 181
158 169 181
158 169 181
157 168 181
156 168 181
155 167 181
155 167 181
154 167 181
154 167 181
153 166 181
153 166 181
152 166 181
152 166 181
152 166 181
152 166 181
152 166 181
152 166 181
152 166 181
152 166 181
152 166 181
152 166 181
152 166 181
153 166 181
153 166 181
154 167 181
154 167 181
155 167 181
155 167 181
156 168 181
157 168 181
158 169 181
158 169 181
159 169 181
161 170 181
162 171 181
163 171 181
165 172 181
166 173 181
168 174 181
170 175 181
172 176 181
175 177 181
179 180 181
211 221 235
223 236 255
223 236 255
223 236 255
223 236 255
223 236 255
223 236 255
223 236 255
223 236 255
223 236 255
223 236 255
223 236 255
223 236 255
223 236 255
223 236 255
223 236 255
223 236 255
223 236 255
223 236 255
223 236 255
223 236 255
223 236 255
223 236 255
223 236 255
223 236 255
223 236 255
223 236 255
223 236 255
223 236 255
223 236 255
223 236 255
223 236 255
223 236 255
223 236 255
223 236 255
223 236 255
223 236 255
223 236 255
223 236 255
223 236 255
223 236 255
223 236 255
223 236 255
223 236 255
223 236 255
223 236 255
223 236 255
223 236 255
223 236 255
223 236 255
223 236 255
223 236 255
223 236 255
223 236 255
223 236 255
223 236 255
223 236 255
223 236 255
223 236 255
223 236 255
223 236 255
223 236 255
223 236 255
223 236 255
223 236 255
223 236 255
223 236 255
223 236 255
223 236 255
223 236 255
223 236 255
223 236 255
223 236 255
223 236 255
223 236 255
223 236 255
223 236 255
223 236 255
223 236 255
223 236 255
223 236 255
223 236 255
223 236 255
223 236 255
223 236 255
223 236 255
223 236 255
223 236 255
223 236 255
223 236 255
223 236 255
223 236 255
223 236 255
223 236 255
223 236 255
223 236 255
223 236 255
223 236 255
223 236 255
223 236 255
223 236 255
223 236 255
223 236 255
223 236 255
223 236 255
223 236 255
223 236 255
221 234 252
164 162 167
113 89 71
112 88 70
113 88 71
112 88 71
111 88 70
114 89 71
112 88 71
112 89 71
112 88 70
109 86 69
113 89 71
113 91 77
152 159 173
150 166 188
141 158 181
141 159 183
121 146 180
56 130 206
56 129 206
72 122 183
128 147 173
131 147 170
130 114 143
129 96 128
127 115 141
123 134 155
119 139 158
118 137 158
103 120 140
85 98 120
65 75 96
68 73 88
79 84 98
87 94 109
85 100 100
71 105 59
76 108 62
163 165 163
176 178 181
174 176 181
171 175 181
169 174 181
167 173 181
166 172 181
164 172 181
163 171 181
162 171 181
161 170 181
160 170 181
159 169 181
158 169 181
157 168 181
156 168 181
156 168 181
155 167 181
154 167 181
154 167 181
154 167 181
153 167 181
153 166 181
153 166 181
153 166 181
152 166 181
152 166 181
152 166 181
152 166 181
152 166 181
153 166 181
153 166 181
153 166 181
153 167 181
154 167 181
154 167 181
155 167 181
155 167 181
156 168 181
156 168 181
157 168 181
158 169 181
159 169 181
160 170 181
161 170 181
162 171 181
163 171 181
164 172 181
166 172 181
167 173 181
169 174 181
171 175 181
173 176 181
176 178 181
185 186 188
218 230 247
223 236 255
223 236 255
223 236 255
223 236 255
223 236 255
223 236 255
223 236 255
223 236 255
223 236 255
223 236 255
223 236 255
223 236 255
223 236 255
223 236 255
223 236 255
223 236 255
223 236 255
223 236 255
223 236 255
223 236 255
223 236 255
223 236 255
223 236 255
223 236 255
223 236 255
223 236 255
223 236 255
223 236 255
223 236 255
223 236 255
223 236 255
223 236 255
223 236 255
223 236 255
223 236 255
223 236 255
223 236 255
223 236 255
223 236 255
223 236 255
223 236 255
223 236 255
223 236 255
223 236 255
223 236 255
223 236 255
223 236 255
223 236 255
223 236 255
223 236 255
223 236 255
223 236 255
223 236 255
223 236 255
223 236 255
223 236 255
223 236 255
223 236 255
223 236 255
223 236 255
223 236 255
223 236 255
223 236 255
223 236 255
223 236 255
223 236 255
223 236 255
223 236 255
223 236 255
223 236 255
223 236 255
223 236 255
223 236 255
223 236 255
223 236 255
223 236 255
223 236 255
223 236 255
223 236 255
223 236 255
223 236 255
223 236 255
223 236 255
223 236 255
223 236 255
223 236 255
223 236 255
223 236 255
223 236 255
223 236 255
222 236 255
223 236 255
223 236 255
223 236 255
223 236 255
223 236 255
223 236 255
223 236 255
222 236 255
222 236 255
222 236 255
222 236 255
223 236 255
222 236 255
222 236 255
213 224 241
144 135 134
114 89 71
112 88 70
112 88 71
113 88 71
112 88 70
113 88 71
112 88 71
112 88 71
112 88 70
114 89 71
112 88 71
124 111 107
151 162 178
140 154 175
138 156 178
135 153 176
111 146 192
49 131 213
68 131 204
126 148 178
132 149 173
133 150 173
131 148 171
129 146 169
128 147 169
128 150 170
123 143 164
120 140 161
69 90 123
45 61 108
45 61 104
46 54 88
85 92 112
99 105 123
79 96 83
75 113 57
140 147 137
178 179 181
175 177 181
172 176 181
170 175 181
169 174 181
167 173 181
165 172 181
164 172 181
163 171 181
162 171 181
161 170 181
160 170 181
159 169 181
158 169 181
157 168 181
157 168 181
156 168 181
156 168 181
155 167 181
155 167 181
154 167 181
154 167 181
154 167 181
154 167 181
153 167 181
153 166 181
153 166 181
153 166 181
153 166 181
153 166 181
153 167 181
154 167 181
154 167 181
154 167 181
154 167 181
155 167 181
155 167 181
156 168 181
156 168 181
157 168 181
157 169 181
158 169 181
159 169 181
160 170 181
161 170 181
162 171 181
163 171 181
164 172 181
165 172 181
167 173 181
168 174 181
170 175 181
172 176 181
175 177 181
178 179 181
195 199 206
223 236 255
223 236 255
223 236 255
223 236 255
223 236 255
223 236 255
223 236 255
223 236 255
223 236 255
223 236 255
223 236 255
223 236 255
223 236 255
223 236 255
223 236 255
223 236 255
223 236 255
223 236 255
223 236 255
223 236 255
223 236 255
223 236 255
223 236 255
223 236 255
223 236 255
223 236 255
223 236 255
223 236 255
223 236 255
223 236 255
223 236 255
223 236 255
223 236 255
223 236 255
223 236 255
223 236 255
223 236 255
223 236 255
223 236 255
223 236 255
223 236 255
221 235 254
220 234 253
221 234 253
220 234 253
221 235 254
221 234 253
220 233 253
221 234 254
220 234 253
220 234 253
218 232 251
219 232 252
218 232 251
219 233 252
220 234 253
219 233 252
217 231 250
217 230 250
218 232 251
219 233 252
218 231 251
216 230 249
215 229 248
219 232 252
217 230 249
213 227 247
212 226 246
216 230 249
215 229 248
216 230 249
211 225 245
213 227 247
213 227 247
213 226 246
212 226 246
212 226 245
211 225 245
213 227 247
211 225 245
210 224 244
210 224 244
209 223 242
210 224 243
211 225 245
207 221 241
207 221 241
208 222 242
208 222 241
209 223 243
209 223 242
208 222 242
210 224 243
208 222 242
208 222 242
206 220 240
207 221 240
208 222 242
206 221 240
205 219 239
205 219 239
205 219 239
203 218 238
205 219 239
201 216 236
192 203 220
129 114 109
112 87 70
109 85 68
110 86 69
111 87 70
111 86 69
113 88 70
109 85 69
112 87 70
111 87 70
111 87 70
109 85 68
143 143 150
147 154 167
142 159 181
138 155 177
137 155 177
126 150 181
97 140 197
126 147 179
133 148 172
129 146 170
134 151 174
130 147 170
129 146 170
128 146 169
128 146 169
125 145 166
92 111 147
50 72 126
52 72 126
54 71 118
52 64 100
58 67 92
106 105 123
78 64 66
103 120 94
177 177 178
176 178 181
174 177 181
172 176 181
170 175 181
168 174 181
167 173 181
165 172 181
164 172 181
163 171 181
162 171 181
161 170 181
160 170 181
160 169 181
159 169 181
158 169 181
157 169 181
157 168 181
156 168 181
156 168 181
156 168 181
155 167 181
155 167 181
155 167 181
154 167 181
154 167 181
154 167 181
154 167 181
154 167 181
154 167 181
154 167 181
154 167 181
154 167 181
155 167 181
155 167 181
155 167 181
156 168 181
156 168 181
156 168 181
157 168 181
158 169 181
158 169 181
159 169 181
160 169 181
160 170 181
161 170 181
162 171 181
163 171 181
164 172 181
165 172 181
167 173 181
168 174 181
170 175 181
172 175 181
174 177 181
176 178 181
180 180 181
203 212 225
211 225 245
211 225 244
213 226 246
208 222 241
211 225 245
213 227 247
212 226 246
214 228 247
215 229 248
214 227 247
212 226 245
213 227 246
214 228 247
216 230 249
215 229 248
215 229 248
214 228 248
218 231 250
216 230 250
217 231 250
218 231 250
214 228 247
217 230 250
218 232 251
218 232 251
218 232 251
220 234 253
220 233 252
220 234 253
218 232 251
218 232 251
221 234 253
220 233 253
221 234 253
221 234 254
220 234 253
222 235 254
221 235 254
221 235 254
222 236 255
198 212 232
201 215 235
198 213 233
196 211 231
201 215 235
198 213 233
196 210 230
198 212 232
193 208 228
195 209 229
194 209 229
195 210 230
193 207 228
190 205 226
190 205 225
189 204 225
191 206 226
188 203 224
188 203 223
188 203 224
189 204 224
184 199 220
186 201 222
185 200 220
186 201 222
183 198 219
181 196 217
180 196 217
183 198 219
185 200 220
183 198 219
181 196 217
182 197 218
177 193 214
176 192 213
179 195 216
178 194 215
178 193 214
179 195 216
179 195 216
176 192 213
176 191 213
175 191 212
176 192 213
176 191 213
174 189 211
173 189 211
177 193 214
174 190 211
171 187 209
171 187 208
173 189 210
172 188 209
173 189 210
172 188 210
175 190 212
173 189 210
168 185 206
169 185 207
170 186 207
172 188 210
171 187 208
166 182 204
171 187 208
158 168 185
118 103 96
110 85 69
109 84 68
111 87 70
109 85 69
110 86 69
108 84 68
110 86 69
108 84 68
107 84 68
109 85 69
110 89 75
153 157 167
150 158 173
133 148 169
118 131 149
130 149 169
128 146 165
122 133 153
124 137 158
128 142 165
132 148 172
135 152 176
131 148 170
129 146 168
126 143 165
120 137 159
112 127 146
68 88 141
49 71 134
39 61 121
49 67 118
42 58 100
65 73 97
91 65 80
84 49 62
155 153 154
178 179 181
175 177 181
173 176 181
171 175 181
170 175 181
168 174 181
167 173 181
166 173 181
165 172 181
164 171 181
163 171 181
162 171 181
161 170 181
160 170 181
160 169 181
159 169 181
158 169 181
158 169 181
157 168 181
157 168 181
156 168 181
156 168 181
156 168 181
156 168 181
155 168 181
155 167 181
155 167 181
155 167 181
155 167 181
155 167 181
155 167 181
155 167 181
155 168 181
156 168 181
156 168 181
156 168 181
157 168 181
157 168 181
157 168 181
158 169 181
158 169 181
159 169 181
160 169 181
160 170 181
161 170 181
162 171 181
163 171 181
164 171 181
165 172 181
166 173 181
167 173 181
168 174 181
170 174 181
171 175 181
173 176 181
175 177 181
178 179 181
182 183 186
181 196 216
173 189 210
179 194 216
179 195 216
179 194 215
181 196 217
181 196 217
183 198 219
178 193 214
184 199 220
185 200 221
186 201 222
182 198 219
187 202 223
183 198 219
182 197 218
186 201 221
185 200 221
186 201 222
189 204 224
187 202 223
184 199 220
188 203 224
191 206 226
188 203 223
190 205 226
192 207 227
192 206 227
194 209 229
195 210 230
194 209 229
191 206 226
197 212 232
193 207 228
197 211 231
197 211 231
197 212 232
197 212 232
201 215 235
199 213 233
163 180 202
162 179 201
162 179 201
163 179 201
158 175 197
160 177 199
157 174 196
158 175 198
155 172 195
157 174 196
155 173 195
156 173 196
153 170 193
156 172 195
155 172 195
155 172 195
154 171 194
152 169 192
152 169 192
151 168 192
151 169 192
153 170 193
151 169 192
149 167 190
151 168 191
147 165 188
148 166 189
147 164 188
148 166 189
148 165 189
147 164 188
147 165 188
145 163 187
145 163 187
145 163 186
144 162 185
144 162 186
146 163 187
144 162 186
145 163 186
143 161 185
143 161 185
145 163 187
143 162 186
143 161 184
143 161 185
144 162 186
141 160 184
141 159 183
142 160 184
142 159 183
141 159 183
142 160 184
142 160 184
141 159 183
141 159 183
142 160 184
141 159 183
139 158 182
141 159 182
140 159 183
140 158 182
139 158 182
141 159 183
132 143 160
114 95 84
110 86 69
110 86 69
107 83 66
110 86 69
107 84 67
108 84 67
109 85 68
107 84 67
107 84 68
107 83 67
117 106 96
153 157 164
143 153 167
132 144 167
129 144 166
127 146 164
119 131 150
110 104 126
127 140 162
129 146 166
126 144 163
124 142 161
124 144 163
128 148 169
127 145 166
126 143 165
80 91 105
58 75 123
52 76 142
53 74 133
54 72 123
52 66 107
91 101 125
105 62 80
126 105 114
180 180 180
177 178 181
175 177 181
173 176 181
171 175 181
170 175 181
168 174 181
167 173 181
166 173 181
165 172 181
164 172 181
163 171 181
162 171 181
162 171 181
161 170 181
160 170 181
160 170 181
159 169 181
159 169 181
158 169 181
158 169 181
158 169 181
157 168 181
157 168 181
157 168 181
157 168 181
156 168 181
156 168 181
156 168 181
156 168 181
156 168 181
156 168 181
156 168 181
157 168 181
157 168 181
157 168 181
157 168 181
158 169 181
158 169 181
158 169 181
159 169 181
159 169 181
160 170 181
160 170 181
161 170 181
162 171 181
162 171 181
163 171 181
164 172 181
165 172 181
166 173 181
167 173 181
168 174 181
170 175 181
171 175 181
173 176 181
175 177 181
177 178 181
180 180 181
164 171 183
143 161 185
144 162 186
144 162 186
143 161 185
145 163 186
145 163 187
147 164 187
147 165 188
147 164 188
145 163 187
146 164 188
149 166 190
148 165 188
147 164 188
150 167 190
150 167 190
148 165 189
151 169 192
149 167 190
151 168 191
151 168 191
152 170 193
152 169 192
150 167 190
152 169 191
152 169 192
154 171 194
154 171 193
154 171 194
158 175 198
156 173 196
159 176 198
159 176 198
159 176 198
160 177 199
159 176 198
159 176 199
160 177 200
161 177 200
138 157 181
139 158 182
138 157 181
138 157 181
138 156 181
138 157 181
138 156 181
138 157 181
137 156 181
138 157 181
138 156 181
138 156 181
137 156 180
137 156 181
138 156 181
138 156 181
138 156 181
138 156 181
138 156 181
137 156 181
138 156 181
138 156 181
138 156 181
138 156 181
138 156 181
138 156 181
137 156 181
138 156 181
137 156 181
138 156 181
138 156 181
138 156 181
137 156 181
138 156 181
137 156 181
138 156 181
138 156 181
138 156 181
138 156 181
137 156 181
137 156 180
138 156 181
138 156 181
138 156 181
138 156 181
138 157 181
138 157 181
138 156 181
138 156 181
138 157 181
138 156 180
137 156 181
138 156 181
138 156 181
138 156 181
138 156 181
138 156 181
138 156 181
138 156 181
138 156 181
137 156 181
138 157 181
138 157 181
138 156 181
130 141 159
110 90 79
109 85 68
107 84 67
107 83 67
107 83 67
105 82 66
109 85 68
105 83 66
106 83 67
106 83 67
107 83 67
127 125 121
146 156 166
138 149 151
164 175 204
141 159 176
104 136 123
127 128 147
126 115 141
128 143 164
127 148 166
98 129 123
85 119 110
121 142 158
132 150 172
132 150 172
111 127 145
54 63 75
56 65 81
57 76 131
59 79 136
79 97 142
110 126 156
129 146 170
117 96 118
163 159 161
179 179 181
177 178 181
175 177 181
173 176 181
171 175 181
170 175 181
169 174 181
168 174 181
167 173 181
166 173 181
165 172 181
164 172 181
163 171 181
163 171 181
162 171 181
161 170 181
161 170 181
160 170 181
160 170 181
159 169 181
159 169 181
159 169 181
158 169 181
158 169 181
158 169 181
158 169 181
158 169 181
158 169 181
158 169 181
158 169 181
158 169 181
158 169 181
158 169 181
158 169 181
158 169 181
158 169 181
158 169 181
159 169 181
159 169 181
159 169 181
160 170 181
160 170 181
161 170 181
161 170 181
162 171 181
163 171 181
163 171 181
164 172 181
165 172 181
166 173 181
167 173 181
168 174 181
169 174 181
170 175 181
171 175 181
173 176 181
175 177 181
176 178 181
179 179 181
179 179 180
141 158 181
138 156 181
138 156 181
137 156 181
137 156 181
138 156 180
138 156 181
138 156 180
137 154 178
137 154 177
138 156 180
138 156 181
139 157 181
138 156 181
138 156 181
138 156 181
138 156 181
138 157 181
138 156 181
137 156 181
138 157 181
138 156 180
138 156 181
139 157 181
138 157 181
138 156 181
137 156 181
138 156 181
137 156 181
138 157 181
138 157 181
138 156 181
138 157 181
138 157 181
139 156 179
139 156 179
138 157 181
139 157 181
138 157 181
138 156 181
138 156 181
138 157 181
138 156 181
137 156 181
138 156 181
138 156 181
137 156 181
137 156 181
138 156 181
138 156 181
137 156 181
138 156 181
137 156 181
138 156 181
138 156 181
138 156 181
138 156 181
137 156 181
138 156 181
138 156 181
138 156 181
138 156 180
138 156 181
138 156 181
138 156 181
138 156 181
138 156 181
138 157 181
138 156 180
138 156 181
138 156 180
138 156 181
137 156 181
138 156 181
138 156 181
138 156 181
137 156 181
138 156 181
138 156 181
138 156 181
137 156 181
138 156 181
137 156 181
137 156 181
138 156 181
138 156 181
138 156 181
138 156 181
138 156 181
138 156 181
138 157 181
137 156 181
138 156 181
137 156 181
138 156 181
138 157 181
137 156 181
138 157 181
138 157 181
138 156 181
138 156 181
138 156 181
138 156 181
132 144 164
109 92 84
107 83 67
107 84 67
105 82 66
107 83 66
104 81 65
105 82 66
103 80 65
107 83 67
106 83 67
105 82 66
135 139 143
142 158 164
147 157 151
169 183 217
131 155 158
114 161 125
170 163 193
171 159 193
135 152 173
128 153 166
86 150 108
86 145 108
121 140 150
115 134 136
124 142 157
104 119 134
56 66 78
48 57 69
53 62 73
88 106 107
123 141 159
128 147 168
129 146 170
113 121 141
181 180 180
178 179 181
176 178 181
175 177 181
173 176 181
172 176 181
171 175 181
169 174 181
168 174 181
167 173 181
167 173 181
166 173 181
165 172 181
164 172 181
164 171 181
163 171 181
162 171 181
162 171 181
161 170 181
161 170 181
161 170 181
160 170 181
160 170 181
160 170 181
159 169 181
159 169 181
159 169 181
159 169 181
159 169 181
159 169 181
159 169 181
159 169 181
159 169 181
159 169 181
159 169 181
159 169 181
159 169 181
160 170 181
160 170 181
160 170 181
161 170 181
161 170 181
161 170 181
162 171 181
162 171 181
163 171 181
164 171 181
164 172 181
165 172 181
166 173 181
166 173 181
167 173 181
168 174 181
169 174 181
170 175 181
172 175 181
173 176 181
175 177 181
176 178 181
178 179 181
181 180 181
161 169 180
138 156 181
138 156 180
136 152 177
126 141 165
119 134 158
130 146 169
134 138 159
136 120 134
136 118 131
137 136 155
137 152 176
137 156 181
137 156 181
138 156 181
138 156 181
138 156 181
139 157 181
140 158 183
140 159 183
139 158 182
138 157 181
139 157 181
140 158 182
141 160 184
139 158 183
139 157 181
138 156 181
138 157 181
138 156 181
138 156 181
137 156 181
138 156 178
138 151 167
140 144 148
140 146 152
139 149 160
137 154 176
138 156 181
138 156 180
138 156 181
138 156 180
138 156 180
138 156 180
137 156 181
138 156 181
138 156 181
138 157 181
138 156 181
138 156 181
138 156 180
138 156 181
138 156 181
137 156 180
138 156 181
137 156 180
139 157 181
138 156 181
138 156 181
138 156 180
137 156 181
137 156 181
138 156 181
138 156 181
138 156 181
137 156 181
138 156 181
138 156 181
138 156 181
138 156 181
138 156 181
137 156 181
138 156 181
138 156 181
138 157 181
138 156 181
138 156 180
138 156 181
138 156 181
138 156 181
138 157 181
138 156 181
138 156 181
138 156 181
138 156 181
138 156 181
138 156 181
137 156 181
137 156 180
137 156 181
138 156 181
138 156 180
138 156 181
137 156 181
138 156 180
138 156 180
138 156 181
138 156 180
135 152 179
132 149 178
133 150 178
137 155 180
138 156 181
134 148 169
108 94 89
104 81 65
104 81 64
106 82 66
105 82 65
105 82 66
101 79 64
103 80 65
104 81 65
103 80 65
103 81 65
144 148 158
149 164 160
144 151 156
122 126 150
129 154 132
124 172 144
138 152 181
147 155 183
125 140 160
107 140 140
92 165 115
95 157 114
116 143 91
116 144 74
132 151 158
129 147 169
71 84 98
60 71 83
73 95 82
94 126 86
120 143 148
126 145 167
100 120 141
152 154 159
180 180 181
178 179 181
176 178 181
175 177 181
173 176 181
172 176 181
171 175 181
170 175 181
169 174 181
168 174 181
167 173 181
167 173 181
166 173 181
165 172 181
165 172 181
164 172 181
164 171 181
163 171 181
163 171 181
162 171 181
162 171 181
162 171 181
161 170 181
161 170 181
161 170 181
161 170 181
161 170 181
160 170 181
160 170 181
160 170 181
160 170 181
160 170 181
160 170 181
160 170 181
161 170 181
161 170 181
161 170 181
161 170 181
161 170 181
162 171 181
162 171 181
162 171 181
163 171 181
163 171 181
164 171 181
164 172 181
165 172 181
165 172 181
166 173 181
167 173 181
167 173 181
168 174 181
169 174 181
170 175 181
171 175 181
172 176 181
173 176 181
175 177 181
176 178 181
178 179 181
180 180 181
178 178 180
137 151 175
133 136 161
126 111 138
111 92 120
92 84 109
94 98 119
114 90 102
128 59 46
130 57 39
130 87 89
135 134 151
137 155 179
137 156 181
138 156 180
137 154 179
140 158 183
139 157 181
141 160 187
137 157 187
140 158 186
140 158 183
141 159 183
142 160 184
140 158 183
142 160 185
143 161 185
141 160 184
137 156 181
137 156 180
137 156 181
138 156 180
138 152 174
137 145 160
134 139 151
133 135 141
137 137 139
137 146 159
138 156 180
138 156 180
138 156 181
138 156 181
137 156 181
138 156 181
138 156 181
136 157 179
135 157 176
136 157 178
138 156 180
138 156 181
138 156 181
138 156 180
138 156 181
138 156 181
138 156 180
138 157 181
138 156 181
138 156 180
137 156 177
136 156 172
136 156 173
138 156 178
138 157 181
138 156 181
137 156 181
138 156 181
138 156 181
137 156 180
137 156 180
136 156 179
134 155 179
134 155 178
137 156 180
138 156 181
137 156 180
137 156 181
138 156 181
137 156 180
138 156 181
138 156 180
138 157 181
138 156 180
137 155 179
138 155 179
137 156 181
139 157 181
140 157 184
145 158 191
146 158 196
145 158 192
140 157 183
138 156 180
138 156 181
138 156 181
138 156 181
137 156 181
137 155 180
131 147 176
110 121 165
99 107 160
104 113 162
121 135 171
137 155 180
135 152 174
114 104 105
104 80 64
101 79 63
103 81 65
104 80 65
101 79 63
102 79 64
101 79 64
101 78 63
102 79 64
101 79 65
143 149 161
151 157 164
152 140 160
130 149 156
136 136 114
107 126 131
94 146 163
89 113 123
103 118 126
102 113 133
90 146 113
103 125 97
141 170 83
139 173 85
131 151 149
130 147 171
132 149 172
134 158 160
108 149 95
107 146 94
119 150 137
105 135 143
88 115 136
179 178 178
180 180 181
178 179 181
177 178 181
175 177 181
174 177 181
173 176 181
172 176 181
171 175 181
170 175 181
169 174 181
168 174 181
168 174 181
167 173 181
166 173 181
166 173 181
165 172 181
165 172 181
164 172 181
164 172 181
164 172 181
163 171 181
163 171 181
163 171 181
163 171 181
162 171 181
162 171 181
162 171 181
162 171 181
162 171 181
162 171 181
162 171 181
162 171 181
162 171 181
162 171 181
162 171 181
162 171 181
162 171 181
162 171 181
163 171 181
163 171 181
163 171 181
164 171 181
164 172 181
164 172 181
165 172 181
165 172 181
166 173 181
166 173 181
167 173 181
168 173 181
168 174 181
169 174 181
170 175 181
171 175 181
172 175 181
173 176 181
174 177 181
175 177 181
176 178 181
178 179 181
180 180 181
183 181 181
143 131 153
121 80 111
118 52 91
113 42 84
101 49 84
76 64 89
86 63 77
112 48 37
118 43 13
122 56 44
131 118 131
137 152 175
135 149 176
130 131 167
126 116 161
129 124 165
132 142 178
122 144 195
112 142 208
116 142 205
123 145 193
141 158 183
148 165 188
146 164 188
146 164 188
147 164 189
144 162 185
138 157 181
138 156 180
138 156 181
137 155 180
123 145 167
96 134 148
82 133 144
95 137 155
117 134 147
131 138 147
137 154 176
138 156 181
138 156 181
138 156 181
138 156 180
137 156 180
130 158 168
110 163 137
100 165 122
108 164 135
127 158 164
137 156 179
137 156 180
138 156 181
139 156 182
139 156 183
138 156 181
138 156 180
139 157 181
134 155 168
126 152 137
121 151 103
122 151 115
130 154 148
136 156 174
138 156 181
136 154 181
138 156 181
138 156 181
139 156 184
135 155 180
118 150 169
110 148 164
109 148 164
121 151 170
135 155 178
138 157 180
134 159 174
131 160 169
133 159 173
137 157 179
138 156 181
134 151 175
124 136 157
119 126 144
124 136 156
129 143 164
140 156 182
154 163 204
161 167 218
160 165 224
160 163 221
154 161 204
141 157 184
137 156 181
138 156 180
137 156 181
138 156 180
133 151 177
107 117 161
79 80 147
70 76 144
67 93 148
88 113 154
117 137 162
115 128 141
103 94 89
101 78 63
100 78 62
101 79 63
106 82 66
101 78 63
102 79 64
102 79 63
100 78 63
100 78 63
99 79 67
139 147 168
150 158 184
156 162 190
143 156 173
125 133 137
101 122 141
150 172 188
91 122 138
98 111 113
93 112 120
78 89 95
117 89 94
132 138 106
131 148 83
119 131 153
90 115 162
125 143 165
142 161 177
126 158 141
110 143 115
104 150 136
85 157 121
132 148 156
182 181 181
180 180 181
178 179 181
177 178 181
176 178 181
175 177 181
173 176 181
173 176 181
172 176 181
171 175 181
170 175 181
169 174 181
169 174 181
168 174 181
168 173 181
167 173 181
167 173 181
166 173 181
166 173 181
165 172 181
165 172 181
165 172 181
165 172 181
164 172 181
164 172 181
164 172 181
164 171 181
163 171 181
163 171 181
163 171 181
163 171 181
163 171 181
163 171 181
163 171 181
163 171 181
164 171 181
164 172 181
164 172 181
164 172 181
164 172 181
164 172 181
165 172 181
165 172 181
165 172 181
166 173 181
166 173 181
167 173 181
167 173 181
168 173 181
168 174 181
169 174 181
169 174 181
170 175 181
171 175 181
172 175 181
172 176 181
173 176 181
174 177 181
176 177 181
177 178 181
178 179 181
180 180 181
182 181 181
156 146 156
116 77 108
125 106 133
123 105 132
113 80 109
87 65 90
73 60 76
95 46 43
108 48 33
116 59 52
127 117 131
135 149 174
123 117 158
111 68 137
108 44 132
109 52 133
117 111 165
116 153 204
121 175 221
119 171 221
119 159 212
156 176 213
187 204 227
185 202 225
189 205 229
181 197 220
159 176 197
137 155 176
138 156 178
138 156 180
127 150 172
88 131 140
37 117 108
15 116 101
26 116 105
71 121 122
114 134 150
134 140 168
138 156 180
138 156 180
137 156 180
134 151 173
125 138 152
106 132 118
77 143 61
61 157 37
60 163 50
91 156 99
124 145 145
131 143 155
135 146 166
143 156 191
145 157 196
144 157 190
139 155 181
136 155 176
125 150 136
112 144 69
107 141 35
108 143 36
110 141 75
118 138 153
114 122 191
111 118 192
123 134 188
145 151 199
155 155 212
151 154 212
131 148 192
102 140 159
86 135 145
94 137 149
118 149 165
122 162 155
104 171 121
93 175 100
104 170 122
122 162 154
132 153 171
118 128 145
98 96 106
95 88 96
98 92 101
110 112 127
147 159 186
175 190 228
179 198 239
178 196 240
175 183 233
164 164 214
144 156 188
138 156 180
138 156 181
138 156 180
138 156 180
130 146 175
91 98 148
63 84 137
49 127 148
37 147 153
46 150 155
75 141 144
77 103 94
84 77 59
98 77 61
101 79 63
99 77 61
99 78 62
102 80 64
97 76 61
96 75 60
100 77 62
97 76 61
104 85 75
175 185 202
194 209 231
182 201 220
161 176 201
139 151 162
137 168 193
133 134 173
116 149 174
114 98 137
107 150 124
99 141 104
85 94 145
98 77 100
121 134 140
124 150 178
91 126 189
139 161 159
148 166 177
129 144 167
77 89 94
122 157 159
91 168 129
162 166 161
182 181 181
180 180 181
179 179 181
177 178 181
176 178 181
175 177 181
174 177 181
173 176 181
173 176 181
172 176 181
171 175 181
171 175 181
170 175 181
169 174 181
169 174 181
168 174 181
168 174 181
168 173 181
167 173 181
167 173 181
167 173 181
166 173 181
166 173 181
166 173 181
166 172 181
165 172 181
165 172 181
165 172 181
165 172 181
165 172 181
165 172 181
165 172 181
165 172 181
165 172 181
165 172 181
165 172 181
165 172 181
165 172 181
165 172 181
166 173 181
166 173 181
166 173 181
166 173 181
167 173 181
167 173 181
167 173 181
168 174 181
168 174 181
169 174 181
169 174 181
170 175 181
170 175 181
171 175 181
172 176 181
173 176 181
173 176 181
174 177 181
175 177 181
176 178 181
177 178 181
179 179 181
180 180 181
182 181 181
172 171 172
125 139 165
131 148 172
128 146 170
121 132 155
95 97 117
91 90 105
110 110 124
128 143 163
132 142 162
135 149 171
131 142 171
110 82 137
99 31 120
99 30 120
103 57 127
125 146 175
142 199 217
143 208 226
143 208 225
140 197 220
161 193 223
195 215 242
203 223 250
202 221 247
187 203 219
152 165 165
133 144 135
135 147 145
135 152 166
120 144 163
64 116 116
19 106 93
6 107 92
6 106 92
28 118 119
76 139 168
89 142 183
138 156 181
138 156 180
135 151 174
115 123 132
96 93 80
90 88 61
86 91 56
74 112 45
69 135 40
93 131 64
109 114 80
113 113 85
117 119 108
131 137 160
146 156 200
151 159 202
144 155 186
132 151 163
111 137 102
100 132 31
102 134 32
102 133 33
96 119 100
82 80 177
74 53 200
71 47 199
79 61 198
129 116 215
162 150 236
167 155 239
167 155 232
134 142 188
86 128 139
80 125 133
94 141 134
93 162 106
82 163 80
81 167 76
77 170 68
90 166 98
113 145 140
95 97 106
87 80 84
87 79 84
90 79 93
94 83 115
129 131 168
166 181 220
180 201 239
189 212 247
188 205 238
160 165 203
133 145 175
137 155 180
138 157 181
137 156 180
138 156 181
130 147 174
93 107 147
47 119 138
20 159 153
12 163 154
12 164 155
24 157 147
54 120 109
98 117 125
105 98 100
101 78 63
98 77 61
101 79 63
98 77 61
98 76 61
99 77 62
95 74 60
93 73 59
96 76 63
168 176 192
204 218 238
210 225 243
215 229 248
213 227 247
211 224 242
210 224 244
208 221 241
197 203 223
195 211 227
191 209 221
188 203 222
178 182 198
182 198 217
184 199 219
177 193 215
184 202 213
176 192 211
170 183 209
162 174 198
168 184 205
149 167 180
181 180 177
182 181 181
180 180 181
179 179 181
178 179 181
177 178 181
176 178 181
175 177 181
175 177 181
174 177 181
173 176 181
172 176 181
172 176 181
171 175 181
171 175 181
170 175 181
170 175 181
169 174 181
169 174 181
169 174 181
168 174 181
168 174 181
168 174 181
168 173 181
167 173 181
167 173 181
167 173 181
167 173 181
167 173 181
167 173 181
167 173 181
166 173 181
167 173 181
167 173 181
167 173 181
167 173 181
167 173 181
167 173 181
167 173 181
167 173 181
167 173 181
167 173 181
168 174 181
168 174 181
168 174 181
169 174 181
169 174 181
169 174 181
170 175 181
170 175 181
171 175 181
171 175 181
172 175 181
172 176 181
173 176 181
174 176 181
174 177 181
175 177 181
176 178 181
177 178 181
178 179 181
179 179 181
180 180 181
182 181 181
184 181 180
137 151 170
122 140 164
119 137 161
114 133 157
104 128 152
126 153 175
144 182 211
147 193 227
149 194 227
150 190 219
133 151 180
101 69 126
89 27 107
91 27 110
100 80 128
129 171 184
139 197 205
142 197 208
140 194 205
140 193 203
142 178 197
160 182 209
172 193 220
168 187 205
144 155 143
128 133 93
127 130 85
128 131 94
143 145 153
154 151 200
142 140 195
123 129 172
75 110 122
21 106 106
6 128 153
17 147 188
11 148 190
137 156 180
136 155 180
117 134 163
80 94 131
71 83 124
76 80 102
81 75 62
77 72 49
89 95 57
104 107 69
106 112 77
107 118 82
107 118 82
113 122 110
135 140 169
139 143 183
138 145 178
128 145 161
107 132 102
94 123 33
94 120 34
96 114 54
89 84 129
76 41 173
67 37 186
66 38 188
64 37 187
95 77 195
155 138 224
168 152 227
173 159 228
156 154 199
116 136 154
84 122 129
83 124 113
96 124 112
102 113 121
101 115 119
92 133 102
80 153 80
92 141 106
84 87 92
75 71 72
77 69 80
83 64 109
84 56 127
89 63 137
101 87 150
133 134 181
170 185 216
169 191 215
144 159 184
128 141 169
137 155 179
137 155 180
138 156 180
138 156 180
134 153 177
110 134 159
49 144 144
12 154 145
11 152 143
11 154 145
13 154 144
65 147 147
128 167 194
123 136 156
100 79 65
98 77 61
97 76 60
98 76 61
96 75 60
97 75 60
97 76 61
93 73 59
94 74 61
164 170 185
204 217 237
212 227 247
214 228 248
215 229 250
217 232 252
217 230 250
219 233 253
218 233 252
218 232 252
218 231 251
217 230 251
218 232 251
218 232 251
217 231 251
217 232 251
217 231 251
217 230 250
218 232 251
216 230 250
217 231 250
192 201 212
184 182 181
182 181 181
181 180 181
180 180 181
179 179 181
178 179 181
177 178 181
176 178 181
176 177 181
175 177 181
174 177 181
174 177 181
173 176 181
173 176 181
172 176 181
172 176 181
171 175 181
171 175 181
171 175 181
170 175 181
170 175 181
170 174 181
169 174 181
169 174 181
169 174 181
169 174 181
169 174 181
168 174 181
168 174 181
168 174 181
168 174 181
168 174 181
168 174 181
168 174 181
168 174 181
168 174 181
168 174 181
168 174 181
169 174 181
169 174 181
169 174 181
169 174 181
169 174 181
170 174 181
170 175 181
170 175 181
170 175 181
171 175 181
171 175 181
171 175 181
172 176 181
172 176 181
173 176 181
173 176 181
174 177 181
175 177 181
175 177 181
176 178 181
177 178 181
178 179 181
179 179 181
180 179 181
181 180 181
182 181 181
184 182 181
128 133 144
71 90 111
68 87 108
66 88 111
87 118 142
133 172 195
153 196 224
153 198 228
153 197 227
156 199 227
140 167 191
106 97 136
83 37 103
81 25 99
88 72 115
100 130 143
108 133 140
111 110 122
112 106 118
110 112 123
121 135 152
136 154 178
139 157 183
129 141 142
118 123 86
119 120 78
121 124 81
144 135 135
177 155 212
186 162 247
183 161 250
185 161 246
161 145 210
82 121 150
10 132 166
43 143 183
56 146 187
137 156 180
119 140 180
75 108 179
38 87 176
35 85 175
44 83 162
56 74 123
67 64 57
87 84 56
102 110 76
103 124 88
101 126 89
102 127 90
102 124 91
105 117 113
101 104 139
108 115 145
128 144 166
115 136 134
91 112 67
96 87 72
103 61 92
102 40 109
99 30 125
85 32 145
65 34 167
59 34 172
70 49 171
127 111 185
158 146 194
168 165 202
166 169 201
161 166 194
146 152 175
116 117 140
106 87 128
106 84 128
104 83 126
103 90 123
90 116 103
101 139 123
91 99 107
65 62 65
74 61 89
78 51 119
81 50 126
80 50 125
80 50 125
87 64 132
113 118 152
119 137 159
85 97 122
87 97 124
105 119 144
129 147 171
135 153 177
135 153 178
135 153 178
122 144 167
68 140 143
19 141 132
36 153 142
54 161 148
54 163 150
78 158 158
127 162 190
131 155 183
101 91 90
93 73 58
95 74 59
95 74 59
95 74 59
95 74 59
97 75 60
94 74 59
92 72 58
151 159 173
202 213 233
208 223 244
212 226 248
216 230 250
215 230 251
216 231 251
218 232 253
217 232 252
218 233 253
217 232 252
216 230 250
216 232 250
219 233 253
216 231 250
217 230 250
216 230 250
217 231 250
214 229 248
217 232 251
217 231 251
190 193 200
184 182 181
183 181 181
181 180 181
180 180 181
180 180 181
179 179 181
178 179 181
177 178 181
177 178 181
176 178 181
175 177 181
175 177 181
174 177 181
174 177 181
174 176 181
173 176 181
173 176 181
172 176 181
172 176 181
172 176 181
172 175 181
171 175 181
171 175 181
171 175 181
171 175 181
170 175 181
170 175 181
170 175 181
170 175 181
170 175 181
170 175 181
170 175 181
170 175 181
170 175 181
170 175 181
170 175 181
170 175 181
170 175 181
170 175 181
170 175 181
171 175 181
171 175 181
171 175 181
171 175 181
171 175 181
172 175 181
172 176 181
172 176 181
173 176 181
173 176 181
173 176 181
174 177 181
174 177 181
175 177 181
175 177 181
176 178 181
176 178 181
177 178 181
178 179 181
179 179 181
179 179 181
180 180 181
181 180 181
182 181 181
184 182 181
143 144 147
38 60 80
39 61 81
39 62 83
58 83 101
112 149 165
133 178 186
146 195 197
144 188 197
135 171 190
126 155 175
116 124 152
99 92 128
90 77 116
95 90 124
95 90 110
93 57 76
95 35 62
95 35 63
97 40 68
107 83 119
121 113 166
124 115 174
123 113 151
122 119 113
117 118 85
114 114 80
160 140 177
195 163 241
194 163 249
194 165 252
197 166 253
195 164 243
135 141 193
85 135 175
143 157 216
160 165 231
131 151 179
83 113 176
31 85 176
27 82 172
27 81 170
26 80 166
34 75 149
50 61 91
77 81 64
92 112 82
97 122 86
98 123 86
94 118 83
94 118 84
94 114 91
93 103 117
97 108 137
108 126 155
92 112 139
80 88 106
94 53 100
102 29 99
103 27 98
102 27 97
100 28 107
80 29 133
77 59 158
123 112 167
157 148 173
175 168 183
180 177 197
174 175 203
170 172 201
172 170 196
149 142 168
106 87 123
96 76 115
98 77 117
98 78 118
100 95 121
118 136 152
115 130 149
88 94 107
73 62 99
71 44 110
72 44 112
73 45 114
75 47 117
73 46 116
61 49 102
32 33 75
8 10 65
10 11 63
34 39 74
86 98 122
122 138 161
124 141 167
125 142 168
125 144 168
93 139 149
57 149 140
75 174 158
82 179 161
83 178 159
85 171 159
100 155 164
103 130 157
96 104 118
94 74 61
92 72 58
93 72 57
96 75 60
90 71 57
89 69 56
94 74 59
90 70 57
140 143 156
202 214 235
207 224 245
211 226 248
214 229 251
213 229 252
214 229 252
216 231 253
217 231 253
216 231 252
213 229 249
216 231 252
215 230 251
217 232 253
216 231 252
218 233 253
215 230 250
215 230 250
215 230 250
216 231 251
216 231 252
188 188 189
184 182 181
183 181 181
182 181 181
181 180 181
180 180 181
180 180 181
179 179 181
178 179 181
178 179 181
177 178 181
177 178 181
176 178 181
176 178 181
175 177 181
175 177 181
175 177 181
174 177 181
174 177 181
174 176 181
173 176 181
173 176 181
173 176 181
173 176 181
172 176 181
172 176 181
172 176 181
172 176 181
172 176 181
172 176 181
172 175 181
172 175 181
172 175 181
172 175 181
172 175 181
172 175 181
172 175 181
172 176 181
172 176 181
172 176 181
172 176 181
172 176 181
172 176 181
173 176 181
173 176 181
173 176 181
173 176 181
173 176 181
174 177 181
174 177 181
174 177 181
175 177 181
175 177 181
176 177 181
176 178 181
176 178 181
177 178 181
177 178 181
178 179 181
179 179 181
179 179 181
180 180 181
181 180 181
182 181 181
183 181 181
184 182 181
154 154 155
50 57 85
39 57 78
36 57 76
68 99 100
123 179 158
139 207 179
139 211 183
141 208 181
137 193 176
121 151 163
121 137 161
116 128 152
110 120 146
110 119 145
95 71 92
89 34 59
88 32 58
89 33 59
94 45 90
106 70 146
114 83 166
145 129 183
166 157 188
168 156 172
162 155 152
142 139 134
141 126 168
163 134 201
161 131 197
174 142 215
178 144 220
174 144 214
149 138 192
161 161 218
184 176 247
181 174 249
122 142 173
53 90 163
28 79 159
34 83 147
36 85 139
32 81 144
26 72 143
59 80 117
88 104 104
86 108 83
91 115 82
91 114 81
89 111 79
89 110 78
86 105 78
83 99 106
65 83 121
53 76 120
52 75 119
53 73 117
65 67 113
86 42 97
95 25 90
95 25 89
95 24 89
95 49 108
148 133 163
177 169 179
180 175 182
181 166 180
187 155 178
185 144 181
165 139 172
156 146 170
143 137 160
98 83 113
89 70 106
89 70 107
91 72 109
96 83 117
113 125 148
122 139 160
108 122 141
95 100 128
68 46 104
69 42 107
69 42 106
68 43 107
62 39 101
27 18 71
7 9 62
7 9 59
7 9 59
42 46 72
81 91 114
92 106 145
87 100 149
90 105 153
97 112 152
108 136 159
88 169 159
84 178 159
81 172 154
79 166 148
77 161 143
78 152 141
88 131 146
91 112 135
91 83 85
90 70 56
93 73 58
91 71 57
89 70 56
88 69 56
91 71 57
88 69 55
120 121 126
193 205 227
204 224 246
212 228 251
212 228 251
212 228 251
214 230 252
212 227 252
215 230 253
216 231 253
215 231 252
215 230 252
216 232 253
215 231 252
215 231 252
215 230 252
213 229 250
215 230 251
216 231 252
216 231 252
214 229 249
174 173 172
185 182 181
184 182 181
183 181 181
182 181 181
181 180 181
181 180 181
180 180 181
180 179 181
179 179 181
179 179 181
178 179 181
178 179 181
177 178 181
177 178 181
176 178 181
176 178 181
176 178 181
176 177 181
175 177 181
175 177 181
175 177 181
175 177 181
174 177 181
174 177 181
174 177 181
174 177 181
174 177 181
174 176 181
174 176 181
173 176 181
173 176 181
173 176 181
173 176 181
173 176 181
173 176 181
173 176 181
173 176 181
174 176 181
174 176 181
174 176 181
174 177 181
174 177 181
174 177 181
174 177 181
175 177 181
175 177 181
175 177 181
175 177 181
175 177 181
176 178 181
176 178 181
177 178 181
177 178 181
177 178 181
178 179 181
178 179 181
179 179 181
179 179 181
180 180 181
180 180 181
181 180 181
182 181 181
183 181 181
183 181 181
185 182 181
163 159 162
91 55 116
75 53 102
55 64 86
112 162 137
147 215 178
145 217 183
142 215 183
144 217 183
149 218 182
140 188 173
124 143 166
124 141 165
120 137 159
116 131 152
90 69 87
83 30 54
81 30 53
83 33 62
97 60 124
107 76 154
140 121 169
178 153 170
174 106 119
173 84 99
176 102 115
174 128 135
152 130 161
130 109 167
128 106 164
133 110 172
135 111 175
135 115 175
142 131 183
171 157 217
181 167 232
177 174 227
119 138 169
59 93 148
43 88 111
51 95 66
52 96 45
50 94 66
43 84 95
76 99 121
101 119 128
80 99 81
84 107 76
83 104 73
85 106 74
81 101 71
79 98 74
64 84 102
49 72 112
49 70 112
49 71 113
48 69 109
49 68 108
64 58 101
84 31 86
91 26 85
103 42 90
127 77 107
166 133 144
175 156 163
181 151 170
184 99 160
185 60 153
183 47 149
175 59 147
156 83 141
132 113 141
85 72 99
81 63 95
79 61 93
83 67 100
94 90 117
115 129 150
119 138 157
119 137 157
112 125 148
84 83 119
64 41 98
62 38 97
62 39 97
54 40 89
21 17 64
7 8 57
7 8 56
27 31 62
80 89 106
86 99 139
74 88 151
70 84 146
66 78 136
64 76 128
72 96 133
80 155 147
78 162 145
75 158 140
71 149 132
69 144 128
71 147 130
83 133 136
88 110 132
95 105 120
91 79 74
89 70 56
84 66 53
89 70 56
88 69 55
89 69 56
85 67 54
101 92 89
178 192 217
199 219 242
207 225 248
212 229 252
212 228 252
212 228 252
212 228 253
212 228 251
214 231 252
214 230 252
214 231 253
214 230 252
214 230 252
215 230 253
214 230 252
215 231 253
214 230 252
214 230 252
215 231 252
209 222 242
158 158 159
185 182 181
184 182 181
184 182 181
183 181 181
182 181 181
182 181 181
181 180 181
181 180 181
180 180 181
180 180 181
179 179 181
179 179 181
179 179 181
178 179 181
178 179 181
178 179 181
177 178 181
177 178 181
177 178 181
177 178 181
176 178 181
176 178 181
176 178 181
176 178 181
176 178 181
176 177 181
175 177 181
175 177 181
175 177 181
175 177 181
175 177 181
175 177 181
175 177 181
175 177 181
175 177 181
175 177 181
175 177 181
175 177 181
175 177 181
175 177 181
176 177 181
176 178 181
176 178 181
176 178 181
176 178 181
176 178 181
177 178 181
177 178 181
177 178 181
177 178 181
178 179 181
178 179 181
178 179 181
179 179 181
179 179 181
179 179 181
180 180 181
180 180 181
181 180 181
181 180 181
182 181 181
183 181 181
183 181 181
184 182 181
185 182 181
163 162 163
100 56 122
100 52 122
87 72 109
118 167 138
138 197 156
139 200 164
145 211 174
147 212 172
149 210 169
137 182 160
128 149 165
130 149 172
130 149 173
128 145 168
101 95 114
76 32 53
75 27 49
79 34 65
94 61 127
111 92 153
163 152 174
165 124 140
162 88 107
164 58 77
170 33 57
166 44 62
157 85 113
129 108 160
125 102 162
125 101 162
124 103 161
125 117 164
130 128 168
138 126 177
135 136 160
122 157 111
122 141 163
73 103 99
51 93 40
51 94 33
52 94 33
51 92 32
50 91 34
72 99 83
107 124 137
94 111 111
75 94 72
75 95 67
75 94 66
73 91 65
80 96 91
57 76 107
51 74 110
56 80 110
60 85 113
45 64 102
46 65 103
51 59 97
77 38 83
111 53 90
137 76 104
144 80 108
143 82 108
146 91 114
155 83 124
169 40 132
178 28 139
175 28 139
174 28 140
167 35 135
140 71 127
87 79 105
73 62 88
76 63 91
90 85 112
111 121 145
126 145 167
130 148 171
129 147 170
126 143 167
116 130 155
87 90 120
71 67 102
79 78 111
87 93 122
42 47 74
6 8 52
6 7 50
49 54 73
84 93 116
75 87 143
70 83 144
67 80 138
64 76 131
61 71 123
58 68 117
62 110 119
75 150 135
78 147 135
70 137 123
68 139 123
66 134 119
95 138 142
116 134 155
117 134 155
110 118 132
95 85 83
84 65 52
87 68 54
85 66 53
87 68 54
81 64 51
89 71 58
157 168 192
196 214 238
205 223 247
208 227 249
210 229 249
210 227 249
211 228 252
211 228 252
213 231 253
213 231 252
213 230 253
214 230 253
213 229 252
214 230 253
215 231 253
211 228 249
213 230 251
213 230 252
214 230 252
198 211 229
124 126 130
185 182 180
185 182 181
184 182 181
184 182 181
183 181 181
183 181 181
182 181 181
182 181 181
182 181 181
181 180 181
181 180 181
180 180 181
180 180 181
180 180 181
179 179 181
179 179 181
179 179 181
179 179 181
178 179 181
178 179 181
178 179 181
178 179 181
178 179 181
178 178 181
177 178 181
177 178 181
177 178 181
177 178 181
177 178 181
177 178 181
177 178 181
177 178 181
177 178 181
177 178 181
177 178 181
177 178 181
177 178 181
177 178 181
177 178 181
177 178 181
177 178 181
177 178 181
177 178 181
178 179 181
178 179 181
178 179 181
178 179 181
178 179 181
179 179 181
179 179 181
179 179 181
179 179 181
180 180 181
180 180 181
180 180 181
181 180 181
181 180 181
182 181 181
182 181 181
182 181 181
183 181 181
183 182 181
184 182 181
185 182 181
186 183 181
150 151 155
98 59 115
96 49 117
97 65 117
99 131 119
102 147 115
98 139 116
108 155 127
120 164 127
119 155 101
114 149 93
116 146 107
121 147 137
129 149 165
131 150 174
122 134 156
89 80 97
73 48 64
73 42 66
103 91 133
132 139 173
144 159 183
145 160 184
147 157 181
150 138 159
158 80 97
159 28 51
153 48 68
131 110 140
122 118 157
119 112 154
124 124 161
125 135 165
128 132 153
129 119 137
125 134 103
116 149 69
116 135 152
65 95 70
50 90 32
49 91 41
50 95 58
49 98 72
49 93 57
61 93 60
107 127 138
119 136 155
101 118 125
78 93 87
77 93 84
89 106 105
107 124 139
101 133 139
123 173 161
134 191 174
132 187 172
111 155 147
67 92 107
46 56 90
87 50 84
134 74 101
137 78 103
138 78 103
136 76 101
133 74 98
134 74 100
148 54 112
163 28 123
164 26 127
164 26 128
159 26 126
151 59 130
110 104 131
90 94 115
91 92 110
116 107 120
134 118 126
134 122 132
126 130 149
122 135 157
123 131 153
117 123 143
114 123 145
106 118 141
110 123 146
114 127 151
79 89 110
27 31 58
6 7 48
52 58 73
79 89 118
68 80 138
66 78 136
64 75 131
61 73 126
56 66 113
57 67 109
101 138 158
134 191 205
139 195 213
115 160 168
84 126 118
73 124 116
115 145 159
131 149 173
130 147 170
130 148 171
115 124 140
88 77 75
80 62 50
78 61 49
84 65 52
84 66 53
83 65 52
119 121 135
189 207 233
200 218 243
207 226 250
208 228 249
209 228 250
211 229 253
211 229 252
212 231 253
211 230 252
211 229 251
213 230 254
212 229 252
214 230 254
212 229 252
212 230 251
210 228 249
212 229 250
212 229 252
188 201 218
94 87 101
146 144 144
183 180 178
185 182 181
185 182 181
184 182 181
184 182 181
184 182 181
183 181 181
183 181 181
182 181 181
182 181 181
182 181 181
182 181 181
181 180 181
181 180 181
181 180 181
181 180 181
180 180 181
180 180 181
180 180 181
180 180 181
180 180 181
179 179 181
179 179 181
179 179 181
179 179 181
179 179 181
179 179 181
179 179 181
179 179 181
179 179 181
179 179 181
179 179 181
179 179 181
179 179 181
179 179 181
179 179 181
179 179 181
179 179 181
179 179 181
179 179 181
179 179 181
179 179 181
179 179 181
179 179 181
180 180 181
180 180 181
180 180 181
180 180 181
180 180 181
181 180 181
181 180 181
181 180 181
181 180 181
182 181 181
182 181 181
182 181 181
183 181 181
183 181 181
183 182 181
184 182 181
184 182 181
185 182 181
185 183 181
176 174 173
112 116 131
90 63 103
92 48 111
92 54 111
97 119 121
96 144 119
94 142 115
99 142 105
104 138 77
108 140 68
107 140 68
107 139 68
110 143 74
116 143 114
124 141 158
123 137 160
112 123 144
99 103 121
98 102 119
130 142 164
141 158 181
144 162 185
140 158 182
140 158 181
145 162 185
150 141 162
150 61 77
144 40 59
134 111 134
127 137 165
125 136 164
126 137 163
132 130 136
138 124 106
140 122 97
141 124 95
138 127 93
109 128 145
52 84 50
46 92 72
47 116 129
48 128 153
47 129 156
47 123 145
49 110 117
93 118 129
114 131 151
109 125 143
101 116 131
101 115 130
110 126 142
131 162 164
152 210 186
151 217 194
147 215 194
149 216 194
152 217 192
137 189 167
87 105 114
108 77 101
130 73 97
134 75 99
133 75 98
129 72 95
130 72 95
130 72 95
127 60 93
146 32 108
148 23 112
153 24 119
152 25 120
145 49 122
122 118 146
119 125 143
137 103 97
148 87 52
157 86 32
155 84 31
146 86 59
137 94 92
137 77 64
138 78 65
133 89 87
131 118 131
128 143 166
126 142 166
118 134 156
85 97 117
52 59 76
58 64 78
75 84 108
63 74 125
63 75 130
59 70 121
56 66 115
54 63 111
95 120 153
142 188 216
150 206 236
151 212 241
145 201 225
118 151 162
91 106 107
120 139 159
128 146 168
131 150 172
129 147 170
129 147 169
111 121 137
81 72 72
76 59 48
76 59 47
76 60 48
78 61 49
89 80 80
169 183 211
200 219 245
203 222 247
205 226 247
205 225 246
208 227 251
209 227 252
210 228 252
210 229 252
211 228 252
210 227 251
211 229 253
211 228 252
210 227 251
211 229 252
211 229 251
210 228 250
211 228 251
183 197 214
95 82 91
87 100 97
106 112 109
169 168 166
185 182 180
185 183 181
185 182 181
185 182 181
184 182 181
184 182 181
184 182 181
183 182 181
183 181 181
183 181 181
183 181 181
183 181 181
182 181 181
182 181 181
182 181 181
182 181 181
182 181 181
181 180 181
181 180 181
181 180 181
181 180 181
181 180 181
181 180 181
181 180 181
181 180 181
181 180 181
180 180 181
180 180 181
180 180 181
180 180 181
180 180 181
180 180 181
180 180 181
180 180 181
180 180 181
181 180 181
181 180 181
181 180 181
181 180 181
181 180 181
181 180 181
181 180 181
181 180 181
181 180 181
182 181 181
182 181 181
182 181 181
182 181 181
182 181 181
183 181 181
183 181 181
183 181 181
183 181 181
184 182 181
184 182 181
184 182 181
185 182 181
185 182 181
185 182 181
186 183 181
170 168 168
122 127 130
103 96 111
74 82 103
66 74 106
83 69 111
113 128 146
103 141 131
87 131 103
97 131 77
101 131 63
99 129 62
103 134 65
105 137 66
104 135 65
106 136 72
115 137 130
122 138 160
121 136 158
121 136 158
117 131 150
138 155 175
138 156 178
136 154 178
138 157 182
140 159 183
137 156 180
145 158 181
143 99 116
136 47 63
132 125 147
129 145 171
132 148 175
131 137 151
134 118 97
133 116 90
135 118 91
137 119 93
135 117 91
119 137 158
63 96 95
45 121 144
47 132 163
46 131 161
45 128 158
45 129 158
46 127 156
82 130 154
125 144 167
123 140 162
125 142 164
125 142 164
126 145 164
141 185 171
144 201 180
146 208 187
152 217 193
153 218 194
156 219 193
150 204 174
135 168 157
120 102 122
125 70 92
125 70 92
123 68 90
122 68 89
123 68 89
119 65 86
120 60 86
130 32 95
140 21 105
143 23 111
138 22 107
136 78 127
129 135 160
142 116 116
154 84 30
152 81 16
153 80 16
148 75 16
141 64 18
140 61 19
138 60 19
137 60 19
138 60 19
130 65 44
125 110 120
122 138 160
116 131 153
111 125 145
102 115 134
99 112 130
94 106 125
67 76 112
55 65 114
54 65 113
56 59 117
65 45 143
79 57 166
86 69 176
92 91 180
121 155 205
148 202 230
150 200 219
108 133 143
97 109 134
109 125 154
116 133 158
124 141 163
125 142 164
118 135 156
91 101 120
76 76 84
72 60 55
70 54 43
73 57 45
72 57 48
140 140 169
189 208 234
202 222 248
205 224 250
205 225 249
207 226 251
209 227 253
208 227 251
208 226 250
209 227 252
210 229 253
209 227 251
211 229 253
210 228 252
210 228 251
210 228 251
210 227 251
209 227 251
180 195 214
103 97 91
82 75 80
90 91 91
101 94 108
101 103 122
146 147 149
165 164 164
179 177 175
185 183 180
185 183 181
185 182 181
185 182 181
185 182 181
184 182 181
184 182 181
184 182 181
184 182 181
184 182 181
184 182 181
183 181 181
183 181 181
183 181 181
183 181 181
183 181 181
183 181 181
183 181 181
183 181 181
182 181 181
182 181 181
182 181 181
182 181 181
182 181 181
182 181 181
182 181 181
182 181 181
182 181 181
182 181 181
182 181 181
182 181 181
182 181 181
182 181 181
182 181 181
182 181 181
183 181 181
183 181 181
183 181 181
183 181 181
183 181 181
183 181 181
183 181 181
183 182 181
184 182 181
184 182 181
184 182 181
184 182 181
184 182 181
185 182 181
185 182 181
185 182 181
185 183 181
186 183 181
182 180 178
162 162 162
137 137 143
105 107 121
96 100 114
83 86 99
67 119 101
45 141 98
50 149 101
91 155 132
108 145 142
99 126 116
95 124 64
98 127 61
99 128 61
97 127 61
97 127 61
100 130 63
98 127 62
111 135 117
126 144 165
128 145 168
126 142 166
128 143 162
132 148 163
137 154 177
163 181 206
187 208 235
188 208 236
168 185 211
141 159 181
134 124 140
128 95 112
128 136 160
129 145 170
130 145 169
129 124 122
129 111 86
129 112 87
129 113 89
120 111 100
110 110 110
131 149 173
81 125 148
44 124 152
44 123 151
45 126 155
44 125 154
44 123 151
43 122 150
53 123 150
110 140 164
132 150 175
129 147 171
115 131 157
83 96 127
67 83 114
60 75 110
76 100 121
115 157 152
146 202 177
152 206 175
124 156 127
116 145 132
117 112 130
115 69 89
114 64 85
116 65 85
117 64 85
117 64 85
110 60 80
109 52 79
119 21 88
124 19 93
126 19 96
131 49 109
131 113 145
133 137 156
142 91 68
147 78 15
145 77 15
145 75 19
133 74 49
125 84 73
123 87 80
127 74 58
131 59 26
131 57 18
129 56 18
128 72 61
128 138 158
128 144 168
126 143 166
125 142 165
121 138 159
116 133 153
88 101 121
64 74 108
51 54 106
65 35 145
71 23 160
72 22 162
71 21 159
71 21 160
70 32 155
107 126 180
122 159 188
80 94 143
62 66 133
62 67 133
68 75 134
92 103 143
116 131 154
116 130 150
103 110 137
110 81 138
119 64 137
113 53 122
96 54 95
66 49 56
75 69 115
176 189 221
197 216 244
201 221 248
202 222 248
204 224 250
205 224 250
206 225 250
207 226 251
208 227 252
208 227 252
210 228 253
211 229 254
211 229 254
210 229 253
209 227 251
209 227 252
210 228 253
188 201 224
86 96 99
89 73 92
73 79 96
93 82 89
78 97 108
69 92 80
107 101 112
113 125 128
120 129 117
140 140 144
148 148 150
162 161 162
170 169 168
178 176 174
183 181 179
185 182 180
185 183 181
185 182 181
185 182 181
185 182 181
185 182 181
185 182 181
185 182 181
185 182 181
184 182 181
184 182 181
184 182 181
184 182 181
184 182 181
184 182 181
184 182 181
184 182 181
184 182 181
184 182 181
184 182 181
184 182 181
184 182 181
184 182 181
184 182 181
184 182 181
184 182 181
184 182 181
184 182 181
184 182 181
184 182 181
184 182 181
184 182 181
185 182 181
185 182 181
185 182 181
185 182 181
185 182 181
185 182 181
185 183 181
186 183 181
185 182 180
180 177 176
172 171 170
160 160 161
147 148 149
126 131 133
103 109 124
106 100 116
90 84 93
89 98 112
109 111 101
85 84 108
68 161 96
42 179 93
42 180 93
45 176 94
65 171 107
103 146 130
93 118 77
89 117 56
90 117 56
95 123 59
96 125 60
94 123 59
95 123 61
110 132 117
130 148 170
130 146 168
128 143 166
132 144 162
130 145 158
147 166 182
200 217 241
200 206 229
186 169 189
178 150 170
156 159 181
121 131 147
122 128 145
127 139 161
130 145 169
127 139 160
123 115 106
121 104 80
117 104 84
87 100 112
45 99 137
30 99 142
128 147 170
77 127 152
43 121 149
43 121 149
41 117 144
41 117 143
41 116 143
41 116 142
41 113 137
96 131 155
126 144 166
123 130 159
116 89 139
129 84 144
126 83 143
105 74 129
62 59 104
52 61 100
77 104 115
111 149 131
100 127 107
105 136 129
121 133 153
118 100 120
107 63 82
108 59 78
102 56 74
103 56 74
106 70 89
111 89 114
109 50 92
106 37 84
112 61 99
117 98 128
128 137 161
130 129 147
138 79 45
139 73 14
138 75 28
114 107 101
73 144 156
53 156 173
50 158 175
66 147 162
90 124 132
119 68 53
121 52 17
121 57 34
123 122 138
128 144 167
123 139 162
121 137 160
119 134 156
112 126 147
104 116 136
88 98 116
73 69 123
69 22 155
69 21 155
67 20 152
67 20 152
66 20 149
64 19 146
63 44 140
62 68 132
58 62 128
59 62 128
59 62 128
58 60 127
60 62 126
83 90 128
117 115 146
143 77 169
156 58 182
159 57 185
160 57 186
151 55 175
114 49 135
49 42 109
135 135 179
189 208 237
197 217 245
203 223 251
204 224 251
204 224 251
206 225 252
205 225 251
206 226 252
205 224 250
207 226 252
209 227 253
210 229 254
209 228 254
208 227 252
208 226 251
208 226 252
189 201 225
74 91 96
75 62 112
81 71 84
115 112 110
90 104 96
101 108 111
84 69 81
77 83 135
71 85 89
86 71 63
88 105 95
80 86 123
111 119 122
110 113 128
106 106 132
110 112 132
119 127 128
133 134 142
135 135 138
142 149 141
153 151 159
157 157 160
161 158 158
166 165 165
168 167 166
173 172 171
175 173 172
178 175 174
179 176 175
179 177 176
182 179 177
182 180 178
183 180 178
183 180 178
183 181 179
183 181 179
183 181 179
183 180 178
183 181 179
184 181 179
183 181 179
181 179 177
180 177 176
179 176 175
176 174 173
175 173 172
168 167 167
172 170 169
166 165 165
163 162 163
155 156 157
152 153 154
145 146 148
138 138 140
119 120 130
103 105 108
93 83 74
85 75 91
89 88 113
79 89 93
106 119 110
84 81 84
107 79 97
113 91 94
116 123 132
90 92 85
76 72 96
55 164 91
40 171 87
40 168 86
41 171 87
41 173 89
66 164 105
91 121 91
85 111 53
86 112 53
87 113 54
87 114 54
87 113 54
94 119 72
120 139 143
132 147 170
132 149 171
131 146 169
133 145 165
167 182 194
166 190 191
194 203 222
168 113 129
164 97 114
156 79 95
164 152 168
143 152 172
124 135 152
123 134 153
126 138 158
127 139 159
118 115 114
116 101 79
79 97 113
28 95 135
23 95 135
23 96 137
113 130 149
67 117 142
40 114 139
40 113 138
39 111 136
40 111 136
38 108 132
39 111 135
40 109 132
91 126 147
131 131 162
150 101 159
151 92 157
151 92 157
152 92 158
150 91 157
137 85 146
77 62 108
48 56 95
84 117 113
103 146 128
112 141 141
126 140 164
120 128 150
102 92 109
93 65 80
84 51 65
90 65 80
99 88 107
109 107 128
106 102 123
102 97 118
108 104 126
115 116 139
122 129 152
124 124 143
129 82 61
128 67 13
110 104 100
54 151 167
41 153 171
41 154 172
42 155 173
41 154 171
41 151 168
77 122 133
111 58 39
111 48 19
122 121 137
127 144 167
125 141 164
125 141 164
127 143 165
125 141 164
121 135 157
118 132 154
88 80 147
65 20 145
67 20 149
63 19 143
62 19 141
58 18 135
57 24 132
56 53 124
56 60 123
56 60 122
56 59 122
56 58 121
57 58 122
54 54 117
72 61 125
136 70 164
153 54 177
152 54 177
154 55 179
153 55 179
156 55 179
150 54 173
95 42 129
55 54 112
157 167 202
192 213 242
197 218 247
201 222 249
202 223 251
204 224 252
204 225 252
204 225 252
205 225 252
204 224 251
205 225 251
207 227 253
207 227 252
206 226 252
208 227 253
206 226 252
194 209 233
78 104 93
65 59 117
101 60 93
98 106 96
92 101 99
87 110 64
72 68 69
69 55 129
100 106 114
124 119 123
94 106 109
115 116 131
99 118 113
99 103 114
90 120 133
66 100 117
53 100 78
69 83 111
92 69 97
90 98 82
110 107 117
84 100 103
101 96 98
97 124 109
95 93 109
119 117 125
89 110 97
111 108 111
114 120 126
114 119 125
121 127 129
116 121 128
117 120 126
118 123 129
119 124 131
118 124 130
119 124 130
119 125 131
119 124 130
117 123 129
117 122 129
116 121 128
115 121 127
115 121 128
115 121 128
122 128 134
114 120 126
117 121 131
116 120 131
108 111 116
119 106 117
97 95 121
102 112 110
112 108 108
91 92 104
64 82 69
97 107 72
96 87 99
89 89 103
64 73 70
100 107 82
103 81 84
98 72 83
96 79 93
103 111 113
73 78 88
81 78 95
43 161 83
38 160 80
38 162 82
39 165 84
39 166 85
44 163 87
94 141 119
87 108 83
75 98 48
75 99 47
76 100 47
81 104 60
105 125 117
130 148 168
133 150 173
132 149 172
132 149 173
136 152 175
177 196 220
190 210 233
160 174 196
150 94 111
155 78 95
160 118 136
191 199 222
164 180 203
131 148 171
130 145 167
128 143 165
130 146 168
124 133 146
101 96 91
41 90 122
22 90 129
22 91 130
22 91 130
123 139 160
93 126 149
40 107 132
37 105 130
36 103 127
36 102 126
35 101 123
36 102 126
46 103 124
114 129 155
146 100 156
146 89 151
147 89 152
149 91 156
147 89 153
147 89 152
144 88 150
128 81 138
59 54 94
65 89 96
103 141 128
119 138 153
122 134 155
119 128 149
114 123 142
101 104 121
100 105 121
106 113 132
116 126 146
121 131 152
121 132 154
123 135 157
126 139 162
128 142 165
128 142 165
129 142 165
126 107 110
118 70 40
69 135 147
40 148 164
41 150 166
40 147 164
40 150 165
40 147 164
40 146 162
45 147 162
89 91 93
107 65 60
125 134 154
129 145 168
127 142 165
127 143 165
126 143 165
125 141 163
126 142 164
123 139 160
87 81 146
62 22 139
61 20 139
59 18 134
56 17 129
51 15 119
50 25 117
54 55 118
54 57 116
54 57 117
53 56 115
52 53 112
51 50 109
51 49 108
91 50 130
148 53 171
149 53 172
148 53 171
150 53 173
150 53 173
148 53 171
146 52 168
134 49 158
51 35 102
85 85 129
172 188 219
191 213 241
196 218 247
200 222 250
202 223 252
203 224 252
203 224 252
203 224 252
204 224 252
203 223 250
205 225 252
204 224 251
206 226 252
205 225 252
205 225 252
202 220 246
96 119 110
64 67 114
96 68 95
74 90 82
106 111 116
82 103 66
83 110 84
87 98 104
109 110 118
120 67 73
113 111 123
95 124 134
74 118 118
106 114 120
51 85 49
45 49 57
77 81 94
44 63 86
84 79 99
71 70 102
103 111 116
52 54 79
80 90 91
82 103 93
114 117 122
99 66 42
93 93 80
99 97 99
99 95 102
88 72 77
114 119 111
112 117 120
86 80 42
112 116 122
104 106 122
89 92 108
88 82 98
110 113 121
114 120 127
115 120 127
114 114 123
100 53 89
70 80 85
109 115 121
100 97 103
113 114 117
78 83 95
89 101 101
79 107 71
76 86 86
103 93 103
96 101 100
101 107 74
101 88 93
98 100 105
83 110 41
97 103 97
110 115 119
91 96 99
64 68 71
120 106 124
109 97 102
76 81 120
75 67 102
63 94 72
71 78 82
78 84 74
44 153 77
38 154 77
37 156 79
37 155 79
38 158 80
39 157 81
94 144 127
104 117 123
96 82 66
107 62 30
112 59 29
113 84 79
119 126 140
125 143 163
128 146 167
130 147 168
130 147 168
131 149 171
146 166 190
181 202 231
179 200 229
166 171 198
165 162 188
179 190 217
172 192 219
137 154 177
132 149 171
130 147 168
131 147 168
129 145 166
128 144 165
100 120 142
24 85 120
21 87 123
21 86 122
21 84 120
131 150 173
124 145 168
75 115 138
33 95 117
34 97 120
32 93 115
32 93 114
38 93 114
83 116 137
130 121 157
143 86 146
144 87 148
143 87 148
144 87 149
136 88 158
119 90 174
112 91 181
109 88 173
73 67 130
67 84 102
115 138 147
122 141 157
124 143 161
126 144 164
127 145 165
129 146 168
127 144 166
128 145 166
129 146 168
130 146 169
130 146 169
132 149 173
130 146 170
130 146 169
130 146 169
127 141 167
109 109 149
86 65 129
66 87 151
57 104 152
48 127 157
39 143 159
38 142 158
38 141 156
39 144 159
38 139 154
72 113 123
111 101 112
127 141 164
127 143 165
128 144 167
128 145 168
125 141 163
128 144 166
127 143 166
120 146 152
91 138 115
75 147 89
74 147 84
70 126 98
58 66 114
47 14 108
44 24 103
49 51 107
51 55 112
53 55 114
51 53 109
50 50 106
47 45 100
43 41 93
104 46 131
137 49 160
139 50 161
142 50 164
143 51 164
141 50 162
140 50 160
139 49 159
137 49 158
65 34 102
27 33 88
114 123 156
180 202 231
191 213 243
196 218 248
198 221 250
199 221 250
202 224 253
200 222 251
202 223 251
203 224 253
204 225 254
204 225 253
203 224 252
204 225 252
205 226 253
202 222 250
109 133 124
67 75 102
79 76 103
80 91 90
108 114 120
89 100 95
72 95 77
90 105 100
103 104 106
97 47 45
104 102 108
70 113 116
70 127 130
115 124 132
93 95 64
96 89 56
96 100 107
104 110 117
88 94 107
61 65 92
112 117 123
102 107 114
77 98 87
123 131 122
136 145 135
97 97 95
100 102 104
109 114 121
112 66 85
101 38 63
53 77 77
99 105 109
83 78 78
89 71 99
84 83 100
40 37 68
75 74 81
136 146 127
126 134 127
112 118 125
109 113 121
91 92 100
23 38 98
76 81 110
76 72 77
84 81 87
78 90 91
39 71 61
59 88 52
104 112 115
93 99 104
65 76 65
81 73 66
90 77 81
108 100 94
142 140 131
116 123 127
133 138 143
110 115 121
110 110 122
129 61 142
85 104 100
8 75 96
85 89 110
75 95 76
79 86 90
90 96 71
93 119 34
89 125 43
65 138 64
37 148 74
35 149 76
40 149 79
100 134 121
120 69 75
126 25 18
126 22 14
126 22 14
129 22 14
127 41 40
125 111 123
127 145 164
128 146 156
133 154 144
137 159 126
138 158 129
143 164 163
156 178 203
164 187 218
160 183 212
153 174 201
134 152 175
131 148 170
129 146 168
130 146 168
126 142 162
123 137 156
121 135 153
98 117 139
26 85 120
19 80 113
20 81 115
20 80 114
129 148 172
126 145 168
113 135 157
78 107 127
45 86 104
39 81 99
48 84 101
80 106 124
111 131 151
131 107 147
136 82 138
131 79 136
134 82 141
104 87 173
68 91 198
57 92 204
56 91 202
56 92 203
56 89 197
66 92 172
115 137 156
122 142 158
125 144 163
127 145 165
128 147 168
129 148 169
129 147 168
132 150 172
132 150 173
131 148 171
129 146 168
131 148 171
130 145 167
128 143 165
120 131 159
84 76 148
70 51 144
69 50 144
68 49 144
67 50 151
65 55 150
53 106 149
38 134 150
37 137 151
37 137 151
36 134 147
67 121 136
111 118 136
120 131 151
123 136 157
122 135 156
123 139 161
126 142 165
128 145 168
112 150 139
83 168 69
79 172 55
79 172 54
78 171 53
79 173 54
76 164 60
56 95 87
39 17 91
47 48 99
48 51 105
46 49 102
47 49 102
44 45 95
43 41 92
41 39 87
91 41 118
133 47 153
136 48 157
134 48 154
138 49 160
134 48 154
135 48 155
131 47 149
128 50 147
82 68 111
31 37 77
30 35 78
126 141 167
182 205 236
189 212 243
195 218 248
196 219 249
198 221 250
199 222 251
201 223 252
201 223 252
201 223 252
202 223 252
202 224 252
202 224 252
202 224 252
203 224 253
137 156 160
84 102 104
55 64 93
76 92 91
109 116 122
92 105 102
41 79 44
83 93 92
87 83 77
77 65 51
100 103 108
98 108 114
115 134 125
137 162 142
121 117 70
121 103 8
112 113 109
111 116 123
109 114 121
106 112 119
128 134 140
116 122 128
106 114 122
120 126 118
126 131 114
113 117 119
110 114 121
92 81 88
88 31 50
87 38 56
59 68 70
102 108 114
86 76 96
62 14 70
93 92 104
92 103 101
75 100 78
100 115 88
110 117 108
110 117 123
109 115 122
99 105 112
50 53 83
83 90 97
77 91 62
91 101 93
77 84 90
35 48 57
92 99 103
105 112 117
54 65 65
33 43 42
99 103 109
101 105 110
117 117 113
143 142 132
128 133 135
114 120 126
112 117 124
112 106 124
107 63 118
65 99 85
45 78 91
100 107 114
130 133 130
95 87 103
95 108 81
81 136 108
61 168 168
52 177 184
41 177 175
29 164 142
57 140 95
108 77 70
117 20 13
118 21 13
119 21 13
124 22 13
122 21 13
123 21 13
122 37 37
130 135 125
138 162 81
142 167 26
143 168 19
144 168 19
144 168 32
141 165 91
135 155 164
133 152 176
132 150 173
134 152 176
132 151 174
132 149 173
133 150 173
131 149 172
131 149 171
129 146 167
119 137 160
54 88 116
18 76 107
19 76 109
19 75 107
122 141 163
120 139 162
107 127 147
102 121 141
95 113 131
84 102 119
92 111 128
104 123 142
111 130 150
124 108 144
126 76 129
126 76 130
108 83 161
56 87 191
56 90 198
56 89 198
55 88 197
55 87 195
54 87 195
57 86 193
91 108 185
131 147 173
131 150 173
130 149 171
132 150 173
132 151 175
131 149 172
131 148 172
133 150 173
132 150 172
132 149 172
132 149 172
132 149 173
125 138 163
82 73 142
67 48 139
65 46 138
61 49 164
49 51 196
46 51 206
45 51 206
46 54 200
40 94 177
34 122 145
34 128 141
34 124 138
87 125 141
112 121 140
119 131 151
123 136 158
124 139 161
125 141 164
126 142 165
117 142 150
80 159 69
77 167 53
77 168 53
77 169 53
77 168 54
85 176 88
92 183 110
91 178 115
72 103 110
84 93 122
48 52 97
42 45 92
42 44 92
40 41 87
39 39 84
39 39 79
93 81 124
125 52 146
125 44 145
129 46 148
125 44 144
126 45 144
125 44 143
122 43 139
121 71 142
100 106 131
79 89 108
74 84 104
79 89 109
142 160 184
179 200 227
183 204 230
189 211 240
195 219 249
197 220 251
198 221 251
198 220 250
200 222 253
200 223 253
200 223 253
200 223 252
200 223 252
201 223 253
154 175 185
94 111 108
54 62 87
49 77 69
109 116 122
96 106 107
35 73 37
91 102 101
88 89 89
66 57 43
102 107 112
107 113 120
111 123 113
125 143 121
101 109 83
95 81 12
105 107 105
110 116 121
112 118 124
111 117 124
112 118 124
68 79 96
46 61 86
73 82 93
96 101 97
107 111 115
99 99 104
63 6 23
64 3 23
90 83 90
103 107 114
103 107 114
94 96 104
82 81 90
100 105 112
83 97 89
61 86 62
72 90 75
104 110 111
109 115 120
111 117 123
108 114 121
108 114 121
82 93 80
61 77 32
73 85 63
93 99 105
84 90 95
98 105 110
53 76 71
33 66 57
75 83 85
106 112 118
107 113 118
100 103 102
124 128 124
155 168 172
128 135 138
111 115 123
102 99 112
93 87 104
54 81 71
103 60 84
106 105 113
135 129 130
109 81 107
70 148 149
19 188 203
16 190 207
17 192 209
17 190 207
17 192 209
48 171 183
103 69 71
105 18 11
112 20 12
112 20 12
114 20 12
111 19 12
114 20 12
116 64 12
132 152 19
134 160 18
137 161 18
137 160 18
138 161 18
138 161 18
139 161 18
137 160 76
133 152 167
133 151 175
132 151 175
133 152 176
134 152 176
133 151 175
132 151 174
133 151 175
133 151 175
130 149 173
102 124 148
33 75 103
17 69 99
27 67 95
128 147 171
127 146 170
127 146 170
127 146 169
125 143 166
128 147 170
126 145 169
126 145 168
128 147 171
126 131 159
120 74 124
116 72 127
66 85 183
53 86 188
54 86 190
53 84 188
54 85 189
62 82 188
118 65 184
161 40 184
169 32 183
174 51 182
161 88 177
143 126 174
130 147 171
131 148 171
132 150 173
132 150 174
132 150 174
131 148 172
133 150 174
131 148 172
131 149 172
111 121 158
64 46 133
65 46 136
55 48 173
43 50 203
42 50 203
42 50 206
43 51 206
42 50 204
42 50 202
39 72 185
32 114 137
54 119 133
117 138 160
125 141 164
127 144 168
127 144 168
127 143 168
125 141 165
124 141 165
99 148 118
72 158 50
72 157 50
72 159 50
81 169 87
107 198 153
114 206 173
116 209 175
115 208 173
112 200 168
105 171 153
80 99 116
47 52 86
35 37 75
33 34 71
34 35 66
72 81 104
104 117 140
111 86 138
115 44 133
114 40 131
117 41 135
113 39 130
115 40 132
113 52 131
119 117 153
123 138 163
122 138 162
124 140 163
138 152 165
165 180 185
172 190 193
173 190 193
173 189 191
173 190 200
187 209 237
192 216 247
195 219 250
196 220 251
197 220 252
198 221 252
198 221 252
199 222 253
199 222 252
175 196 216
89 104 99
75 79 96
30 63 53
100 108 113
107 114 119
53 75 57
78 89 86
94 99 104
63 61 58
92 97 101
105 111 116
93 101 102
88 103 87
80 91 81
86 89 86
102 106 108
108 114 119
110 116 123
112 118 124
103 109 128
47 53 143
44 50 147
51 60 103
109 114 121
107 112 119
100 103 109
60 38 43
56 25 31
95 96 102
107 113 120
108 113 120
109 114 121
108 113 119
97 103 110
66 75 83
50 64 62
89 96 97
104 111 116
108 114 120
108 115 121
108 114 120
105 111 117
83 90 87
52 71 44
54 87 70
70 97 90
103 110 116
89 97 101
29 58 49
30 58 50
98 106 110
108 114 120
111 116 122
107 112 116
114 121 121
127 132 128
117 122 126
112 117 124
110 114 122
103 108 115
93 87 95
108 21 71
107 101 109
108 93 105
103 88 103
31 167 180
16 181 196
16 183 199
16 183 199
16 184 200
16 186 202
16 183 199
54 158 172
94 40 40
102 18 11
103 19 11
107 19 11
104 18 11
99 25 10
116 121 14
124 149 17
127 153 17
131 156 17
134 158 18
133 155 17
136 158 18
133 155 17
135 157 18
134 154 126
134 152 176
131 150 174
132 151 175
131 149 173
129 148 172
128 146 170
124 143 166
125 143 166
123 141 164
121 138 160
91 111 132
48 73 94
30 57 79
130 148 172
131 149 172
130 148 171
130 148 172
130 149 172
129 147 170
129 147 171
127 145 169
125 143 166
121 135 159
110 94 127
96 71 134
52 83 181
52 84 184
52 82 181
50 78 175
69 77 179
149 47 180
175 16 178
175 16 178
176 16 178
173 15 176
172 15 175
172 19 176
148 103 170
130 146 171
128 145 169
129 146 170
131 149 173
132 150 174
130 149 172
130 149 172
129 147 171
94 98 146
62 44 129
57 45 152
42 47 195
41 48 197
41 48 197
41 49 198
41 49 197
40 48 192
40 49 195
39 48 192
47 79 171
102 129 150
122 141 164
126 145 168
126 145 169
127 145 169
128 146 170
126 144 168
126 143 168
85 148 91
67 147 47
68 151 47
78 162 80
109 198 160
114 204 170
113 204 170
111 201 168
111 200 166
113 203 168
112 201 166
104 178 152
90 106 123
79 88 108
79 86 107
81 88 109
93 102 124
95 104 127
101 107 132
99 76 121
95 39 109
98 36 112
94 34 107
98 56 114
109 100 135
116 127 150
116 141 149
109 143 138
120 149 140
165 186 183
171 192 198
167 190 198
168 190 198
173 192 197
175 192 194
170 186 190
183 206 234
192 217 250
194 218 251
193 218 250
194 219 251
195 219 251
196 220 252
196 220 252
193 216 245
93 111 102
95 100 108
56 71 70
81 91 94
104 111 116
113 118 123
104 109 114
101 107 112
103 108 113
104 109 114
106 113 118
106 113 117
97 103 104
97 103 104
105 111 115
108 114 120
109 115 121
108 114 121
108 114 120
79 84 134
41 45 145
41 45 147
48 52 140
98 103 112
102 108 115
99 103 110
89 92 98
86 88 93
96 100 106
105 110 117
107 112 119
108 114 120
104 110 117
43 53 68
30 42 61
30 43 61
78 85 94
108 114 120
108 114 120
109 115 121
108 115 121
105 112 117
99 106 110
50 84 71
40 82 66
41 83 67
84 99 99
85 92 96
31 49 44
64 75 75
106 112 118
107 113 119
110 116 122
108 112 117
115 98 95
117 100 97
110 116 122
111 116 123
110 115 122
111 116 122
104 79 95
102 42 73
96 97 101
103 82 102
80 105 111
15 175 191
16 178 193
15 176 190
15 177 192
15 176 191
16 179 195
16 180 196
17 180 195
71 105 112
94 17 10
94 17 10
93 17 10
89 16 9
90 46 9
111 132 15
121 147 16
121 144 16
126 149 17
127 149 17
127 148 17
129 150 17
131 152 17
131 151 17
129 149 78
131 150 171
133 151 175
131 149 173
129 148 172
127 146 170
129 147 171
125 143 166
122 140 163
117 135 158
109 126 147
104 120 141
91 106 124
80 94 111
129 147 170
131 149 172
131 149 173
129 146 169
128 146 169
130 148 172
128 145 169
125 141 165
125 141 164
122 137 161
117 128 152
90 92 143
48 78 170
50 80 176
50 78 174
52 79 175
135 49 169
162 38 165
167 35 168
166 19 168
166 15 169
168 15 170
169 15 169
168 15 171
162 26 167
138 122 168
130 148 172
132 150 175
131 149 173
131 149 173
131 149 173
128 146 170
130 148 172
93 97 141
59 41 121
44 42 169
39 45 187
40 46 190
40 47 191
40 47 192
39 47 190
39 47 189
39 47 188
39 46 186
46 55 179
97 116 146
110 130 151
114 135 156
120 140 162
122 141 164
127 147 170
128 147 171
126 145 167
84 141 92
62 138 44
66 145 48
99 183 140
111 197 165
111 198 165
110 198 164
107 191 159
107 192 159
108 194 161
108 194 160
107 192 158
115 163 159
123 137 162
124 139 164
121 134 159
120 131 157
114 121 148
113 119 146
105 109 134
101 102 127
98 96 122
97 94 120
103 103 129
97 123 117
78 141 83
74 145 74
73 145 73
72 143 71
79 146 81
124 165 140
166 189 194
169 190 198
171 191 197
175 193 197
177 193 195
164 183 195
184 209 242
187 213 246
189 215 248
191 216 250
192 217 250
193 218 251
193 218 251
193 218 251
120 139 146
106 112 119
92 99 104
69 76 78
104 110 115
113 118 125
111 116 123
109 114 120
109 115 121
110 116 122
109 115 121
110 116 122
108 115 120
109 115 121
109 115 121
110 116 122
108 114 121
106 112 119
104 109 118
80 84 120
36 39 130
37 40 131
40 44 130
92 97 112
100 106 114
103 109 117
106 112 119
105 111 117
107 112 119
107 113 119
108 113 120
106 112 118
97 103 111
27 38 55
27 38 55
26 38 53
64 71 81
107 113 119
108 114 120
107 114 119
106 112 118
107 113 119
100 108 113
39 74 60
36 73 58
36 72 57
90 100 103
93 99 104
83 88 92
91 97 101
103 109 115
108 114 121
107 113 119
111 93 91
113 86 79
114 86 79
109 112 117
110 115 121
110 114 121
107 110 117
93 54 75
98 79 90
100 101 107
97 83 99
47 127 135
15 169 182
15 168 183
15 170 183
15 172 186
15 170 184
15 168 182
15 169 183
15 173 187
50 131 140
84 15 9
87 15 9
84 15 9
82 15 8
76 40 7
103 127 14
107 132 14
113 137 15
117 140 15
119 141 16
123 145 16
124 144 16
124 144 16
123 143 16
126 146 77
133 152 174
134 153 177
133 151 175
132 151 175
132 150 174
132 151 175
132 150 173
132 150 173
128 146 170
128 146 169
128 146 169
126 143 167
125 142 166
128 145 168
130 147 170
131 147 171
130 147 172
129 145 169
127 143 167
128 143 167
126 141 165
120 132 156
119 131 154
115 124 147
98 106 140
50 77 163
46 73 162
48 78 157
61 97 130
79 111 107
69 115 98
69 114 98
92 105 111
125 77 134
158 28 159
160 14 161
157 14 159
156 14 159
151 68 161
132 147 173
130 148 172
132 151 175
130 148 172
132 150 174
130 149 173
131 150 174
108 120 154
54 38 115
39 41 170
37 42 177
38 44 181
38 45 183
38 45 182
38 45 182
37 45 181
38 45 182
37 45 179
37 45 175
106 125 164
120 141 164
124 143 167
130 149 173
127 146 169
129 148 172
132 150 174
131 150 173
98 137 121
57 127 40
67 141 69
104 186 156
106 189 157
105 188 156
105 187 155
105 188 156
105 190 157
105 188 154
103 186 153
102 184 150
108 180 154
131 149 171
130 146 171
132 148 173
132 148 173
130 146 171
132 147 172
131 146 170
130 145 170
131 146 171
130 145 170
110 141 139
73 141 74
71 141 71
71 140 70
71 141 70
71 140 70
70 138 69
69 137 68
104 151 113
164 183 183
163 177 179
169 184 185
167 183 182
156 172 174
169 194 224
178 205 239
183 210 245
186 212 247
187 214 248
189 216 250
188 214 248
189 215 249
149 169 190
125 125 125
106 112 118
95 101 107
106 112 118
110 115 121
113 118 124
105 111 115
110 115 121
110 116 122
109 114 121
110 116 122
110 115 121
110 116 122
111 117 123
109 114 121
108 113 121
106 112 121
103 108 117
95 100 111
62 65 107
33 35 103
58 60 101
90 95 107
98 103 112
104 109 118
106 112 119
107 113 120
108 114 121
107 113 119
106 112 119
103 109 116
96 101 107
51 57 66
22 32 46
35 41 52
88 94 100
101 107 113
105 110 117
106 113 119
105 111 117
100 107 111
92 99 103
52 69 63
40 64 54
65 79 77
96 103 107
103 109 115
102 108 114
106 112 118
106 112 118
107 112 119
104 104 108
103 78 72
100 76 69
103 81 76
109 114 120
110 115 122
109 114 121
99 99 106
74 78 59
76 117 72
99 101 108
86 87 94
26 147 158
14 160 172
14 164 176
14 163 176
14 162 174
15 165 179
14 160 172
14 163 176
14 165 177
47 133 143
73 13 8
76 15 10
73 29 25
71 37 32
70 38 22
91 110 12
98 123 13
108 132 14
112 135 15
115 136 15
116 135 15
115 133 15
117 135 15
119 137 15
121 139 98
134 153 177
133 152 176
133 151 175
133 151 175
132 150 174
132 150 172
130 148 171
130 148 171
130 148 171
131 148 172
131 148 171
127 144 167
113 129 152
129 146 169
128 145 168
129 145 169
132 149 173
130 147 171
129 146 170
130 146 171
129 145 169
129 144 169
127 143 167
126 142 166
124 138 163
77 98 159
48 80 149
62 111 103
63 114 91
63 114 92
63 115 93
63 114 92
63 113 92
62 111 90
98 95 113
150 36 152
156 14 157
154 14 155
152 27 157
132 140 171
131 149 173
132 150 175
132 151 175
132 151 175
132 151 175
131 149 173
127 144 170
66 65 115
37 38 156
36 42 172
36 42 172
36 43 175
36 43 175
36 43 173
35 42 169
35 43 170
35 42 169
35 43 168
117 134 172
130 149 174
128 147 172
107 121 167
84 94 163
73 80 159
74 82 159
89 99 161
105 127 150
61 120 57
67 136 77
101 180 151
104 185 154
102 183 152
101 180 150
100 180 149
100 180 149
97 174 144
98 176 144
99 179 146
98 172 143
131 153 173
133 151 174
134 151 174
133 152 176
133 150 173
133 151 174
134 152 175
133 151 174
132 149 173
126 149 164
76 140 81
70 138 69
69 136 68
69 136 68
69 136 68
69 135 67
67 131 65
68 133 66
67 130 65
114 146 120
142 151 150
141 149 149
147 160 159
146 162 163
138 157 178
154 178 208
167 193 225
174 201 236
178 206 241
176 201 234
166 188 217
156 176 203
140 154 178
132 128 126
111 115 120
104 110 116
108 113 119
109 115 120
106 111 116
113 116 120
114 119 125
110 115 122
110 116 123
110 116 123
109 115 121
109 114 121
110 116 123
110 115 123
109 115 122
107 112 120
105 110 120
99 104 115
91 95 108
83 87 100
89 93 106
95 100 112
101 107 117
104 110 118
107 113 120
107 113 120
109 114 121
106 112 119
106 112 119
104 109 116
96 102 108
81 85 90
68 72 76
79 83 87
93 98 103
100 106 112
105 111 117
103 109 115
105 111 117
103 109 115
94 101 105
85 91 94
83 89 92
91 97 100
100 107 112
105 111 116
105 110 116
105 110 116
104 109 115
103 107 113
97 91 93
93 71 64
87 66 59
97 90 91
109 114 120
108 114 120
106 111 117
98 107 106
63 109 54
77 112 76
102 106 113
72 94 94
17 147 159
13 152 163
13 151 163
13 153 165
13 155 167
14 156 169
14 157 169
14 155 168
13 152 164
60 104 111
61 52 47
46 75 68
41 83 75
41 83 76
42 82 75
56 89 67
81 108 44
97 118 14
105 125 14
111 130 14
109 127 14
111 129 14
110 128 14
108 125 26
126 145 140
131 149 172
133 152 175
133 151 174
133 151 174
132 150 173
131 149 173
131 149 172
133 145 171
135 131 166
134 127 162
133 134 165
124 136 158
87 102 127
130 148 171
129 147 171
129 147 171
130 148 172
132 150 174
130 147 171
131 148 173
131 149 173
130 147 172
130 147 171
130 148 173
128 146 171
120 139 167
61 107 100
62 113 90
62 112 89
62 112 90
61 111 89
61 111 89
60 109 88
60 109 88
59 106 86
95 89 108
144 16 144
144 13 146
142 25 147
130 135 168
130 149 174
131 149 174
131 150 175
131 149 173
129 147 172
130 147 172
127 145 170
112 126 154
52 57 144
33 37 158
35 40 166
34 40 164
35 41 166
33 40 163
34 41 166
33 40 162
33 40 159
45 52 156
121 139 168
121 137 167
77 84 158
61 65 155
61 65 155
61 65 155
59 63 152
58 63 150
59 63 151
62 88 123
66 127 82
96 171 143
99 176 146
97 173 144
97 174 144
97 173 143
98 176 145
92 167 136
93 168 137
91 165 134
98 170 142
128 151 169
130 149 171
131 150 172
133 152 174
132 151 173
133 151 174
133 151 174
133 152 174
133 151 173
109 144 138
66 131 65
67 132 66
68 132 66
66 130 65
66 130 65
65 128 64
67 130 65
63 123 61
65 127 63
73 122 73
112 118 117
108 116 114
125 138 137
125 140 142
128 146 164
128 148 173
131 152 178
138 161 190
153 174 202
132 149 171
125 140 163
123 139 162
127 144 167
128 131 139
127 124 123
108 113 120
109 114 120
109 115 121
115 119 121
127 134 133
112 114 128
110 114 121
109 114 121
108 114 121
108 114 120
108 114 121
107 113 120
109 115 122
107 113 121
107 112 120
105 111 119
104 110 118
104 109 117
102 107 117
103 108 117
105 111 119
104 110 118
106 112 119
108 113 120
106 112 119
107 113 120
109 114 121
106 112 119
105 111 118
103 109 115
98 104 110
99 105 111
100 106 112
102 108 114
104 110 116
106 112 118
105 111 117
106 112 118
105 112 117
104 111 116
102 109 114
101 107 113
101 108 113
104 110 115
104 110 116
106 112 117
104 110 116
103 108 113
94 99 101
62 80 65
47 75 50
67 78 66
100 104 108
106 112 117
106 112 118
107 113 118
76 104 76
56 100 47
87 107 93
99 105 111
66 82 75
28 128 136
12 141 153
13 148 160
12 144 155
13 147 159
13 147 158
13 147 158
13 149 160
28 139 149
59 94 96
39 79 71
39 79 71
39 80 72
40 80 72
40 82 74
41 82 75
42 82 74
73 99 52
93 113 12
98 117 13
99 116 13
100 117 13
101 117 22
115 132 111
130 148 169
131 149 172
131 149 171
133 151 174
132 150 173
132 148 171
135 145 173
140 112 162
147 83 158
149 80 158
150 80 159
152 82 162
149 91 162
110 82 132
123 142 163
126 144 166
126 145 167
127 146 169
127 146 170
128 145 169
127 145 170
128 146 171
129 147 172
128 146 172
127 145 171
124 142 168
102 129 140
59 107 85
60 108 86
59 107 85
60 108 86
60 108 86
59 107 86
60 109 88
59 106 85
58 104 84
61 103 86
121 47 126
139 12 140
136 48 144
127 137 167
128 145 171
126 143 169
126 143 169
125 142 168
123 140 166
121 137 162
117 132 157
110 124 149
88 99 138
35 40 148
31 36 151
32 38 156
31 37 153
32 38 156
32 39 158
30 36 149
31 37 150
83 95 155
118 134 160
77 85 152
59 63 149
59 63 150
59 63 149
57 62 146
57 61 145
57 61 144
58 62 146
57 61 143
65 88 122
86 152 128
93 166 138
95 170 141
92 164 136
91 165 136
90 162 133
89 161 132
89 161 131
87 159 128
99 153 139
126 147 164
130 150 170
131 150 171
131 150 170
131 150 171
132 151 172
131 150 171
133 152 174
133 152 174
98 138 120
64 127 63
65 127 63
64 126 63
65 127 63
64 124 61
64 126 62
64 125 62
63 122 60
61 119 59
61 115 61
101 114 112
103 115 116
110 124 125
116 131 135
126 145 169
127 147 172
128 148 174
136 154 177
120 134 155
111 124 144
109 120 141
109 122 142
119 134 156
117 130 149
127 117 111
107 111 115
108 113 119
108 113 119
108 113 119
105 95 132
101 55 148
103 61 149
104 92 134
108 112 120
107 112 120
108 113 120
107 112 120
106 112 119
107 112 120
107 112 120
106 111 118
106 111 119
106 111 120
104 109 117
105 110 117
105 111 118
106 112 120
106 111 118
105 111 118
107 113 119
106 112 118
107 113 119
105 111 118
106 112 118
104 111 116
103 110 116
101 110 114
94 113 113
95 114 114
101 112 116
104 110 116
106 112 118
106 112 118
105 112 118
105 111 117
106 111 117
105 111 116
105 111 116
105 110 116
104 111 116
103 109 114
104 110 115
92 101 102
44 76 52
36 74 46
36 73 45
37 72 46
97 104 107
104 109 114
103 109 114
95 106 104
51 89 43
57 91 51
104 111 114
86 92 97
88 101 108
55 95 98
21 128 139
11 133 143
11 134 144
11 136 146
12 139 149
12 140 150
25 133 143
48 106 110
38 76 68
37 74 67
38 76 69
38 77 69
39 78 71
40 80 72
40 80 72
40 80 72
41 80 72
69 89 39
82 98 11
84 98 19
91 105 44
103 116 100
121 136 149
126 143 160
127 144 163
130 147 168
128 145 165
131 148 171
133 139 167
141 87 153
145 77 153
143 76 150
147 78 155
147 79 156
146 78 154
150 80 157
150 80 158
126 144 166
124 143 165
126 144 167
127 145 169
128 147 171
126 145 170
128 147 171
126 145 170
125 142 168
123 141 167
119 136 162
113 129 156
78 111 110
57 103 82
59 106 85
58 104 83
58 105 84
58 105 84
57 102 82
58 105 84
56 102 82
57 102 82
55 100 80
100 69 108
130 11 132
125 93 148
125 142 168
124 141 168
126 143 170
123 141 167
120 134 161
119 135 161
114 128 154
110 123 149
108 121 146
97 109 135
83 94 144
34 38 140
28 33 139
28 33 141
28 34 142
28 34 141
27 34 136
65 76 144
110 125 154
96 109 154
58 62 146
57 61 145
57 61 145
57 61 144
55 60 140
50 76 125
43 91 102
39 96 92
39 96 91
43 92 98
66 119 106
86 156 130
88 160 132
83 152 125
85 154 127
85 154 126
83 152 124
83 152 122
82 148 121
118 148 157
127 148 166
129 149 168
130 149 170
130 150 171
131 150 171
131 150 171
131 151 171
132 151 173
131 151 172
96 134 118
61 120 60
63 124 62
61 121 60
62 123 61
62 121 60
61 119 59
59 115 57
60 116 57
60 114 58
101 126 102
152 156 160
161 163 170
156 159 165
148 153 160
131 148 170
131 150 174
126 146 168
125 140 157
90 96 111
73 75 89
91 99 115
98 107 124
111 124 144
115 129 149
114 116 124
99 98 99
106 110 115
107 111 117
107 112 119
99 75 132
93 49 136
96 51 141
96 51 143
100 83 132
106 111 120
105 110 118
105 110 118
101 108 120
73 96 121
59 90 120
74 96 120
97 106 119
106 112 119
104 110 117
105 111 118
107 113 120
106 112 118
104 110 117
105 111 117
106 112 118
105 111 116
106 112 118
106 112 118
104 111 117
102 110 116
83 117 112
38 124 103
15 125 101
14 126 102
31 124 102
78 118 110
103 110 115
103 110 115
106 113 118
105 111 117
103 109 115
104 109 115
103 109 114
103 109 114
102 108 113
102 107 112
99 105 109
48 74 56
34 68 42
33 66 40
33 67 41
36 68 44
96 103 105
100 106 110
96 104 106
63 85 68
44 77 36
86 99 93
104 107 112
95 110 122
95 118 132
87 108 120
70 103 113
39 109 117
18 112 120
10 113 122
15 116 125
34 110 119
75 114 124
44 77 72
36 73 65
36 73 65
37 73 66
37 75 67
37 74 66
37 75 67
38 76 69
38 75 68
38 76 69
45 76 69
76 88 84
80 92 89
92 105 106
103 117 122
110 125 134
117 133 144
122 139 154
123 140 155
126 144 162
129 145 166
131 87 144
135 72 141
138 73 143
142 76 149
143 76 149
142 75 147
145 77 151
146 78 153
147 78 154
129 147 171
130 148 172
130 149 174
132 151 175
129 148 171
130 148 174
129 146 172
127 145 171
128 146 171
129 146 172
126 143 169
125 142 167
74 109 103
54 98 77
55 100 79
55 99 79
57 103 82
56 101 81
56 101 81
56 101 81
54 97 78
54 98 79
53 96 78
92 72 101
121 60 132
124 132 163
126 143 170
123 138 166
125 140 167
124 141 169
121 135 163
120 136 164
120 136 164
117 132 161
113 128 157
108 122 152
101 113 142
81 91 133
44 49 116
26 30 109
22 26 111
29 34 109
59 68 116
89 102 132
106 121 148
72 81 143
55 59 138
56 59 140
53 57 136
52 64 132
42 89 100
38 96 87
38 96 87
38 97 88
38 94 85
37 94 85
37 93 84
43 100 89
71 135 112
77 142 115
76 140 113
76 141 114
77 142 114
76 137 112
105 141 142
123 145 162
126 147 166
127 148 167
126 146 166
129 148 169
129 149 170
130 150 171
131 150 171
131 151 172
131 151 172
108 138 138
59 116 58
59 116 57
60 118 58
59 117 58
59 116 57
58 114 56
59 117 58
80 116 79
166 169 169
185 187 198
181 186 200
178 185 200
178 185 199
180 184 195
175 175 183
145 154 170
117 137 152
101 109 126
72 52 78
76 54 82
81 72 95
110 121 142
117 129 151
119 132 152
122 134 151
97 92 92
103 105 109
105 110 115
107 111 117
96 80 123
88 46 125
89 47 130
89 48 132
89 48 135
94 86 120
102 106 116
100 106 116
38 79 114
4 76 117
4 76 118
4 76 118
14 76 116
72 93 115
104 110 118
103 109 116
104 110 117
104 110 116
104 110 116
103 109 115
104 110 116
103 109 114
105 111 117
103 110 116
102 109 114
76 110 105
17 119 96
13 120 96
13 117 93
13 117 93
13 117 94
14 118 94
81 113 107
104 110 115
103 109 113
102 109 114
104 110 116
102 108 112
102 107 112
101 107 112
100 106 110
99 105 109
74 87 83
32 65 39
30 62 38
29 59 36
30 60 36
58 73 65
100 106 110
73 89 85
25 73 51
6 71 44
63 84 70
106 111 116
100 90 95
118 140 160
112 137 157
109 133 152
100 126 143
89 116 131
78 105 118
77 102 115
74 102 114
83 109 121
82 109 120
35 70 62
34 69 62
35 70 62
35 71 63
36 71 64
36 72 65
37 74 66
37 74 67
37 73 66
36 71 65
40 73 69
115 135 151
122 140 158
121 139 155
122 140 157
124 143 159
127 145 163
127 145 164
128 147 167
127 146 166
127 126 156
130 69 136
132 70 137
134 71 139
136 72 141
136 72 141
138 73 144
142 75 147
140 74 145
142 75 147
131 149 173
133 150 175
131 150 174
131 148 173
131 149 174
130 147 172
131 149 174
131 148 173
131 149 174
130 146 172
129 146 172
131 146 173
85 114 115
53 95 75
52 95 75
54 97 77
55 99 79
54 97 78
52 94 75
53 96 77
52 93 74
52 93 75
50 90 72
86 83 104
114 113 144
118 126 155
122 130 160
120 131 160
122 135 162
121 134 163
119 132 161
120 134 163
118 131 161
117 132 160
112 126 155
110 124 153
106 118 150
95 107 136
91 103 131
86 96 123
85 96 125
90 102 129
101 114 141
104 119 148
110 127 155
66 72 138
54 57 136
54 58 136
50 56 127
40 85 95
37 94 85
37 94 85
36 92 82
37 93 84
37 92 83
36 92 83
37 92 83
36 90 81
42 96 85
59 109 90
55 107 83
54 105 82
60 106 86
89 118 118
102 127 135
109 134 144
117 139 154
120 143 158
123 144 162
126 147 166
126 148 167
127 147 166
129 149 169
128 148 168
129 148 169
124 144 162
66 114 74
54 107 53
55 109 53
58 113 56
55 109 54
54 107 53
73 116 72
173 174 177
188 190 200
180 186 200
176 184 200
174 184 200
174 182 197
173 178 190
182 185 196
184 184 189
114 133 127
76 67 85
77 49 79
81 56 86
80 55 84
92 83 108
131 148 169
129 145 167
124 140 158
106 111 119
90 86 85
105 110 115
107 112 118
98 96 114
80 42 113
80 42 115
79 42 116
78 42 119
74 47 114
95 97 110
80 90 109
4 69 106
4 69 106
4 70 108
4 71 109
4 72 110
6 71 109
70 90 112
99 106 114
101 107 114
99 105 111
102 108 114
101 107 113
102 108 114
100 107 112
101 107 112
98 106 111
97 106 110
30 111 91
13 112 90
12 109 86
12 109 86
12 109 86
12 109 86
13 111 88
55 108 94
100 107 111
103 109 114
99 105 109
103 109 113
99 105 109
100 106 110
97 103 107
93 98 102
87 93 95
49 67 56
28 57 34
27 55 33
27 55 33
29 53 34
82 90 91
60 79 72
7 67 42
6 67 42
6 67 41
90 99 100
89 78 78
114 124 142
128 147 171
121 132 151
121 130 148
119 128 145
125 142 163
122 145 167
123 144 166
122 144 165
122 145 166
104 125 142
33 67 60
33 65 58
34 68 60
34 68 61
34 67 60
35 69 62
35 70 63
35 71 63
35 70 63
36 70 64
36 69 63
120 139 159
128 147 169
131 150 173
130 149 171
129 148 170
130 149 172
129 147 169
130 149 171
131 150 172
126 103 145
126 67 131
127 67 131
130 69 134
131 69 135
133 70 138
136 71 140
136 72 141
134 70 137
138 72 141
125 152 165
132 152 174
133 150 174
133 151 175
131 148 174
132 149 175
132 149 174
132 148 173
132 148 173
131 146 172
130 145 171
129 142 169
107 126 140
51 92 73
50 91 72
51 93 74
51 92 73
52 93 74
50 90 72
50 91 72
50 89 71
50 90 73
52 88 74
96 98 119
108 111 137
111 114 142
120 127 156
123 133 161
125 138 165
123 137 164
125 140 167
125 139 166
125 141 168
124 140 168
127 143 170
126 143 170
123 139 166
124 142 169
123 140 165
124 141 168
124 141 167
124 141 168
125 143 169
126 144 170
125 143 169
71 78 137
52 56 131
51 54 128
45 72 110
37 92 83
36 92 82
36 92 82
36 91 82
36 90 81
36 91 82
36 91 82
35 88 79
36 88 79
35 87 78
62 96 95
96 118 127
100 123 132
107 130 140
111 133 146
112 135 149
119 141 157
120 141 158
123 144 162
123 145 162
126 146 166
125 146 164
127 147 168
127 147 168
127 146 166
127 146 165
127 146 165
109 132 139
55 102 59
50 100 49
50 99 48
50 100 49
51 102 50
142 149 145
194 192 199
188 190 200
182 187 200
179 186 200
177 183 197
170 173 183
162 159 162
163 160 163
186 183 189
167 169 169
79 56 80
75 38 76
77 40 77
76 40 76
77 47 80
131 145 171
130 149 170
125 139 158
104 116 117
97 99 101
99 102 106
105 110 115
105 109 114
84 70 105
73 37 101
73 37 103
71 38 107
66 36 103
75 69 97
72 81 99
4 62 97
4 63 96
4 64 97
4 64 98
4 67 102
4 68 103
14 67 101
88 97 107
95 102 108
98 104 109
101 107 113
99 104 110
100 106 111
98 104 109
97 103 108
95 103 107
89 99 102
23 99 81
11 98 78
11 98 78
11 100 79
11 99 77
11 98 76
11 100 79
58 102 90
93 101 104
98 104 108
99 106 110
101 107 111
101 107 111
98 104 108
93 99 102
89 94 97
77 82 84
44 57 48
24 49 29
23 48 28
32 50 37
75 82 83
64 78 75
5 59 36
5 60 36
5 60 37
35 66 50
95 95 98
96 93 104
111 111 125
93 58 51
93 45 26
99 48 27
101 50 28
105 56 39
112 91 96
127 139 159
130 149 171
129 148 171
115 135 155
32 65 58
31 62 55
32 64 57
33 66 59
33 65 58
33 66 59
34 68 61
34 67 60
34 68 61
34 67 60
38 67 63
126 144 166
132 151 175
132 150 174
131 150 173
132 151 174
134 152 176
132 151 175
131 149 172
131 150 173
122 103 143
117 62 121
121 64 125
125 66 128
126 67 130
125 66 128
129 68 133
128 67 131
131 68 134
129 68 132
100 151 135
99 148 134
113 150 150
130 151 171
131 149 173
133 151 176
132 149 174
132 148 173
131 145 171
130 145 170
129 144 169
130 146 170
128 143 168
72 100 98
49 88 70
47 87 68
48 87 69
47 86 69
47 86 69
47 86 69
46 84 67
45 81 65
90 109 120
121 131 157
124 137 163
124 136 163
126 139 165
126 141 167
127 143 168
127 142 167
129 144 171
129 146 172
129 146 172
126 146 167
97 130 127
68 118 88
53 113 67
54 112 69
70 117 91
97 129 128
125 145 168
130 149 174
131 149 174
131 149 173
130 148 173
91 102 144
49 52 124
49 52 123
38 81 91
34 87 78
35 88 79
35 88 79
35 89 80
35 87 78
34 86 77
34 86 77
34 85 76
34 85 77
35 86 78
41 86 79
124 146 166
127 148 169
127 147 167
127 147 168
127 147 168
128 148 169
127 147 167
126 146 167
127 147 168
127 147 168
126 147 167
128 148 169
122 142 160
122 142 160
120 140 157
118 137 154
112 132 146
99 122 127
54 91 62
42 85 42
42 85 41
55 89 54
160 159 165
185 184 189
192 192 199
190 191 200
187 189 200
183 185 194
169 166 170
144 135 131
131 121 116
161 156 156
171 170 172
112 102 113
78 47 81
79 45 81
76 37 76
85 55 87
138 145 175
183 209 241
157 171 190
148 165 166
147 170 168
100 103 106
103 107 111
103 107 112
100 102 110
77 61 94
64 33 89
63 33 92
58 31 88
63 54 83
76 77 91
24 60 89
3 55 83
3 57 86
3 58 88
3 59 90
4 62 94
3 62 93
66 80 95
87 93 101
93 99 105
93 100 106
98 103 109
96 103 107
96 103 108
92 99 103
93 101 105
83 92 94
43 87 76
10 90 70
10 91 71
10 88 68
10 85 65
10 90 69
10 89 69
76 97 93
94 101 105
97 103 107
95 101 104
95 101 104
97 102 107
96 102 105
91 97 100
86 91 93
69 73 73
54 58 56
40 49 42
50 58 53
71 76 78
66 75 75
12 53 34
5 58 35
5 57 35
5 53 32
70 79 77
72 50 49
90 70 73
83 40 22
85 41 23
89 43 24
92 45 25
97 48 27
99 49 28
101 50 29
106 59 44
124 129 147
129 148 170
128 146 170
47 72 72
31 61 54
31 61 54
30 61 54
31 62 55
31 62 56
32 64 58
32 63 57
33 65 59
32 62 57
72 92 100
129 151 170
125 152 163
127 151 165
130 150 172
133 152 176
132 151 175
133 151 175
131 150 174
131 150 173
115 106 139
111 59 115
120 63 123
121 64 125
120 63 123
123 65 126
124 65 128
125 65 128
124 65 128
124 64 126
99 148 131
98 147 131
95 144 128
101 145 134
125 148 165
132 149 173
131 148 173
133 150 174
130 148 172
130 147 172
130 146 170
129 146 170
129 146 170
118 135 156
68 94 92
43 79 63
44 80 63
44 80 63
42 77 61
42 77 61
41 74 60
74 97 100
119 135 157
122 137 160
126 142 165
126 143 167
125 142 166
127 144 168
128 145 170
129 147 171
130 147 171
130 148 173
116 141 153
57 112 73
49 110 62
50 111 62
49 109 61
49 109 61
48 108 61
48 107 60
58 110 74
118 141 156
132 150 174
131 150 174
131 149 173
123 139 167
54 59 121
46 49 115
34 83 78
33 84 75
34 86 77
33 84 75
34 86 77
34 84 75
33 83 74
32 80 72
33 83 74
33 82 73
33 83 74
32 79 71
121 141 161
130 149 172
129 148 170
130 149 172
130 149 172
128 148 170
130 150 172
134 153 174
133 151 172
131 149 170
129 147 169
124 144 163
122 141 159
117 137 153
115 135 151
109 129 142
104 123 134
94 112 120
80 97 100
67 84 84
59 75 73
90 98 100
150 149 155
168 167 170
182 181 184
190 188 194
190 188 195
187 184 192
160 154 159
123 115 113
100 91 85
129 123 122
158 156 158
126 123 132
80 46 83
81 43 83
88 57 90
84 48 86
139 144 171
197 219 250
191 212 238
196 214 236
184 205 226
93 97 104
102 106 110
103 107 112
101 105 110
97 99 106
82 74 95
62 42 84
54 34 74
51 47 63
70 70 81
65 72 87
7 51 77
3 50 76
3 53 79
3 52 78
3 54 80
3 55 82
62 74 87
83 89 96
87 94 99
90 95 100
94 99 105
91 96 100
94 99 103
92 98 102
87 94 97
84 91 93
72 85 84
29 81 66
10 76 59
9 78 60
9 75 57
23 76 61
60 81 75
87 94 96
91 97 100
94 101 103
94 99 102
94 99 103
96 101 105
91 97 99
88 93 95
84 90 92
80 84 85
67 70 70
67 71 71
69 73 73
71 76 77
28 51 40
4 50 31
4 52 31
4 51 30
47 62 55
69 54 53
75 50 48
78 37 20
77 37 20
81 39 21
86 42 23
90 44 25
90 44 25
94 46 26
99 49 28
100 50 28
103 57 42
124 136 156
129 147 170
103 120 137
29 57 52
29 58 52
29 57 51
31 61 55
29 58 52
31 61 55
30 61 55
30 60 54
47 92 60
77 138 86
79 150 80
79 152 80
81 156 82
85 158 90
102 156 123
125 150 162
132 151 174
132 150 174
132 150 174
125 133 159
107 57 111
110 58 114
113 59 115
117 61 119
119 62 121
115 59 117
118 61 120
119 61 121
119 61 120
97 144 128
95 143 126
93 140 124
93 140 124
98 139 130
130 149 171
130 148 172
129 147 170
128 147 169
125 144 166
126 144 166
124 141 163
119 137 157
116 133 152
105 121 138
74 92 96
48 70 64
34 62 49
31 57 45
44 65 60
66 82 87
91 107 121
104 120 137
109 126 144
117 135 155
119 137 157
124 142 164
124 142 164
127 144 167
128 146 170
129 147 171
117 140 154
52 109 65
48 107 60
48 107 60
49 108 60
49 108 60
48 106 59
48 107 60
47 105 59
47 104 58
50 104 63
116 139 154
130 148 172
131 150 174
130 148 173
100 113 146
45 48 110
32 79 74
32 82 73
32 81 73
33 82 73
32 81 72
32 81 73
33 81 73
31 78 70
32 80 72
31 78 70
31 77 69
32 78 70
119 139 159
128 146 170
128 146 169
127 146 170
130 149 171
144 162 186
147 166 189
140 158 182
137 155 178
142 161 185
144 162 185
139 157 179
130 149 170
123 142 162
124 143 163
122 142 161
120 139 157
121 140 159
119 137 155
113 132 148
118 137 155
118 132 146
124 126 131
140 141 143
154 154 156
166 164 167
169 167 172
163 159 168
140 134 145
102 97 101
88 83 82
111 107 108
136 134 138
139 149 158
145 152 180
96 69 102
88 52 90
94 62 99
183 198 225
198 219 246
202 222 249
196 218 247
143 160 183
103 115 132
106 113 122
102 105 110
103 106 111
97 101 106
97 99 106
84 84 92
69 68 76
70 67 75
74 73 81
77 77 85
65 70 79
20 47 68
2 44 66
2 45 68
3 48 71
26 51 71
67 72 78
78 83 88
83 89 94
89 94 99
91 95 99
92 97 101
91 97 100
92 97 101
86 93 95
84 90 92
77 85 85
70 78 77
56 72 67
47 67 60
57 73 68
68 78 76
84 90 91
89 94 96
89 95 97
93 99 101
94 99 102
95 100 104
94 99 103
93 98 101
90 95 98
87 91 93
82 86 88
77 81 82
73 78 79
66 71 71
46 54 51
4 46 28
4 48 29
4 45 27
36 52 43
62 53 53
87 86 96
71 35 21
71 33 18
73 35 19
77 37 20
81 39 21
84 41 23
90 44 25
92 47 26
89 49 29
94 47 27
98 49 28
108 94 101
123 141 163
120 137 159
82 99 111
27 53 48
26 53 47
26 53 47
27 53 47
28 56 50
29 57 49
61 116 65
71 136 71
72 139 73
76 147 78
77 149 78
79 152 80
80 155 82
81 156 83
84 156 89
117 150 147
130 147 171
131 149 172
130 147 171
109 93 127
102 53 105
105 55 108
108 56 110
110 57 112
108 56 110
113 59 116
112 58 115
109 56 110
92 137 122
93 139 123
93 140 124
92 139 122
88 133 118
112 142 148
129 147 170
127 146 168
126 144 166
124 142 164
121 139 159
114 132 151
113 131 148
107 124 140
98 114 127
88 102 113
77 91 100
78 91 102
80 93 103
86 101 112
100 116 131
101 117 132
109 126 143
115 132 151
118 133 151
116 129 144
118 131 146
125 142 164
127 146 168
131 149 172
130 149 172
64 111 82
47 104 58
47 104 58
47 104 58
47 104 58
46 103 57
47 104 58
47 103 57
46 103 57
46 103 57
45 99 55
65 107 85
125 143 166
124 142 167
119 135 160
119 136 160
96 109 137
45 78 81
31 77 69
30 76 68
30 76 67
31 79 70
31 77 69
31 77 69
31 77 70
31 78 69
30 76 68
30 75 67
43 80 76
124 142 166
126 143 167
126 144 167
131 149 171
144 161 184
136 154 176
134 152 175
133 150 173
131 149 173
134 151 175
133 151 175
137 155 179
141 159 181
134 153 175
129 147 169
130 148 170
128 147 168
128 146 168
129 148 169
128 147 168
128 147 169
122 138 158
112 115 124
116 119 124
122 124 128
134 135 139
140 140 146
131 129 139
117 113 127
101 100 105
101 97 109
114 98 148
120 97 172
115 99 168
138 138 196
162 175 211
164 174 198
188 202 226
200 219 244
196 215 242
182 205 235
147 167 192
125 142 164
121 137 158
121 138 158
108 114 123
101 104 108
98 99 104
95 97 102
89 90 96
81 80 88
75 75 81
74 74 82
77 78 85
78 80 86
75 77 83
60 65 74
48 57 67
50 57 66
62 65 71
70 74 78
79 83 88
82 88 92
87 91 96
87 92 96
91 96 100
92 96 100
92 98 101
89 94 97
86 91 93
83 89 91
81 86 86
78 83 84
77 82 83
80 85 85
80 87 87
84 91 91
88 94 96
89 94 96
92 97 100
92 97 99
93 97 100
91 95 97
95 100 103
89 94 96
88 92 95
83 87 88
81 85 87
71 75 75
62 67 67
36 45 40
3 41 25
3 40 24
52 62 57
63 60 60
90 96 109
100 102 116
66 31 17
66 31 17
71 34 18
74 36 20
75 40 22
59 63 41
39 75 50
16 85 58
7 89 61
28 89 61
52 83 56
80 66 47
108 123 140
106 122 139
99 113 128
76 90 101
38 53 53
20 41 37
22 44 39
24 44 41
55 105 58
66 127 66
71 136 70
73 140 73
73 140 73
75 144 75
78 150 79
79 152 80
79 152 80
80 153 81
81 154 83
115 145 146
126 142 165
123 138 161
124 138 162
99 79 113
95 49 97
101 52 104
102 53 104
102 53 104
108 56 110
102 52 103
100 53 103
90 134 118
89 133 117
90 133 118
88 132 116
86 130 115
96 134 127
129 147 170
128 147 169
126 145 166
127 146 168
126 145 166
127 146 168
126 145 167
123 142 163
123 142 162
121 139 159
121 140 160
121 140 160
121 140 160
125 144 165
124 143 164
124 141 162
114 122 130
104 101 92
102 95 79
102 95 79
101 95 78
101 94 79
108 108 106
122 134 150
109 134 144
45 100 55
45 100 55
45 98 54
46 101 56
45 100 55
45 100 55
45 101 56
46 101 56
45 100 55
45 101 56
44 98 54
43 95 54
103 125 139
113 129 153
107 121 145
102 116 138
93 105 126
64 85 95
29 74 65
29 74 66
29 72 65
29 75 66
30 76 68
30 74 67
29 74 66
29 72 64
28 71 64
28 71 64
78 102 112
124 141 165
125 142 166
124 142 165
136 153 177
138 155 178
133 150 174
133 151 175
130 148 171
134 152 176
131 149 172
132 150 173
133 151 174
134 152 174
144 162 183
134 152 174
130 147 170
129 147 169
130 149 172
130 148 171
131 149 172
130 148 171
130 149 171
116 120 129
120 122 129
122 124 130
123 124 130
121 122 129
119 119 126
113 112 121
118 95 173
123 75 212
124 72 219
122 71 214
120 69 210
116 67 203
114 69 197
127 118 195
146 166 200
147 171 200
142 165 193
127 146 170
126 144 166
126 143 164
127 144 165
127 144 165
123 139 159
107 112 118
99 101 106
94 96 101
93 95 100
88 89 94
85 86 91
84 85 91
85 86 91
79 81 86
81 82 86
79 81 85
73 75 79
70 73 76
75 77 81
76 79 83
80 83 86
85 89 93
87 91 96
89 94 97
89 93 97
90 95 98
90 94 98
86 90 93
87 92 94
85 90 91
86 91 92
82 87 89
84 89 91
85 89 91
86 92 94
86 90 92
87 91 93
90 95 97
92 96 99
92 96 99
91 95 98
91 95 97
89 93 95
88 92 95
88 92 94
82 86 88
81 84 85
72 75 75
55 59 58
52 55 53
58 64 61
79 83 84
73 73 74
92 99 112
129 147 169
90 87 97
63 30 16
63 30 16
66 31 17
59 44 27
29 66 43
6 78 52
7 83 56
7 85 58
7 90 61
7 91 62
8 94 64
8 95 66
57 102 91
103 120 136
97 112 127
88 100 114
81 91 102
70 80 89
66 75 85
63 86 76
62 116 59
63 122 63
66 128 66
69 133 69
71 136 70
74 142 74
75 145 76
77 147 77
79 152 80
78 150 79
79 151 80
84 148 92
115 128 148
113 123 145
108 115 137
101 105 127
88 76 102
79 47 82
84 42 85
85 42 86
90 48 91
93 70 102
110 112 137
87 129 114
88 131 116
85 127 112
87 130 115
86 129 113
85 126 113
131 150 172
131 150 172
130 149 171
130 149 171
130 149 171
133 152 175
131 150 172
130 148 170
130 148 171
131 149 173
130 149 171
131 149 172
130 149 172
130 149 172
127 143 163
106 104 99
99 93 77
101 94 78
100 94 77
100 93 77
99 93 77
100 93 77
98 91 75
98 92 77
88 99 86
44 95 53
42 92 51
43 94 52
44 96 53
44 97 54
43 95 53
44 96 53
44 98 54
43 94 52
44 97 54
43 93 52
43 94 52
89 117 118
119 136 161
116 133 157
115 130 155
111 127 150
106 121 145
53 84 86
27 69 61
27 69 61
28 72 64
27 70 62
27 69 62
27 68 61
27 67 60
26 65 58
41 74 72
119 137 159
126 144 167
124 142 165
131 148 171
139 156 179
133 150 173
132 150 172
132 150 174
132 149 172
131 149 172
133 151 174
135 153 177
133 150 173
132 149 171
134 151 173
140 157 178
131 148 171
131 149 172
130 147 170
131 149 172
131 149 172
131 149 172
130 148 170
123 135 151
119 119 125
116 116 121
119 118 124
118 117 122
116 114 123
120 87 190
124 72 218
122 71 216
122 71 216
122 71 215
120 69 210
117 67 205
115 66 198
109 62 190
106 73 175
123 135 164
127 144 165
129 145 167
128 145 166
129 146 167
127 143 164
127 144 164
125 141 162
123 138 157
103 108 115
95 97 101
94 95 99
89 90 94
86 87 92
84 84 89
83 85 90
86 88 92
83 85 90
78 79 84
80 81 84
80 82 85
81 83 86
75 78 82
82 85 89
84 87 90
85 89 93
85 88 92
87 91 94
88 92 95
87 91 94
88 92 94
87 91 93
87 91 93
88 91 94
86 90 92
87 91 93
86 91 92
87 90 92
88 92 94
91 96 98
87 92 94
89 92 94
90 94 96
91 94 96
90 94 97
86 90 91
86 89 91
86 89 91
82 85 86
78 81 81
71 73 73
65 67 66
72 75 74
83 86 87
81 81 82
102 111 123
128 145 167
129 146 169
91 88 99
61 29 16
59 28 15
55 37 22
11 63 41
6 73 49
6 78 52
7 84 57
7 84 57
7 87 59
7 90 62
7 91 62
8 92 63
13 94 65
60 106 96
119 137 157
117 134 154
119 135 156
115 131 151
116 132 153
77 111 92
58 112 57
60 116 59
63 122 63
65 126 65
70 134 70
70 135 71
74 142 74
74 142 75
75 144 75
76 145 76
77 147 77
77 148 78
106 136 132
115 125 147
106 112 133
99 103 123
93 93 113
77 75 92
68 64 80
73 68 84
76 73 89
90 88 106
99 102 121
84 125 110
84 125 110
84 124 110
83 124 110
82 124 109
83 124 110
132 151 173
133 152 175
132 151 174
133 152 175
134 153 176
132 151 175
131 150 173
133 151 174
132 151 174
130 149 172
133 152 175
134 153 176
133 151 175
130 147 168
104 101 95
99 92 76
99 93 76
99 92 76
98 92 76
98 92 76
98 92 75
98 91 75
96 89 74
97 90 75
96 89 74
71 89 61
41 92 50
42 92 51
41 91 50
42 92 51
41 91 50
42 92 51
42 93 52
42 92 51
42 92 51
42 93 51
42 91 51
90 116 118
126 144 168
125 143 167
121 140 163
122 140 164
119 137 160
112 131 152
56 82 86
25 65 58
25 65 58
26 65 58
24 61 55
25 63 56
25 63 56
40 70 69
108 126 145
119 136 158
121 139 161
122 140 162
131 146 167
137 154 176
135 152 175
133 150 174
128 146 171
129 146 170
129 147 170
134 152 175
133 151 173
132 148 170
129 147 168
127 144 165
138 156 175
131 149 172
131 149 171
132 149 172
132 149 172
132 149 172
130 147 170
131 148 171
130 147 169
117 124 135
110 108 112
110 108 111
105 102 104
118 89 178
121 70 214
123 71 217
121 70 214
121 70 213
119 69 211
120 69 210
115 67 205
111 64 196
109 63 192
102 59 178
100 72 164
126 142 163
125 142 162
129 146 167
126 142 163
118 138 166
87 122 168
58 110 168
49 107 168
49 103 161
58 97 142
77 95 121
90 92 97
88 90 93
83 84 88
83 83 86
83 84 88
83 85 89
81 83 87
79 81 84
80 82 86
83 85 88
81 84 87
83 86 89
85 87 90
85 89 91
87 90 93
86 88 91
86 89 91
88 91 94
88 93 95
88 92 94
87 91 93
85 88 90
84 87 87
86 89 91
89 93 96
87 90 92
86 89 91
89 93 95
88 92 94
90 93 95
87 90 92
88 91 92
89 92 94
86 89 90
86 89 91
85 87 88
78 81 81
78 81 81
73 75 75
75 77 77
81 83 84
81 83 85
104 113 126
127 143 165
126 142 164
127 144 165
104 109 123
58 28 15
57 29 16
29 56 36
6 69 45
6 75 51
6 76 51
7 81 55
7 82 56
7 85 58
20 86 58
33 90 61
40 95 64
43 97 67
44 99 68
63 108 88
87 120 117
116 137 153
126 144 166
127 144 167
64 103 71
53 104 52
59 114 58
62 119 61
63 123 63
65 126 65
68 130 67
70 135 70
71 136 71
70 134 70
74 141 74
74 141 74
74 141 74
98 138 118
124 138 162
124 138 162
123 137 160
120 128 150
122 127 147
120 125 145
119 126 148
117 127 150
115 125 147
115 126 148
81 121 106
80 119 105
80 119 104
81 121 106
78 118 104
90 123 120
133 151 174
132 151 173
132 151 174
132 151 174
133 152 175
133 152 175
131 150 173
131 150 173
133 152 175
133 152 175
133 151 175
133 151 174
133 152 175
111 117 123
97 90 74
97 91 75
97 91 75
97 91 75
98 91 75
96 90 74
97 90 74
95 88 73
94 88 73
94 87 71
95 88 72
91 85 70
50 84 50
39 85 47
39 86 47
40 88 49
40 89 49
40 87 48
41 90 50
41 90 50
41 91 50
40 89 49
39 87 49
89 116 118
125 144 166
125 143 166
121 139 161
117 135 156
114 132 153
108 126 144
100 116 132
63 80 87
35 57 56
20 50 44
20 52 46
26 50 46
55 70 75
87 101 113
97 113 128
104 121 138
111 128 146
113 130 148
128 145 164
136 152 174
139 156 177
138 155 179
135 152 178
135 152 176
136 154 176
137 154 177
134 151 173
137 154 177
128 145 167
128 145 167
126 144 164
125 142 162
132 149 172
130 148 171
129 146 169
130 147 170
129 145 167
126 142 162
125 140 160
120 134 152
110 117 129
96 94 96
95 83 115
120 70 209
121 70 213
121 70 212
120 69 211
120 69 211
117 68 206
114 66 202
113 65 201
111 65 199
105 60 186
100 58 179
96 55 167
109 109 155
125 140 161
123 140 161
90 124 167
24 103 172
6 102 173
6 101 173
5 101 172
5 100 170
5 98 166
7 94 159
37 88 139
81 89 103
85 85 88
84 84 88
83 83 85
87 88 91
81 82 84
81 83 86
82 84 87
80 82 84
80 83 86
81 82 85
82 85 88
83 85 88
84 86 89
86 89 91
85 88 91
85 88 89
85 89 91
85 87 89
85 89 91
87 89 91
86 89 90
84 88 90
87 90 92
88 91 93
85 88 90
88 91 93
89 92 94
86 88 90
85 89 91
86 89 90
83 86 87
83 85 86
83 85 86
80 83 84
77 80 80
81 84 84
78 80 81
79 81 82
86 89 92
114 125 141
126 142 162
127 143 165
128 144 165
127 143 163
118 131 150
57 29 20
46 36 22
5 59 38
5 66 43
6 74 50
6 77 52
6 78 53
8 79 53
31 85 57
41 90 61
42 93 63
44 98 67
44 98 67
45 100 68
45 100 69
46 101 69
50 103 75
96 125 129
128 146 168
52 95 53
49 95 47
52 103 52
57 110 56
61 118 60
60 116 60
67 128 66
67 129 67
69 132 69
70 134 70
70 135 70
71 136 71
71 136 71
96 137 117
129 145 167
131 133 151
139 123 131
146 122 127
149 122 125
150 123 127
148 124 129
144 129 139
135 137 156
128 143 166
74 111 98
77 114 101
77 115 101
76 113 100
74 112 97
111 136 146
131 150 172
130 149 171
133 152 174
133 152 174
131 151 174
132 151 174
131 151 173
133 152 176
132 151 174
133 152 176
132 151 174
133 152 176
130 147 168
97 93 82
95 88 72
95 89 73
93 87 71
94 88 72
93 87 72
94 88 72
92 86 71
94 88 72
93 86 71
92 85 70
92 85 70
89 82 68
69 82 58
38 84 46
38 83 46
37 82 45
37 82 45
38 84 46
39 86 48
39 87 48
39 87 48
38 83 47
38 83 46
110 131 146
122 141 163
117 136 156
116 134 154
114 131 151
109 126 144
98 115 130
91 106 120
85 98 110
74 87 96
62 73 80
68 78 88
69 81 89
80 93 105
89 104 117
100 115 131
106 122 139
110 127 145
115 131 151
116 129 145
109 116 126
132 149 170
135 153 175
138 156 177
138 155 178
136 153 176
134 152 176
130 147 168
119 135 156
91 105 120
103 119 136
128 146 167
118 136 152
127 144 166
128 145 167
127 142 163
126 141 162
124 138 157
124 138 157
119 131 149
114 124 140
105 112 124
93 97 107
99 73 156
114 66 201
115 67 203
116 67 204
116 67 204
113 66 202
115 66 203
112 65 201
108 63 195
102 60 185
101 59 184
95 56 173
91 53 163
92 75 146
123 137 157
75 115 165
5 99 171
5 101 173
5 101 172
5 100 173
5 100 170
5 99 169
5 99 168
5 96 163
5 94 158
29 90 146
77 83 95
83 83 86
79 80 84
79 79 81
82 83 85
78 79 81
77 79 82
80 81 83
80 82 84
78 80 82
80 82 84
83 85 87
82 83 86
80 82 85
83 85 87
80 83 84
85 87 89
81 84 86
83 86 87
81 84 85
84 87 88
83 86 87
83 89 89
73 107 101
65 124 114
63 127 116
68 121 113
73 103 98
83 88 89
84 87 88
81 83 84
80 83 83
82 84 85
75 77 77
74 76 77
78 80 80
77 79 79
90 94 100
116 128 145
124 138 158
123 138 157
124 138 158
123 137 157
124 139 159
124 139 159
91 92 104
39 41 26
5 62 41
5 67 45
6 73 49
6 74 50
8 74 50
29 78 52
39 86 58
42 92 62
43 94 64
43 97 66
44 97 66
45 99 67
45 99 68
45 99 68
45 100 68
45 100 68
88 120 118
62 99 70
49 96 48
53 102 52
55 107 54
59 116 59
60 116 59
62 121 62
64 123 64
65 125 65
67 129 67
69 133 69
70 133 70
68 130 68
101 134 117
137 123 132
141 115 118
144 118 121
147 120 123
147 121 124
149 122 125
150 123 126
149 122 125
149 123 126
143 130 141
74 109 96
73 109 96
73 110 96
72 109 95
80 112 107
129 149 171
132 150 174
130 149 172
132 151 173
131 150 173
131 150 173
133 152 175
132 151 174
133 152 175
133 151 175
133 152 175
132 151 174
130 149 172
122 137 154
104 107 108
113 124 135
114 125 136
111 119 128
99 99 95
92 87 72
91 85 70
91 85 70
89 83 68
90 83 68
88 82 68
90 84 69
115 125 109
141 169 151
154 191 173
153 192 173
144 181 162
127 161 140
79 113 87
38 81 46
35 79 43
37 81 45
37 82 46
66 97 87
122 141 162
123 141 163
122 140 161
121 139 161
118 137 157
120 138 158
118 136 156
116 134 154
113 130 149
114 131 150
112 129 148
113 130 149
116 133 153
114 131 151
118 136 156
120 137 157
121 138 159
124 142 163
123 140 162
133 150 164
124 126 134
134 150 172
133 153 175
107 129 137
130 148 169
132 150 173
120 143 159
123 142 163
95 111 133
54 81 84
63 95 92
162 180 191
122 141 158
127 143 164
128 144 166
124 139 159
128 144 165
123 137 156
125 140 160
123 137 156
120 133 151
119 130 148
115 125 141
112 86 180
114 66 200
115 66 201
116 67 205
113 66 200
113 65 199
111 64 198
109 64 197
104 61 189
96 57 179
96 56 177
91 53 169
87 51 158
79 47 137
91 118 157
11 99 170
5 98 168
5 100 171
5 98 169
5 100 171
5 99 170
5 99 170
5 98 167
5 97 164
5 95 160
5 92 154
34 86 135
80 81 85
77 78 80
80 80 83
79 79 81
79 81 82
77 79 81
79 80 83
78 78 81
79 80 83
76 77 79
79 81 84
80 82 84
80 82 84
80 81 82
77 79 80
82 85 86
79 81 81
83 84 86
81 83 85
82 86 87
61 115 107
34 149 133
19 161 142
17 164 145
17 167 148
17 166 146
20 164 145
44 148 132
73 107 101
78 80 81
76 78 78
77 79 80
79 81 82
74 75 75
80 82 83
103 110 121
116 129 146
116 128 145
119 132 150
117 130 148
116 129 147
118 132 150
117 130 149
118 131 150
115 128 147
61 76 76
5 62 41
5 65 43
5 68 46
6 72 48
22 74 50
38 83 56
40 88 59
41 91 61
42 94 64
43 95 65
43 96 66
44 98 67
44 98 67
44 98 67
44 98 67
44 96 66
45 97 67
61 96 76
47 91 46
47 93 47
50 98 50
54 105 54
57 110 56
59 115 59
63 121 63
63 122 63
64 123 64
65 125 65
65 124 65
75 126 71
118 108 100
136 112 114
138 113 116
142 116 118
146 119 122
145 119 121
144 118 121
147 120 123
147 120 123
148 121 125
149 121 124
69 104 91
69 103 91
65 99 86
71 103 95
118 139 156
128 147 169
128 147 169
127 146 168
125 144 165
128 148 170
128 147 170
128 147 169
130 149 172
129 148 170
130 149 172
132 151 174
132 151 175
137 159 187
142 169 202
145 174 208
147 176 211
146 175 209
144 173 207
142 170 204
130 153 177
106 114 120
87 83 69
85 80 65
87 81 66
100 104 88
154 184 166
174 216 199
170 216 202
167 214 202
166 214 202
168 215 202
171 217 202
171 212 195
138 172 153
62 96 69
35 78 43
42 77 54
112 132 148
125 143 165
121 140 161
125 143 166
125 144 165
126 144 166
125 143 165
124 142 163
127 145 168
125 143 165
125 143 165
124 142 164
127 145 168
125 143 165
126 144 166
126 144 166
126 144 166
128 145 168
128 146 168
128 146 169
174 189 210
172 175 184
181 196 219
174 198 221
80 129 89
99 102 116
120 109 145
112 178 157
156 185 195
79 103 121
56 93 92
153 173 188
195 212 236
128 145 167
127 144 166
127 144 166
128 144 166
128 145 166
127 143 164
127 143 164
128 143 164
126 141 161
125 140 161
125 140 161
112 85 184
110 64 193
110 63 193
110 64 195
110 64 196
111 64 196
107 62 193
104 61 188
97 57 181
95 56 176
90 53 167
85 49 157
73 43 140
75 46 135
30 96 162
5 97 167
5 97 167
5 97 168
5 98 167
5 97 166
5 97 166
5 98 166
5 98 166
5 94 160
5 92 156
5 91 153
5 86 143
84 103 128
85 88 92
75 75 76
78 78 80
72 72 74
71 71 72
75 75 77
74 74 76
76 77 78
74 74 75
76 77 78
78 79 81
77 78 79
74 76 76
75 76 77
78 79 81
78 79 80
76 78 79
73 82 80
46 139 124
18 157 139
17 161 143
17 166 146
17 164 145
17 166 147
17 166 147
17 165 146
17 164 145
23 161 142
56 125 113
72 75 75
71 72 71
73 75 75
89 94 101
109 120 134
109 120 135
112 124 139
110 121 136
110 120 136
108 118 132
109 119 134
106 115 129
108 117 132
102 110 125
101 109 123
64 79 82
5 60 40
5 63 42
5 67 45
7 66 44
31 74 50
38 84 57
40 88 59
41 92 62
42 93 63
43 95 64
42 93 63
43 95 64
44 96 66
44 97 66
43 94 64
42 94 64
43 95 64
51 95 70
44 86 43
45 89 45
49 96 49
51 100 51
53 104 53
56 108 56
61 117 60
60 115 60
61 117 61
62 119 62
64 122 63
105 108 90
128 105 106
135 110 112
136 112 113
139 114 116
141 116 118
142 116 118
144 117 120
145 118 121
146 119 122
146 119 121
147 120 123
61 92 80
60 92 80
72 97 95
107 126 140
114 132 149
116 134 152
118 137 156
122 141 160
123 142 163
124 142 163
128 147 169
126 145 166
129 148 170
128 147 170
130 149 171
131 150 174
140 165 195
144 173 207
144 173 206
144 173 206
145 173 205
144 173 205
144 172 204
144 172 204
143 172 202
141 170 200
119 139 154
87 83 71
103 112 96
167 203 183
174 218 202
168 214 202
163 212 202
161 211 202
160 210 202
162 211 202
165 213 202
170 215 202
173 216 198
151 185 166
69 98 80
101 120 133
116 134 153
119 137 157
117 136 155
123 141 162
122 140 162
125 143 164
121 140 161
125 144 165
128 147 169
127 145 167
125 143 165
127 145 167
128 146 168
128 147 169
128 146 168
128 147 169
130 147 170
128 146 169
128 146 169
129 148 171
150 167 189
196 213 236
191 204 224
203 222 247
188 212 229
171 182 199
144 140 145
209 228 250
212 229 253
170 190 208
144 167 182
200 219 245
159 177 201
129 146 167
128 144 166
130 146 169
128 145 168
129 145 167
127 144 165
127 144 165
128 144 165
127 143 164
125 141 161
126 142 163
111 93 174
106 61 187
106 61 185
107 62 189
106 61 189
105 61 188
101 59 183
100 58 182
94 55 175
88 52 168
83 50 162
78 47 152
72 42 137
56 59 135
5 94 162
5 94 163
5 94 163
5 95 164
5 95 164
5 95 163
5 95 163
5 94 162
5 95 162
5 94 160
5 91 155
5 90 151
5 86 144
53 90 130
100 108 119
91 96 104
77 78 81
70 68 69
68 68 69
67 67 68
71 71 71
69 69 69
69 69 70
71 71 72
64 65 65
72 73 74
72 73 74
70 70 71
68 69 69
72 73 73
73 75 76
48 126 114
17 155 138
17 160 141
17 162 144
17 161 142
17 162 144
17 162 143
17 164 145
17 165 146
17 162 143
17 162 143
17 159 140
53 114 103
81 84 90
97 104 115
103 113 125
103 113 125
107 117 131
105 115 128
106 117 131
106 116 129
104 114 128
101 110 122
97 104 115
97 103 114
93 99 109
84 89 97
57 67 67
4 55 36
5 60 40
5 62 42
15 63 42
35 77 51
37 83 55
39 87 59
39 87 59
41 90 61
42 93 63
41 91 61
42 94 64
42 93 64
42 93 63
42 92 63
41 91 62
42 93 63
42 89 62
77 103 99
43 85 43
46 91 46
48 94 48
49 95 48
50 99 50
54 105 54
55 106 55
58 113 58
58 111 58
68 108 63
115 97 95
125 103 104
130 106 107
135 111 112
137 112 114
139 113 116
140 114 116
139 114 116
141 115 117
139 114 116
142 115 117
139 114 116
48 65 61
67 80 84
79 94 101
88 104 114
101 118 131
104 122 137
112 130 146
117 135 153
120 139 158
125 144 165
125 144 166
124 143 164
127 146 168
128 147 169
127 147 168
137 163 193
142 170 202
144 172 204
142 169 198
146 169 189
149 165 169
149 163 161
149 162 161
147 163 168
142 165 184
143 171 199
141 172 198
114 138 148
149 185 167
175 218 200
170 216 202
165 213 202
162 211 202
161 210 202
160 210 202
162 211 202
164 212 202
167 214 202
167 210 194
169 207 187
143 174 159
97 114 124
104 120 136
110 127 145
111 128 146
114 132 150
120 138 158
122 140 161
123 141 163
122 140 161
126 144 166
126 145 167
129 147 169
126 145 167
127 145 167
129 147 169
130 148 171
128 146 168
127 146 168
131 149 171
130 149 171
129 147 170
131 148 171
172 191 216
190 207 231
184 200 221
193 210 231
187 202 223
204 221 246
208 227 253
207 227 253
207 227 254
201 222 250
181 201 229
132 149 171
127 143 165
129 146 168
130 146 169
129 146 169
129 146 168
129 145 167
128 144 166
127 143 166
125 141 163
126 141 163
126 142 164
116 111 170
100 58 177
104 60 183
101 58 179
101 58 180
100 58 178
95 55 173
94 55 172
91 54 170
85 50 162
77 46 149
73 43 143
66 39 128
49 67 139
5 91 157
5 92 159
5 93 160
5 92 159
5 92 159
5 93 160
5 92 159
5 90 154
5 93 159
5 91 154
5 90 153
5 85 142
4 83 139
31 81 128
97 105 116
94 101 110
92 99 109
84 88 94
70 71 74
61 61 61
58 57 57
61 61 60
61 61 62
61 60 60
61 60 61
62 63 63
65 65 65
68 68 68
67 68 68
62 62 62
55 89 83
16 152 135
17 160 142
17 158 139
17 159 141
16 158 140
17 160 141
17 163 144
17 159 141
17 159 140
17 159 141
16 158 139
17 160 141
26 154 136
85 108 112
91 98 108
92 99 108
100 108 119
102 111 123
98 106 118
102 111 122
100 109 120
98 107 119
99 108 120
99 108 120
98 107 119
93 101 112
93 99 109
90 98 107
20 56 42
5 58 39
5 60 40
19 63 42
34 76 51
37 82 55
37 83 56
39 87 58
40 90 61
40 89 60
40 89 61
41 90 61
41 92 63
41 90 61
41 91 62
41 89 60
41 89 60
39 85 58
89 113 116
82 105 102
42 82 44
44 88 44
46 90 46
49 97 49
51 99 51
51 99 51
52 101 52
59 104 64
104 112 110
118 97 97
125 103 103
128 105 106
129 106 108
134 109 111
136 111 112
135 110 112
136 111 113
139 113 116
137 112 114
134 110 112
141 115 117
93 108 119
97 113 125
103 120 134
110 127 144
116 134 152
118 136 156
123 141 162
121 140 160
125 143 164
126 145 166
126 145 167
128 147 169
128 146 168
130 149 172
134 158 185
137 165 196
140 168 200
143 164 182
153 158 131
160 152 62
161 150 25
164 151 3
162 150 3
162 150 20
159 149 51
153 156 119
141 162 167
127 162 172
137 181 167
168 212 196
172 217 202
168 214 202
165 213 202
164 212 202
164 212 202
165 213 202
167 214 202
170 215 202
168 209 192
155 187 167
154 186 167
114 136 134
102 118 132
108 125 142
113 130 149
117 134 154
118 136 156
121 139 159
124 142 164
126 143 165
126 144 166
127 145 167
127 145 167
129 147 170
129 147 169
130 148 172
130 147 171
130 148 170
131 149 173
130 148 171
130 148 171
132 149 171
131 149 171
134 151 174
170 191 219
190 213 244
181 204 232
196 218 247
200 222 251
200 222 252
198 221 250
195 218 249
174 195 225
132 149 171
131 147 169
130 146 169
130 146 167
130 147 169
129 146 168
130 147 169
127 143 164
127 142 167
120 135 175
108 122 190
101 115 202
99 112 198
99 109 195
95 61 188
97 56 175
97 56 171
97 56 173
94 54 170
91 53 166
89 52 162
86 50 160
77 46 147
75 45 145
65 39 128
63 38 121
58 84 140
5 89 153
5 89 154
5 91 156
5 89 154
5 90 154
5 89 152
5 89 154
5 89 153
5 88 150
5 89 151
5 88 149
4 85 144
4 83 138
26 82 132
83 90 100
87 93 102
79 84 91
79 83 91
76 80 86
72 76 81
60 62 66
53 53 55
51 50 51
48 47 46
54 53 53
53 52 52
53 53 52
52 51 51
53 53 52
55 55 54
35 129 115
16 150 133
16 153 136
16 156 138
16 155 138
16 157 139
16 155 137
16 154 137
16 158 140
16 156 137
16 157 139
16 155 137
16 157 138
16 152 133
59 127 118
88 95 104
92 100 109
92 100 110
93 101 111
95 105 116
94 104 115
103 113 125
100 109 121
98 108 120
101 110 122
104 114 127
103 113 126
99 110 122
104 116 131
73 88 93
4 50 34
4 56 38
19 61 40
32 72 48
36 79 53
36 81 55
38 84 56
38 85 57
40 88 59
39 88 59
40 88 59
40 89 60
40 88 59
41 89 60
41 89 60
39 85 57
37 81 55
71 94 90
84 99 104
70 87 85
47 72 53
37 72 38
38 77 37
41 82 41
49 86 53
73 102 88
99 118 126
106 105 112
112 94 93
119 98 98
126 103 104
128 105 106
129 106 107
128 105 106
133 109 111
135 110 112
132 107 109
133 108 110
138 112 114
131 107 108
122 141 161
123 140 161
123 140 161
124 143 164
125 143 164
126 144 167
127 145 167
127 145 168
128 147 170
128 146 169
130 148 171
130 148 171
131 149 172
130 149 173
133 160 188
135 162 191
144 157 157
157 149 63
161 149 10
162 149 3
163 149 3
163 149 3
162 149 3
161 147 3
159 146 3
159 146 3
155 147 55
135 152 121
126 168 153
165 207 191
175 218 201
172 217 202
170 216 202
170 216 202
170 216 202
170 216 202
172 217 202
175 219 202
174 215 196
148 177 157
129 150 136
131 158 150
118 136 155
120 138 158
122 139 160
122 140 161
126 145 167
123 141 162
125 144 166
126 144 166
129 147 170
129 147 170
130 148 171
129 147 170
129 147 169
128 146 169
128 146 167
131 148 170
131 148 171
130 147 169
128 144 164
129 145 166
131 148 170
133 150 173
132 150 173
148 169 197
172 196 228
181 207 240
184 210 243
183 209 243
171 196 228
148 168 196
128 144 167
129 145 168
130 147 169
130 146 169
128 144 166
128 144 166
128 144 166
129 144 167
118 132 181
89 102 207
63 73 229
56 66 235
55 65 234
55 65 233
55 65 231
58 64 226
66 61 213
86 56 182
92 53 165
93 54 167
88 51 161
80 47 150
81 47 153
74 43 141
65 38 126
61 36 120
81 75 124
83 106 142
5 85 147
5 86 149
5 85 146
5 86 150
5 87 152
5 88 151
5 88 152
5 88 152
5 86 149
5 86 147
4 83 141
4 81 137
4 78 131
34 81 127
84 90 102
87 93 103
81 87 95
75 80 88
69 73 79
69 71 78
63 67 72
55 57 60
51 53 57
48 50 54
38 39 41
36 36 38
34 34 33
31 31 30
39 38 37
36 51 48
18 141 125
15 145 129
16 151 134
16 153 136
16 153 136
16 152 135
16 152 135
16 153 136
16 153 135
16 153 135
16 153 135
16 153 135
16 151 133
16 150 131
33 138 122
77 87 93
87 95 103
90 98 108
91 100 110
91 100 110
91 101 111
95 105 116
96 105 116
96 106 116
96 106 117
98 108 120
100 112 124
98 109 121
102 112 125
97 107 119
57 74 75
4 50 33
15 55 37
33 73 48
34 77 51
35 79 53
36 81 55
38 84 56
37 83 56
38 84 56
37 82 55
39 86 58
38 84 57
37 81 55
37 82 55
37 81 55
36 78 53
78 97 98
81 95 100
73 86 89
62 74 73
55 71 68
50 68 65
57 82 78
63 90 86
74 97 96
89 108 114
98 96 98
109 91 90
114 94 94
121 100 101
122 100 101
129 105 107
128 104 106
129 105 106
128 105 106
130 106 107
129 106 108
129 105 107
128 104 106
126 143 165
126 144 166
128 145 168
128 146 168
127 145 167
128 146 168
130 149 171
130 148 171
130 148 171
130 148 171
129 148 170
129 147 170
129 147 169
130 151 177
134 161 189
142 156 156
157 146 40
159 146 3
159 147 3
159 146 3
161 148 3
158 145 3
161 147 3
161 147 3
157 144 3
157 144 3
155 142 3
153 141 25
133 152 114
158 196 175
166 200 170
164 198 167
171 210 188
176 219 202
177 220 202
178 220 202
179 221 202
179 220 201
180 220 200
149 182 163
103 119 119
122 147 138
120 139 157
124 142 164
125 143 164
127 145 168
125 143 165
129 146 169
129 147 169
128 147 169
128 146 168
131 149 172
130 148 171
129 148 171
129 147 170
129 147 171
127 144 167
129 146 168
131 148 169
130 146 167
129 145 165
128 143 163
128 143 163
129 146 168
133 151 175
131 150 174
128 147 173
128 148 175
129 150 178
124 144 170
126 145 171
126 144 168
127 143 167
130 146 169
128 143 166
129 145 168
132 148 171
129 144 167
128 144 168
112 126 186
66 76 221
54 64 229
55 65 232
54 64 229
54 64 230
54 64 229
54 64 230
54 64 227
54 64 226
56 62 218
70 55 187
84 49 155
82 47 149
79 46 147
74 43 139
67 39 128
63 36 121
69 58 113
105 114 135
91 106 132
4 83 142
4 82 142
4 84 146
4 83 144
5 85 147
4 82 143
4 84 144
4 82 141
4 82 141
4 82 139
4 84 142
4 80 135
4 76 126
57 84 117
88 95 107
86 92 103
79 85 93
82 88 97
78 83 92
74 79 87
67 72 78
60 65 70
58 61 65
54 57 61
50 52 56
48 51 54
43 46 49
40 42 44
36 39 41
29 61 57
15 138 123
15 144 128
15 145 129
16 151 134
16 148 131
16 149 133
16 148 131
16 149 131
15 147 130
15 149 131
15 148 130
15 149 130
15 148 129
15 145 127
26 139 122
79 95 100
86 94 103
88 97 106
90 99 108
89 98 107
89 99 108
90 99 109
93 103 114
93 103 114
91 101 111
90 100 109
96 106 117
94 104 115
92 103 113
87 97 106
82 92 101
56 71 73
18 48 35
28 65 43
32 72 48
34 76 51
34 77 52
35 78 53
36 80 54
36 80 54
37 81 55
37 81 55
37 81 55
37 83 56
36 79 53
36 78 53
41 77 58
103 120 133
104 119 133
98 117 127
85 116 119
66 114 107
55 116 104
55 118 106
55 118 105
59 119 108
69 119 112
86 108 105
102 93 90
112 92 92
118 97 98
121 99 100
123 101 102
125 102 103
124 101 102
122 100 101
124 101 102
124 101 102
122 100 101
127 104 105
129 146 168
128 145 167
127 145 168
128 146 168
129 147 170
128 146 169
131 149 172
130 147 170
127 145 167
130 147 171
127 145 167
129 146 169
128 146 169
127 150 175
134 153 168
154 146 67
157 143 3
158 144 3
158 144 3
158 145 3
160 147 3
158 144 3
156 143 3
157 144 3
156 142 3
155 141 3
155 141 3
151 138 3
146 138 40
136 156 116
134 148 86
133 145 71
153 177 135
176 213 187
181 220 198
178 216 194
169 206 187
159 194 181
152 185 179
136 170 156
100 121 125
114 139 133
122 141 158
128 146 169
128 146 169
129 146 169
129 147 169
129 147 170
129 147 170
128 146 170
130 148 171
130 148 171
130 148 170
130 148 172
131 149 172
130 148 170
131 149 172
130 147 170
130 147 170
131 147 169
131 148 171
130 148 170
134 152 175
133 150 174
133 150 174
132 149 172
131 149 173
131 149 173
131 149 172
131 148 172
128 145 169
125 142 166
126 143 167
127 143 166
129 145 169
129 145 169
129 145 168
129 145 169
115 129 184
61 71 216
52 62 222
53 62 223
53 62 223
54 64 227
54 64 226
54 63 224
54 63 225
53 63 223
54 63 224
53 63 223
54 61 215
70 53 179
73 42 136
67 38 127
62 35 119
63 38 114
66 58 102
87 92 114
92 97 118
95 101 122
42 82 131
4 79 137
4 79 138
4 80 139
4 82 142
4 79 138
4 79 137
4 78 135
4 79 136
4 76 131
4 77 130
4 74 124
4 70 118
77 92 114
92 100 113
92 100 114
88 95 106
89 96 106
83 89 100
82 88 98
82 88 97
76 83 91
74 79 87
71 76 82
69 74 81
69 75 82
69 73 79
66 70 75
62 67 73
54 77 77
16 138 122
15 140 125
15 141 125
15 142 125
16 148 131
15 145 128
15 144 127
15 142 125
15 143 126
17 144 128
19 135 122
22 132 122
20 137 124
18 137 122
27 132 117
82 100 105
88 97 106
91 100 110
89 98 108
92 102 113
97 107 119
96 106 117
89 99 109
94 105 115
91 101 110
87 97 106
86 94 103
84 92 100
80 89 96
73 82 89
65 73 78
57 65 69
54 63 67
32 56 44
30 68 45
32 71 48
32 73 49
34 75 51
34 76 51
34 77 52
34 77 52
35 77 52
35 77 52
34 76 51
35 76 51
32 71 48
69 93 91
114 131 148
102 127 138
70 118 113
53 115 103
53 118 105
53 118 105
54 119 106
54 120 106
54 119 106
54 119 106
55 120 106
61 112 100
94 100 95
110 91 91
113 93 93
113 93 94
117 96 97
119 97 98
120 98 99
121 98 99
119 98 99
120 98 99
123 100 101
127 144 167
128 144 167
129 147 171
129 146 169
129 147 170
131 150 173
129 146 169
129 147 170
127 144 167
128 146 169
130 147 170
128 145 167
128 146 169
125 146 171
140 142 107
151 139 10
156 143 3
153 141 3
157 143 3
157 144 3
154 142 3
154 141 3
156 143 3
155 142 3
155 142 3
152 139 3
152 139 3
150 137 3
144 132 3
126 122 32
103 110 12
111 118 2
124 135 69
151 179 151
155 189 168
150 181 162
132 159 147
114 140 143
113 141 146
112 144 135
101 127 126
113 142 134
124 143 161
129 147 169
128 146 169
129 147 169
129 147 170
131 149 172
130 149 173
130 149 172
128 147 169
132 150 173
130 148 171
132 149 173
132 150 173
130 149 171
131 149 172
130 148 171
132 149 173
132 150 173
132 150 173
131 149 172
132 150 173
133 150 174
130 148 171
132 150 173
132 149 173
128 145 168
117 135 161
95 116 148
81 103 139
75 98 136
74 98 136
84 105 141
97 116 147
114 131 158
126 142 167
124 140 174
72 83 208
50 59 212
51 61 217
51 60 216
52 61 217
51 61 218
52 61 219
52 62 220
53 62 222
53 62 220
52 61 218
52 61 218
52 61 216
52 59 204
52 47 126
52 45 85
50 46 77
58 59 81
58 57 82
70 73 94
83 87 107
83 88 109
73 86 115
15 76 131
4 76 133
4 78 135
4 75 131
4 75 131
4 77 135
4 77 132
4 74 127
4 76 130
4 71 121
4 70 118
54 82 117
96 106 119
95 104 118
93 102 115
92 101 114
94 103 116
90 98 110
90 98 110
84 91 101
84 91 102
85 92 102
88 96 106
81 89 97
85 92 101
83 91 100
82 89 98
81 89 99
80 95 101
21 128 114
14 135 120
14 135 121
14 137 121
15 141 125
14 139 123
15 139 123
20 130 120
29 106 109
34 85 100
37 75 99
38 68 97
37 73 99
35 81 101
39 93 104
81 94 109
89 99 110
94 104 115
96 107 118
94 104 114
93 104 115
100 111 124
99 110 122
97 108 120
97 107 118
89 99 109
90 100 110
88 99 107
85 96 105
79 89 97
71 81 89
69 79 85
60 70 75
61 71 75
36 64 50
29 65 44
31 69 46
31 70 47
31 70 47
33 73 49
32 72 49
33 74 50
33 74 50
32 72 49
32 72 49
47 76 65
105 124 139
101 125 137
63 114 107
52 115 102
52 115 102
52 115 102
52 116 103
53 118 105
54 119 105
53 118 105
53 117 104
53 117 104
53 117 104
59 115 102
89 100 95
109 90 91
111 90 92
109 89 91
115 94 95
115 94 95
115 93 94
116 94 96
115 94 95
115 93 94
127 144 167
131 148 172
130 147 171
129 146 168
129 147 170
129 148 171
129 146 169
129 147 169
128 146 168
127 144 167
128 146 169
129 147 170
127 143 166
124 142 159
146 138 55
152 139 3
150 137 3
153 140 3
153 140 3
153 139 3
152 139 3
153 139 3
151 137 3
155 141 3
149 136 3
149 136 3
147 134 3
145 132 3
146 133 3
135 125 13
95 100 12
94 99 9
104 114 54
119 144 121
121 151 137
117 144 133
105 133 126
102 130 126
107 136 133
111 142 133
112 142 134
115 144 138
126 145 166
129 147 170
128 146 169
128 146 168
130 149 172
131 149 173
129 147 170
130 148 171
130 148 170
133 151 174
131 149 172
131 149 172
131 149 172
132 150 174
131 149 173
132 150 174
131 149 172
130 148 171
131 148 172
132 149 172
131 149 172
130 148 171
130 148 170
131 149 172
120 138 164
88 109 142
67 92 132
59 86 128
59 86 129
58 86 128
58 85 128
57 84 126
58 84 126
64 88 127
91 111 144
98 112 177
50 59 207
49 58 208
48 57 205
49 58 207
50 59 211
50 58 209
51 60 213
51 60 213
51 60 214
52 60 213
52 61 217
52 61 218
51 60 213
50 59 207
63 70 179
85 90 120
80 86 115
81 86 114
84 91 115
88 95 119
83 89 112
88 95 119
90 98 118
69 87 120
16 71 123
4 70 124
4 70 123
4 72 126
4 72 125
4 73 127
4 69 118
4 71 122
3 66 113
46 74 109
93 104 121
95 104 119
98 109 125
93 103 117
94 104 118
97 108 121
94 104 117
99 109 123
98 108 122
95 106 119
94 104 116
93 103 115
95 105 118
95 106 118
89 98 109
95 104 117
93 104 114
90 100 111
48 121 113
14 131 117
14 133 119
14 132 118
14 134 118
16 133 119
26 113 110
36 75 98
39 60 95
38 59 94
39 60 94
39 60 95
39 60 95
39 60 94
39 60 95
45 64 96
74 87 108
92 104 118
102 115 128
102 115 128
104 116 130
101 113 126
100 112 126
100 113 125
103 116 130
101 114 126
100 113 126
97 109 120
94 105 116
97 109 121
90 102 113
88 100 111
88 99 111
82 94 104
74 88 95
40 66 54
27 62 41
29 66 44
29 66 44
30 67 45
29 65 43
30 68 46
30 68 46
29 66 44
45 74 63
101 118 134
105 126 140
62 110 104
51 112 99
51 112 100
52 115 102
51 114 101
53 116 103
53 116 103
53 117 104
53 117 104
52 116 102
52 115 102
52 116 102
52 115 101
57 114 101
94 96 92
107 87 88
109 89 90
107 87 89
107 88 89
115 93 94
107 87 89
112 91 92
109 89 90
130 148 171
128 146 169
130 148 171
130 147 171
129 147 170
130 148 171
129 148 171
129 146 169
131 149 172
130 147 170
128 146 169
128 146 168
127 145 168
128 139 143
150 137 19
150 136 3
149 136 3
151 138 3
150 137 3
150 137 3
151 137 3
151 138 3
149 135 3
148 135 3
148 135 3
147 134 3
145 131 3
144 131 3
142 130 3
138 126 7
91 96 48
80 86 37
94 109 78
105 129 113
111 141 130
112 142 131
112 142 132
112 143 132
112 143 133
112 142 131
114 145 134
117 142 145
129 148 170
131 150 173
131 149 172
130 148 172
131 149 172
131 149 172
131 149 173
130 148 171
130 148 170
132 150 173
132 150 173
130 148 171
130 148 171
131 148 172
131 149 173
132 150 173
132 150 173
131 149 171
133 151 174
129 147 170
132 151 174
131 149 172
130 148 173
116 134 159
76 99 134
58 85 126
58 84 126
58 85 126
58 85 127
58 84 126
58 84 125
57 84 125
57 84 125
58 84 125
58 83 123
58 79 144
48 59 186
46 54 195
45 53 193
46 54 198
48 56 202
48 56 202
50 58 208
49 57 204
50 58 206
51 59 211
50 59 208
50 58 207
50 58 205
48 56 200
58 67 191
100 111 151
106 118 145
102 113 140
105 117 143
97 109 135
97 108 132
95 107 131
92 103 127
88 98 119
72 89 118
34 69 112
3 62 111
3 67 117
3 65 114
3 64 112
3 63 109
12 60 103
53 74 102
82 93 109
85 95 109
97 107 123
93 104 118
97 109 124
99 110 125
101 111 126
101 114 130
98 110 124
101 112 126
101 113 128
100 111 126
101 114 128
99 110 124
99 111 124
100 111 125
104 116 130
101 113 126
102 114 129
88 116 122
15 123 109
13 125 111
13 128 113
15 124 111
28 99 102
36 63 92
38 58 92
38 58 93
39 59 93
39 59 94
38 59 94
38 59 93
38 59 94
38 59 93
38 59 94
39 59 94
66 81 105
101 114 130
106 119 133
108 121 137
110 123 139
109 123 138
107 120 135
105 119 133
104 117 133
105 119 134
100 113 127
101 115 128
100 113 127
93 106 118
93 106 118
89 101 112
86 97 107
81 91 100
69 80 85
50 66 62
30 59 43
25 56 38
27 61 41
27 61 41
27 61 41
30 63 44
59 80 78
95 111 124
105 121 137
77 111 112
49 107 95
50 110 97
50 111 98
52 114 101
51 114 101
52 115 102
51 114 100
52 114 101
51 113 99
52 116 102
51 113 99
51 112 99
51 113 99
50 111 98
65 107 96
95 82 82
101 82 83
100 82 82
105 85 86
103 84 85
105 85 87
103 84 85
104 85 87
130 148 171
129 147 170
130 148 171
129 147 170
129 148 171
128 146 169
130 148 171
129 147 170
129 147 171
128 146 169
127 145 168
129 147 170
126 144 166
134 141 137
146 133 14
144 132 3
148 134 3
146 133 3
150 136 3
148 134 3
146 133 3
148 135 3
146 132 3
146 133 3
145 131 3
143 131 3
143 130 3
141 128 2
141 129 2
133 122 7
87 95 64
74 89 70
80 98 82
96 121 106
103 130 116
107 136 124
109 139 128
108 138 125
110 140 127
111 142 130
110 140 130
124 144 161
129 147 170
130 148 170
129 148 171
129 148 171
129 147 169
132 150 173
130 148 171
130 149 172
131 149 172
131 149 172
130 149 171
131 150 173
131 149 172
131 149 172
132 151 174
132 150 173
131 148 171
131 149 173
133 150 174
131 149 172
132 150 173
132 150 174
122 140 165
79 101 136
57 83 124
58 84 125
57 84 125
57 83 125
58 84 125
57 84 125
57 83 124
56 82 123
56 82 123
56 82 122
56 82 121
55 80 120
52 73 145
43 53 179
44 52 188
44 52 189
46 54 194
46 55 197
47 56 198
49 57 203
48 56 200
49 58 205
50 58 205
50 58 206
50 58 205
48 56 198
50 59 197
105 118 162
112 126 151
111 126 152
109 124 149
106 121 146
102 115 140
98 113 139
92 105 130
88 101 123
76 90 112
68 79 100
44 59 84
28 52 84
25 49 81
21 46 77
32 50 73
52 63 80
62 74 88
75 85 100
84 96 111
89 101 117
91 103 119
93 106 123
99 112 128
99 112 128
101 114 130
107 121 137
104 116 132
103 116 132
106 120 135
104 118 135
105 118 134
108 120 135
103 116 131
105 118 133
103 115 130
106 118 133
98 113 125
57 115 111
12 120 106
12 117 104
24 107 104
36 63 91
37 57 90
38 58 91
38 58 92
37 57 90
38 58 92
38 58 92
38 58 92
38 59 92
38 58 92
38 58 92
38 58 92
39 59 92
74 89 112
104 118 133
110 124 140
112 127 143
113 128 144
110 125 141
109 125 141
108 123 139
108 122 138
108 123 139
106 120 135
103 117 131
97 111 123
96 109 122
89 100 110
83 95 104
75 86 92
65 76 80
56 66 70
46 56 57
34 45 43
29 44 38
30 45 39
50 62 62
68 80 86
79 92 101
91 105 117
91 109 121
59 106 99
49 108 95
49 108 95
50 110 97
51 112 98
50 110 98
51 111 98
51 111 98
51 112 98
51 112 98
50 110 97
51 113 99
50 111 97
49 109 95
49 108 95
51 107 95
77 86 81
92 74 75
95 76 77
95 77 77
94 75 76
93 74 76
98 87 92
112 118 133
130 148 171
129 148 171
129 148 172
128 148 171
129 149 172
128 146 170
129 147 170
129 148 171
130 149 173
128 147 170
130 149 172
129 148 171
129 147 170
132 140 137
138 127 11
142 129 2
142 129 2
142 129 2
144 131 3
144 131 3
145 131 3
145 132 3
141 128 2
144 131 3
142 129 2
143 130 3
138 126 2
137 124 2
134 122 2
130 119 12
82 93 67
79 101 88
87 111 95
94 120 104
100 127 114
101 129 114
103 132 118
107 137 122
103 133 119
107 137 125
115 139 145
127 146 166
128 147 167
129 147 168
129 147 168
129 148 169
129 148 171
131 150 172
129 148 170
130 148 171
130 148 171
131 149 171
132 150 173
131 149 172
131 149 173
130 148 171
131 150 173
133 151 174
133 151 174
131 149 173
131 149 172
133 151 175
131 149 173
129 146 170
94 114 144
57 82 122
56 82 121
56 82 122
56 82 122
57 83 123
56 82 122
57 82 123
56 81 120
55 80 120
55 80 119
55 80 119
54 79 117
55 79 118
53 77 115
46 61 152
41 49 176
41 49 178
43 51 185
44 52 186
46 54 193
47 54 194
47 55 196
48 57 201
47 56 197
49 57 202
47 55 196
48 56 198
50 59 192
106 121 173
119 135 159
118 134 159
115 131 157
112 128 153
109 126 151
107 124 149
105 122 147
98 114 138
88 104 128
82 97 119
76 89 110
68 81 101
63 75 93
68 81 99
69 82 100
72 85 104
80 94 113
87 101 120
90 104 123
92 106 123
97 111 130
99 114 132
103 118 136
106 120 138
105 120 137
106 120 138
105 120 136
107 122 139
108 124 141
106 121 138
110 125 141
107 122 137
107 122 138
105 120 136
105 121 136
104 119 134
103 116 130
98 116 128
54 113 107
17 105 96
34 71 92
36 56 88
36 55 88
37 57 90
37 56 89
38 58 92
37 57 90
38 58 91
37 57 90
37 57 89
37 56 89
37 57 90
37 57 90
37 57 90
42 60 91
94 110 129
113 130 147
112 128 144
112 126 142
114 131 149
113 128 145
113 128 145
110 126 142
108 123 139
112 128 145
106 121 136
106 121 136
104 119 134
101 115 129
96 110 123
93 107 118
92 107 119
84 97 107
76 89 97
78 91 100
74 87 95
72 84 93
80 92 102
78 90 100
83 97 108
95 110 123
87 110 119
50 102 91
48 106 94
49 108 95
48 106 93
49 107 94
50 109 96
49 109 96
49 109 96
49 109 96
49 108 94
49 108 95
48 107 93
49 108 95
49 109 95
47 105 92
48 105 92
55 90 83
65 60 62
67 58 60
71 61 63
77 71 76
89 89 98
100 107 120
106 115 131
129 149 172
128 147 170
129 148 171
128 147 171
128 147 170
129 149 172
130 149 172
128 148 171
130 149 172
129 148 171
130 148 172
129 148 171
128 147 170
133 146 156
134 124 31
139 126 2
139 127 2
139 126 2
141 127 2
139 126 2
139 127 2
139 126 2
139 126 2
141 128 2
138 125 2
137 125 2
134 122 2
132 120 2
131 119 2
117 109 28
74 87 66
77 98 82
81 104 88
86 110 93
93 120 104
95 122 105
95 122 106
96 125 108
100 129 114
109 132 136
123 142 160
123 142 160
126 144 164
126 145 164
128 147 168
128 147 168
128 147 167
128 147 168
130 149 171
131 150 172
129 148 171
130 149 171
132 150 173
131 150 172
130 148 171
132 150 173
133 152 175
132 150 173
131 149 172
132 150 173
130 148 172
130 148 171
131 149 172
121 139 164
66 88 124
55 80 118
56 81 120
56 81 120
56 81 120
56 82 121
55 79 118
55 80 119
55 80 120
55 80 120
55 79 118
55 80 118
55 79 117
54 77 115
53 77 114
50 72 125
38 47 154
37 44 164
39 46 169
42 50 179
43 51 182
45 52 186
46 53 190
46 53 190
47 55 195
47 55 195
47 55 194
47 55 193
46 54 181
111 126 171
122 139 164
122 140 165
121 138 163
120 138 163
117 135 161
116 133 159
114 132 157
112 129 155
113 131 156
106 124 149
107 125 149
102 120 144
108 125 149
101 117 140
104 121 143
102 119 142
102 118 139
104 120 141
103 120 141
106 122 143
110 125 145
104 119 138
110 126 146
111 127 148
109 125 144
111 128 146
111 127 145
111 126 144
111 127 144
108 124 141
106 122 138
105 122 137
107 123 139
106 122 138
99 115 128
100 116 129
99 115 127
97 112 124
87 104 113
54 89 97
36 55 87
36 55 87
36 55 87
37 56 88
37 56 89
37 56 89
36 56 88
36 55 87
36 55 87
37 56 88
37 56 88
37 57 89
36 55 87
36 56 87
36 55 87
64 80 104
112 129 146
113 130 147
116 133 151
116 133 151
114 130 148
116 132 151
113 130 147
114 132 150
117 134 152
114 130 148
114 130 149
114 131 149
113 129 147
113 129 147
109 124 140
108 124 141
106 122 138
105 121 136
104 121 137
105 121 136
104 120 135
101 117 133
110 125 142
107 124 141
109 126 143
89 115 124
46 101 89
47 104 92
46 102 90
47 104 91
49 107 94
48 107 93
48 107 94
49 107 94
49 107 94
48 106 93
48 106 92
49 108 95
48 105 92
49 107 94
47 103 90
48 105 91
56 98 90
80 86 95
79 82 91
81 85 94
82 85 94
87 91 100
95 100 112
100 106 120
128 147 171
128 147 170
129 149 172
129 148 171
129 148 172
130 149 172
129 148 171
129 148 171
126 145 168
127 147 170
127 146 170
128 146 169
125 144 167
126 142 161
127 122 67
135 123 2
133 121 2
136 124 2
136 124 2
135 123 2
136 123 2
135 122 2
137 124 2
136 124 2
134 121 2
133 120 2
128 116 2
129 117 2
125 114 2
115 113 73
86 103 104
64 82 71
65 84 68
75 97 80
80 103 85
82 106 87
83 108 91
88 111 100
101 121 123
115 133 145
116 134 148
119 138 153
120 139 156
123 141 158
124 143 161
127 146 165
128 147 169
128 146 166
129 149 170
129 148 169
130 148 171
131 150 172
130 149 172
132 150 173
131 150 172
131 150 173
131 149 172
131 150 173
133 151 174
131 150 173
131 149 173
130 148 172
132 150 173
100 119 147
54 78 115
53 77 114
56 80 119
55 79 117
54 78 116
55 80 119
55 79 117
54 79 117
54 78 116
53 77 114
54 78 116
53 76 113
53 76 113
53 76 113
52 76 113
51 74 114
40 52 143
33 40 149
38 44 162
40 47 172
41 47 172
41 48 174
44 51 182
44 51 183
45 52 187
46 53 188
45 51 183
48 51 183
59 53 166
106 108 143
111 108 130
112 112 132
113 116 139
116 125 147
122 137 160
124 141 166
121 139 163
123 141 165
119 137 162
117 136 161
117 135 160
119 137 161
118 136 160
116 134 157
115 133 157
116 134 157
116 133 154
118 135 157
119 136 158
116 133 154
117 134 155
115 131 152
115 132 152
114 130 150
116 132 152
114 130 149
114 131 151
113 130 149
114 132 151
114 131 150
112 130 148
107 125 142
111 128 145
106 123 139
104 122 137
100 120 134
94 112 124
80 100 110
78 99 107
47 67 87
35 53 84
35 53 83
35 54 85
35 54 85
35 54 85
36 54 85
36 55 87
36 55 87
36 55 86
36 55 86
36 56 87
36 55 87
36 55 86
36 55 86
35 54 85
52 68 95
104 121 140
117 134 152
114 131 149
114 131 148
117 134 154
115 132 150
117 135 153
118 134 152
119 136 156
120 137 156
118 135 154
120 137 156
119 135 154
118 135 154
116 132 151
118 135 154
117 134 153
114 131 150
117 135 155
117 134 153
118 134 153
118 135 155
117 134 153
117 135 154
115 132 152
99 123 135
45 96 85
45 99 87
46 102 89
47 102 90
46 102 90
46 101 89
48 105 92
47 102 90
48 104 91
47 104 91
46 102 89
46 101 88
47 103 90
46 102 89
46 101 88
45 100 88
63 102 97
109 122 139
109 119 135
108 118 134
110 121 138
112 122 139
113 124 142
114 125 143
125 146 168
128 148 171
130 150 173
129 148 172
125 144 167
128 147 170
127 146 169
128 147 170
126 144 167
128 147 169
125 143 166
125 142 165
123 142 163
122 140 161
123 128 117
126 116 16
131 119 2
133 120 2
131 119 2
134 121 2
133 121 2
131 118 2
131 119 2
127 115 2
128 115 2
128 117 2
128 116 2
122 111 2
119 109 21
88 95 85
80 93 97
74 89 89
64 78 73
59 73 66
59 75 64
66 81 75
77 92 89
90 106 107
98 114 120
107 125 134
112 130 140
115 134 147
118 136 152
122 141 157
123 142 159
124 143 160
126 145 165
128 147 167
129 148 168
128 147 168
131 150 171
130 148 171
130 149 171
130 149 171
130 148 171
131 149 172
132 150 172
132 150 173
133 151 175
131 148 172
131 149 172
131 149 172
130 148 172
87 105 134
52 76 112
53 77 115
53 76 113
54 77 114
53 77 115
53 77 113
53 77 114
54 78 115
53 77 114
51 73 109
52 75 111
52 74 110
51 73 109
51 74 110
50 73 108
49 71 108
39 53 129
33 39 144
34 40 148
37 44 160
39 45 163
41 48 171
41 48 172
42 49 174
43 50 179
46 48 172
61 43 155
73 33 119
83 24 79
91 41 63
90 29 50
90 28 50
91 40 60
95 59 77
104 87 106
112 115 137
123 139 163
127 146 170
124 142 166
124 142 166
124 141 165
121 139 164
122 139 163
125 143 167
122 140 162
124 142 165
119 137 160
122 140 162
120 137 160
120 137 159
120 137 159
120 137 159
121 139 161
118 135 156
118 135 156
122 139 160
116 134 154
117 135 154
118 136 156
115 134 153
114 133 152
111 130 148
111 129 147
108 128 145
108 128 145
102 122 138
101 123 138
94 117 130
86 108 120
47 66 89
35 53 84
34 52 82
35 53 83
35 53 83
35 53 84
35 54 84
35 54 85
35 54 85
35 53 83
35 53 84
35 54 85
35 54 84
35 53 83
35 53 83
35 53 83
39 56 84
96 115 134
114 133 151
119 137 156
117 136 155
119 137 156
120 137 157
118 136 155
121 139 159
120 137 157
121 138 158
123 140 160
121 138 158
121 138 159
121 138 159
121 139 159
122 139 159
122 139 159
123 140 161
122 139 160
120 137 156
123 141 162
122 140 161
122 139 159
125 142 164
122 140 161
106 128 142
45 94 84
43 95 84
44 98 86
44 97 86
45 100 88
46 101 89
46 101 88
46 101 88
45 100 87
46 102 89
45 100 87
44 98 85
45 100 87
45 100 87
45 99 86
44 97 84
69 106 104
121 136 156
123 138 159
121 135 156
120 134 154
122 137 158
122 137 158
121 136 156
128 147 170
128 147 170
127 147 170
128 147 169
129 148 172
126 145 169
127 145 168
128 146 169
125 144 166
123 141 163
121 139 162
121 138 159
119 136 157
115 133 153
113 129 147
119 117 80
123 112 2
126 114 2
127 116 2
125 114 2
125 113 2
126 114 2
128 116 2
125 113 2
125 113 2
121 109 2
120 109 2
113 103 9
95 93 61
74 85 86
73 85 85
74 85 84
71 84 82
74 87 84
79 93 93
82 96 94
96 111 113
97 114 118
106 124 132
111 129 139
114 132 144
119 138 153
120 138 153
123 141 158
126 145 164
124 142 162
129 147 166
127 146 166
128 146 168
129 148 170
129 147 169
129 148 169
129 147 169
131 149 172
130 148 170
132 150 173
130 149 171
130 148 171
132 150 173
132 149 173
130 149 172
132 150 174
129 147 171
82 102 131
52 75 111
53 76 112
51 75 110
53 77 114
52 76 112
51 74 110
52 76 112
52 74 110
52 75 111
52 75 111
50 72 107
51 74 110
50 73 108
50 71 106
49 71 105
49 70 104
40 55 119
30 35 133
33 39 145
35 41 149
38 44 159
39 46 165
40 46 166
41 48 171
50 45 163
67 37 133
83 18 72
87 8 43
88 5 37
88 5 38
88 5 37
88 5 37
87 5 37
86 5 37
87 15 40
91 44 62
104 93 113
121 133 156
125 143 167
127 144 168
125 142 166
126 144 168
125 142 165
125 144 167
127 144 168
124 142 165
125 143 166
124 142 165
123 140 162
123 140 162
123 140 162
124 142 164
122 140 162
120 138 159
124 142 163
122 139 160
122 140 161
119 137 157
121 140 160
119 137 157
121 139 160
117 136 155
117 135 154
115 134 153
117 137 156
114 135 153
113 134 152
111 133 151
103 125 142
51 69 93
33 51 80
33 51 80
34 51 81
34 52 81
33 51 80
34 52 82
33 51 80
34 52 82
34 52 82
34 53 83
34 53 83
35 53 82
34 52 81
33 51 80
34 52 81
34 52 81
94 111 131
122 140 161
121 139 158
122 140 161
121 139 159
121 140 160
123 141 162
123 141 161
122 140 160
122 140 161
122 139 159
123 141 161
124 142 162
123 140 161
122 140 160
124 141 162
125 143 164
124 142 163
123 141 162
121 139 160
125 143 164
123 140 160
123 141 161
126 144 165
123 140 160
115 134 152
59 99 95
42 92 81
43 95 83
44 96 84
45 99 86
45 99 87
44 96 84
44 97 85
44 98 85
45 99 86
43 96 83
44 97 84
44 97 84
44 97 84
42 94 82
41 91 79
87 116 122
125 142 163
124 140 161
124 140 161
125 142 163
125 142 163
127 143 164
124 141 163
130 148 171
129 148 171
130 149 172
129 148 172
127 145 168
126 146 168
127 146 169
127 146 168
125 143 165
124 142 163
122 139 160
120 137 158
116 132 151
113 129 148
108 124 141
107 118 125
115 109 58
115 105 5
116 105 2
123 111 2
122 110 2
119 107 2
117 106 2
118 107 2
115 104 2
115 105 2
110 100 20
98 98 72
87 99 104
84 96 99
95 109 117
92 106 112
95 110 116
103 118 126
104 119 130
107 123 130
111 128 138
113 131 143
117 134 147
117 134 149
121 139 155
122 140 156
124 142 160
125 143 162
126 144 163
129 147 168
128 146 168
128 146 168
129 148 170
129 148 170
130 149 172
130 149 171
131 149 172
131 149 171
132 150 173
132 150 173
130 149 172
130 148 171
132 150 174
131 149 173
131 149 172
131 150 174
129 147 171
80 99 127
50 73 108
52 75 110
51 74 109
52 74 110
52 75 111
50 73 108
51 74 109
51 73 109
49 71 105
50 71 105
49 71 105
50 71 106
49 70 104
48 69 102
47 67 100
48 69 102
36 50 112
30 35 131
31 37 137
32 38 141
34 40 146
37 43 157
38 44 159
46 43 154
73 28 105
85 10 49
87 5 37
87 5 37
88 5 37
87 5 37
87 5 37
87 5 37
87 5 37
86 5 37
87 5 37
87 5 37
87 25 46
102 86 104
120 132 155
130 147 171
127 144 168
128 145 169
127 145 169
126 144 167
126 143 167
127 145 168
127 145 169
126 143 165
125 143 166
125 143 166
126 144 166
126 144 166
123 140 163
127 144 165
124 142 164
124 143 165
122 140 162
125 143 165
126 143 165
123 142 163
123 141 162
125 143 165
120 139 159
123 143 164
121 141 161
121 140 161
119 138 159
121 141 162
116 136 157
65 81 104
32 49 78
33 50 78
33 50 78
34 51 81
33 51 80
33 51 80
34 51 81
33 51 80
33 51 80
34 52 81
34 52 82
33 51 79
33 51 80
32 50 78
33 50 78
36 54 81
102 119 140
122 141 161
123 141 161
121 140 160
124 142 163
123 141 162
124 143 164
124 142 163
125 143 163
126 144 165
126 143 164
123 141 162
125 142 163
125 143 163
123 141 161
124 142 163
125 143 164
123 141 161
124 142 163
126 144 165
127 144 165
125 143 164
124 142 163
125 143 164
124 142 163
124 142 163
84 114 120
40 88 78
42 93 82
42 92 81
41 92 80
43 95 83
43 94 82
43 95 83
42 94 81
43 95 83
42 94 82
43 95 83
41 92 79
41 92 80
39 87 76
47 92 83
109 131 147
127 144 167
124 141 162
126 144 166
126 143 165
126 143 165
127 145 167
126 143 165
128 148 171
129 148 171
129 148 171
129 148 170
129 148 171
128 146 167
128 146 168
127 145 167
121 139 159
125 143 163
121 138 157
119 136 155
115 131 147
112 127 144
108 122 137
107 121 136
104 115 122
104 104 81
108 97 26
108 97 2
111 99 2
111 100 2
113 102 2
110 99 2
105 95 17
99 91 32
91 93 77
92 103 107
95 106 111
99 112 119
103 117 127
109 124 135
109 124 132
112 128 140
117 134 149
117 133 147
118 135 151
117 135 151
120 138 156
124 141 160
125 143 162
124 143 162
126 145 165
127 144 165
128 145 166
129 147 169
128 146 167
130 148 170
128 147 168
129 148 170
131 149 172
130 148 171
131 149 171
130 148 171
131 149 171
131 149 172
131 149 173
132 150 174
131 149 172
130 148 172
131 149 174
130 148 172
132 150 174
91 109 136
49 71 105
51 74 109
50 72 107
49 71 105
50 72 106
49 71 105
50 72 106
49 71 105
49 70 103
49 71 104
49 70 103
47 67 100
47 68 101
47 68 101
46 66 98
46 66 99
35 46 118
29 34 127
31 36 134
31 36 136
34 39 145
35 41 150
39 40 147
65 29 110
84 9 47
86 5 36
86 5 36
87 5 37
86 5 36
86 5 36
86 5 37
87 5 36
86 5 36
86 5 36
85 5 36
85 5 36
85 5 36
86 29 48
104 96 115
124 139 163
127 145 170
127 145 169
127 145 169
127 145 169
127 144 167
127 144 168
128 145 168
128 145 169
128 145 169
126 144 167
125 143 166
126 145 168
126 144 166
128 146 168
127 145 168
127 144 167
126 144 166
126 144 167
126 144 165
126 144 167
123 141 164
124 144 166
125 144 166
125 144 165
124 143 164
126 145 166
124 144 165
124 143 164
121 140 161
77 92 114
31 47 74
32 49 77
32 49 77
31 47 75
32 48 76
32 49 77
33 51 80
33 50 78
33 50 78
32 50 78
33 51 79
33 50 78
32 50 78
32 49 77
32 49 76
43 59 85
111 128 149
123 142 163
124 142 163
125 144 166
125 143 165
125 143 164
125 143 164
126 144 165
125 143 164
126 144 166
125 143 165
126 144 166
126 144 165
128 145 167
124 142 163
126 144 165
127 145 167
126 143 164
126 145 166
124 141 162
124 142 163
124 142 163
124 142 163
123 140 160
122 140 162
123 141 162
113 132 149
55 93 89
39 86 75
40 88 77
41 90 79
42 92 81
41 91 80
40 89 78
42 93 81
43 95 82
41 91 79
40 89 78
41 91 79
40 90 78
38 86 74
73 103 107
124 143 164
126 144 166
124 141 162
127 144 166
127 145 168
125 143 165
127 146 168
125 143 164
133 151 173
129 149 171
130 148 169
128 146 168
128 146 166
127 145 166
125 143 164
125 143 163
123 140 160
122 139 159
120 136 153
119 135 153
115 130 147
117 132 149
112 125 138
108 120 131
102 113 123
97 106 112
92 96 89
92 89 62
90 83 43
84 76 25
84 76 23
84 79 45
79 78 59
75 79 73
84 91 91
92 101 104
97 107 113
103 115 123
107 120 129
111 125 136
112 126 137
117 133 149
121 137 153
123 139 156
121 138 156
125 142 161
126 143 162
125 142 162
129 148 169
127 145 165
127 145 164
134 152 169
140 159 173
148 167 177
154 173 179
149 168 178
145 163 175
139 157 173
133 150 171
131 149 172
132 150 173
129 147 170
130 148 172
131 149 173
130 147 171
130 149 172
129 147 171
130 149 173
131 149 172
130 148 171
129 147 172
107 125 151
50 70 102
48 69 103
49 70 104
49 71 105
49 71 105
48 69 102
49 70 103
47 68 100
47 67 100
46 66 98
46 66 98
46 65 97
46 66 97
44 63 94
44 64 95
54 70 102
70 81 131
36 43 127
29 34 128
29 34 129
31 36 137
31 36 136
54 31 119
78 16 65
84 4 35
85 4 35
84 4 35
86 5 36
85 5 36
85 4 36
85 5 36
85 4 35
85 5 36
85 5 36
84 4 35
84 4 35
85 4 36
84 4 35
87 47 64
112 115 136
126 143 168
126 143 169
126 144 169
127 144 169
128 145 169
128 146 171
127 145 168
126 143 168
128 146 169
128 146 169
129 147 171
127 145 168
127 145 168
126 144 167
128 146 169
128 146 169
127 145 168
127 145 168
126 144 167
125 142 165
127 145 168
126 144 166
125 143 166
124 143 165
125 143 165
125 144 166
124 142 164
125 144 166
123 143 164
101 117 139
35 51 77
30 45 72
31 46 74
31 47 74
31 47 74
31 47 74
31 48 75
32 48 75
32 49 76
31 47 74
31 48 75
32 49 76
31 47 74
31 48 74
30 47 73
59 73 95
120 139 160
125 144 165
128 147 169
127 145 167
125 144 165
125 143 163
125 146 165
121 143 160
122 143 160
123 144 162
124 145 163
125 144 165
124 142 163
126 144 166
125 142 163
125 143 165
124 142 164
123 142 163
125 143 165
123 141 162
123 141 162
121 139 160
119 138 158
122 140 161
122 139 160
122 141 162
118 136 156
95 117 129
44 84 77
37 83 73
39 87 76
39 87 76
39 86 75
38 84 73
40 89 77
39 88 76
39 87 75
39 87 75
38 84 73
36 80 70
63 96 96
110 130 148
124 142 163
126 144 166
125 143 165
127 145 167
126 144 166
124 142 163
125 143 165
123 141 163
140 158 181
139 157 179
131 149 171
130 149 171
130 148 170
130 147 168
128 146 168
126 143 163
126 143 163
124 141 160
121 136 152
121 136 153
119 133 147
116 129 141
112 124 135
108 119 128
105 115 122
100 107 113
95 102 106
89 95 99
78 81 80
75 78 76
74 75 74
71 74 73
85 90 92
90 96 97
98 106 110
100 110 115
105 115 122
113 125 136
113 125 135
117 131 145
120 135 150
120 136 153
122 138 155
125 141 160
123 141 159
125 142 161
128 146 166
128 146 167
128 146 168
135 152 167
154 173 180
169 190 189
178 201 196
181 204 199
184 208 202
184 208 202
180 204 198
170 192 190
163 183 186
143 160 171
131 149 170
129 147 170
129 148 171
130 148 171
130 148 172
128 146 169
129 148 172
127 145 169
128 146 171
129 147 171
128 146 169
120 138 162
71 89 118
46 66 98
47 68 101
47 68 100
46 67 99
46 67 99
47 68 100
45 65 97
46 66 97
46 65 97
44 62 92
44 63 94
44 63 94
44 63 94
43 62 93
72 86 115
90 102 135
75 85 124
56 63 118
39 44 109
34 39 112
36 33 113
65 24 83
83 5 37
82 4 34
84 4 35
84 4 35
83 4 35
84 4 35
83 4 35
84 4 35
84 4 35
85 5 36
84 4 35
83 4 35
83 4 35
83 4 35
82 4 34
81 4 34
98 81 99
123 138 162
126 144 168
127 144 168
126 144 169
127 144 170
126 144 168
127 144 168
127 144 169
128 146 171
128 145 169
128 146 170
127 145 168
127 144 168
127 144 167
127 144 167
129 147 169
127 145 169
127 145 168
126 144 166
126 145 167
127 144 167
128 146 169
126 145 168
127 146 169
127 145 167
126 144 166
126 144 166
124 142 164
126 144 166
121 139 161
65 79 100
29 44 70
29 44 70
30 45 72
30 46 73
30 46 73
30 47 73
31 48 74
30 46 73
31 47 74
30 47 73
31 47 73
30 46 72
30 47 73
33 48 73
93 109 130
125 144 166
125 144 166
126 144 166
123 143 163
118 142 154
110 141 142
106 140 135
103 140 132
103 140 132
101 139 129
105 140 136
113 142 145
119 144 155
124 144 164
126 144 166
125 144 166
123 141 162
124 142 164
123 141 163
124 142 163
119 137 158
122 141 162
121 138 158
120 137 158
116 134 153
115 133 152
116 134 153
113 131 150
95 116 129
47 83 78
36 79 70
35 79 69
36 80 70
36 81 71
36 80 69
36 81 70
37 82 72
35 79 69
36 80 69
63 92 93
106 127 142
122 140 160
121 140 160
122 140 161
123 141 162
124 142 163
124 142 164
122 140 162
123 140 162
121 139 160
142 160 184
144 162 186
143 160 183
132 149 170
129 146 167
131 148 169
128 145 166
127 144 164
125 141 161
125 141 160
125 140 157
123 137 153
123 138 155
117 130 144
118 131 144
117 129 141
112 122 129
112 122 131
110 119 127
106 114 119
106 114 121
103 111 117
103 111 115
104 112 118
108 117 124
111 121 129
115 126 137
116 128 140
120 134 149
118 132 147
122 137 153
122 137 153
124 139 156
125 141 159
128 145 165
126 143 164
129 147 168
127 144 164
128 145 166
129 147 168
145 163 173
173 193 190
184 206 199
190 216 209
189 217 211
185 215 211
184 214 211
184 214 211
186 215 211
188 215 209
187 212 205
174 195 190
149 167 170
131 149 167
129 148 172
129 147 170
129 148 172
127 145 169
129 147 171
128 146 170
128 145 169
127 145 170
125 143 167
126 144 168
102 119 145
50 69 99
45 65 97
45 66 97
45 65 97
45 64 95
45 64 95
44 63 94
43 62 93
44 64 94
43 61 91
42 60 90
41 59 88
41 59 89
50 66 95
83 95 125
81 91 122
71 80 113
63 70 101
59 65 94
50 56 88
61 55 85
79 27 49
82 4 34
81 4 34
83 4 35
82 4 34
82 4 34
84 4 35
82 4 34
82 4 34
82 4 34
82 4 34
82 4 34
80 4 33
82 4 34
82 4 34
80 4 34
80 4 33
89 53 71
116 125 148
125 142 167
129 147 171
127 145 169
128 145 169
127 144 168
128 145 170
127 145 169
128 146 170
126 144 168
129 147 171
128 145 168
128 146 170
128 146 169
127 145 169
128 145 169
129 146 169
127 145 168
128 145 169
127 145 168
128 146 170
127 145 167
125 143 165
126 144 166
125 143 166
126 144 167
125 143 166
123 141 163
124 143 165
122 139 161
101 117 138
39 52 75
28 43 68
28 43 67
29 45 71
29 45 70
29 44 69
29 44 69
30 45 71
29 44 70
30 46 72
29 45 70
28 44 69
30 45 69
68 81 101
117 134 155
126 145 167
128 147 169
120 142 158
109 140 140
97 138 122
92 137 113
90 138 110
89 138 110
90 138 110
89 138 110
90 139 111
91 138 114
97 138 122
108 141 139
118 143 155
124 143 163
124 142 164
124 143 164
123 140 161
123 142 162
119 138 158
118 136 156
114 132 151
114 132 150
114 132 150
107 125 142
109 125 143
104 121 138
99 116 131
85 103 113
53 79 78
42 77 71
33 74 65
32 72 62
33 75 65
33 74 64
32 72 63
46 79 75
71 95 99
102 121 136
110 128 146
114 131 150
117 135 155
120 138 158
120 138 159
120 138 160
120 139 160
121 139 159
118 136 157
122 140 162
137 156 180
139 158 182
144 161 184
135 151 171
132 148 168
130 147 169
128 145 165
129 146 166
130 147 168
128 145 166
127 143 162
128 143 162
125 140 158
126 141 157
124 139 155
123 137 152
122 136 151
121 135 149
122 135 150
121 134 146
119 131 142
121 133 147
120 133 147
123 137 152
123 137 153
124 138 155
121 135 150
124 139 155
125 141 158
126 142 160
126 142 162
128 144 163
127 143 162
127 144 166
128 144 164
129 147 169
129 146 167
132 149 172
132 149 170
148 165 172
177 197 190
191 214 205
190 217 210
185 214 211
181 212 211
178 211 211
177 211 211
178 211 211
180 212 211
182 213 211
186 215 210
186 211 204
172 192 183
143 159 162
129 146 164
127 145 168
128 146 169
127 145 169
128 146 171
126 143 167
126 144 168
124 141 165
123 140 165
121 138 162
120 137 161
86 102 127
48 67 96
43 63 93
43 62 93
42 61 91
43 62 91
43 62 92
40 58 87
39 56 84
42 60 89
40 58 87
39 56 85
45 60 87
78 90 118
95 108 136
89 101 129
88 99 126
84 95 123
82 92 120
78 87 119
79 73 99
77 20 41
80 4 33
81 4 34
82 4 34
81 4 34
80 4 33
82 4 34
81 4 34
80 4 33
82 4 34
80 4 34
82 4 34
80 4 33
81 4 34
79 4 33
80 4 34
77 4 32
80 35 50
112 117 138
126 143 167
127 144 169
127 145 169
127 145 170
129 147 170
129 147 170
130 148 172
129 146 170
129 147 171
127 144 168
128 145 168
127 145 169
127 145 169
128 145 168
127 145 168
127 144 167
128 146 170
126 144 166
126 144 166
124 142 165
125 143 166
126 144 167
125 143 165
123 140 162
122 140 162
123 140 162
121 138 161
121 138 160
118 134 156
118 134 156
87 101 121
40 52 73
26 40 63
28 43 67
28 43 68
26 41 64
28 43 67
27 41 65
28 43 67
27 42 65
27 42 66
28 43 67
52 64 84
108 124 144
121 139 160
121 139 159
113 137 148
100 135 128
91 134 111
88 135 107
88 136 108
88 136 108
90 138 110
89 137 109
88 137 109
89 137 109
88 136 108
89 137 109
91 137 112
99 138 124
113 141 148
122 142 162
125 143 164
123 141 162
122 140 161
120 138 158
117 134 154
116 134 153
112 130 149
109 126 143
109 126 144
103 119 134
94 109 123
88 104 115
83 97 107
78 91 100
58 72 76
48 67 66
39 61 58
39 65 60
48 70 69
56 75 77
78 94 103
90 106 118
95 111 124
104 121 137
109 126 143
109 127 144
109 127 145
114 131 150
118 136 156
116 134 153
118 136 157
119 138 159
120 139 160
137 156 181
136 154 178
137 156 179
139 156 176
135 151 168
130 147 167
129 147 169
132 149 169
129 146 168
129 146 166
130 147 167
130 146 166
129 146 167
129 144 164
128 143 162
128 144 162
127 143 162
128 144 163
128 143 161
128 144 164
126 142 160
126 142 160
126 142 160
128 143 161
128 144 163
129 146 165
130 147 167
129 145 164
130 146 166
130 147 169
130 147 168
129 146 167
130 148 169
129 146 167
131 148 170
130 148 171
131 149 172
130 147 168
147 164 173
174 192 186
195 218 206
191 218 211
185 214 211
181 212 211
178 211 211
176 210 211
175 209 211
176 210 211
177 210 211
179 212 211
183 214 211
187 215 210
185 209 201
165 183 173
132 147 152
126 144 165
128 145 168
127 145 169
124 141 164
125 142 166
124 141 165
122 140 164
120 137 161
121 138 162
115 131 156
109 125 149
83 97 121
49 66 92
39 57 85
40 58 86
40 58 87
39 56 84
40 57 85
39 56 84
39 56 84
37 53 79
52 66 91
79 92 117
96 110 135
93 106 131
96 110 137
97 111 140
96 110 139
101 115 144
99 112 141
92 90 114
81 29 47
80 4 33
78 4 32
80 4 33
79 4 33
79 4 33
79 4 33
79 4 33
79 4 33
81 4 34
79 4 33
79 4 33
79 4 33
78 4 33
77 4 32
78 4 33
76 4 32
78 25 42
108 109 129
127 144 169
129 147 172
128 146 170
129 147 170
129 146 170
128 145 168
128 146 171
128 146 170
128 145 168
126 144 167
129 147 171
127 145 169
128 145 169
129 147 170
128 146 170
127 144 168
127 145 168
126 144 166
124 142 165
124 142 165
124 141 164
126 144 167
123 140 163
123 141 164
122 139 161
120 137 159
117 133 155
117 134 155
114 129 150
109 124 144
107 122 141
80 93 111
44 55 74
25 37 59
26 39 62
26 39 63
25 39 62
25 39 62
25 39 61
27 41 64
33 45 66
63 75 93
103 118 138
115 131 152
117 134 155
110 134 144
98 134 124
87 132 106
86 132 105
87 134 107
87 133 106
89 137 108
89 136 108
88 135 107
88 136 108
88 136 108
88 136 108
87 135 107
88 136 107
88 135 108
96 135 121
112 139 145
122 141 161
122 141 162
122 141 161
122 140 161
118 136 156
119 137 157
115 133 151
111 129 147
111 128 146
104 121 137
101 118 133
95 110 123
86 102 113
85 100 111
72 85 93
66 78 85
62 74 81
57 69 73
65 77 83
73 86 93
79 93 103
84 99 110
96 112 126
100 116 131
105 122 139
108 125 142
109 127 145
112 130 149
116 134 154
115 133 152
115 133 152
116 135 155
118 136 156
139 158 183
136 156 179
137 157 180
134 152 175
135 152 171
134 151 169
131 148 168
134 152 174
132 149 171
130 147 168
130 147 168
130 147 169
131 148 168
132 149 171
130 148 169
131 148 169
129 146 166
131 148 169
130 146 167
132 149 169
131 148 170
132 148 168
130 147 169
129 146 167
131 148 168
130 148 170
130 147 169
131 149 171
132 149 170
130 148 169
130 147 167
131 149 171
132 150 172
132 150 172
132 149 172
132 150 172
132 150 173
136 154 172
165 184 179
193 215 203
194 220 211
189 217 211
184 214 211
180 212 211
178 211 211
176 210 211
176 210 211
176 210 211
177 211 211
180 212 211
183 213 211
187 216 211
191 217 209
183 204 193
146 160 153
114 129 143
123 141 165
124 142 167
121 138 162
122 140 164
122 138 162
117 134 158
117 134 157
114 131 154
110 125 148
110 125 147
97 111 132
85 98 119
62 76 98
41 56 80
38 53 78
34 50 74
36 52 77
37 51 75
44 57 80
56 68 89
80 91 112
91 103 125
93 107 130
96 109 134
98 112 137
104 119 145
102 117 144
106 121 148
108 123 150
97 97 118
76 22 41
77 4 32
78 4 32
79 4 32
78 4 32
78 4 32
78 4 32
77 4 32
79 4 33
79 4 33
79 4 33
78 4 33
76 4 31
78 4 32
78 4 32
77 4 32
76 4 32
78 30 46
105 104 126
127 145 169
127 144 169
127 145 170
131 149 174
128 145 169
128 146 170
128 146 170
130 149 173
130 148 172
129 147 171
128 146 170
128 146 169
128 146 170
127 145 168
128 145 168
128 146 169
126 144 166
126 144 167
124 142 165
125 142 166
123 141 164
120 137 159
120 137 159
121 137 159
117 133 155
115 131 153
112 128 149
111 127 148
107 122 141
104 118 136
104 118 137
93 106 123
80 91 106
60 70 84
40 49 65
28 39 58
24 35 54
25 36 56
33 43 61
47 56 72
73 85 101
93 105 122
102 116 133
108 124 143
105 124 138
98 130 124
86 130 106
86 130 103
86 131 104
86 132 105
86 132 105
87 134 106
88 135 107
89 136 107
86 133 105
88 135 106
87 134 106
87 134 106
87 134 106
86 133 105
86 133 105
98 135 123
114 138 149
125 143 165
126 145 167
124 142 164
121 139 160
122 140 161
119 139 158
118 136 156
113 131 150
113 131 149
108 126 143
105 122 139
104 121 137
100 116 131
98 114 128
94 110 124
91 107 120
86 102 114
87 103 114
91 107 120
94 111 124
95 112 126
98 116 130
103 120 136
104 122 138
110 128 146
111 129 147
111 129 147
119 137 157
117 136 156
117 135 155
119 138 158
118 136 157
138 157 181
136 154 178
133 152 175
133 151 173
131 149 170
130 147 167
130 147 169
132 150 172
134 151 173
132 149 172
132 149 171
132 150 172
131 149 171
133 151 173
133 150 173
133 151 174
132 150 172
132 149 171
131 148 170
132 149 171
133 151 173
132 150 172
133 151 175
132 150 172
132 150 173
132 149 171
132 150 172
132 149 172
132 150 172
133 151 174
132 149 172
132 150 172
132 150 173
132 150 173
132 150 173
132 150 173
133 151 174
147 164 172
183 203 191
199 222 209
194 219 211
189 216 211
185 214 211
182 213 211
180 212 211
179 211 211
178 211 211
179 211 211
180 212 211
182 213 211
185 214 211
188 216 211
193 219 211
194 217 205
167 184 172
119 133 138
115 132 154
124 141 165
123 140 163
120 137 160
120 136 159
114 131 153
115 131 153
110 126 147
104 118 139
102 116 136
96 109 127
92 104 122
77 88 104
73 83 98
54 63 78
48 56 69
51 59 74
52 60 75
63 70 86
70 79 96
80 91 109
86 98 118
91 104 126
98 111 134
102 117 140
104 119 145
108 123 148
108 123 148
113 129 154
102 105 126
76 31 48
76 4 31
77 4 31
75 4 31
76 4 31
77 4 32
77 4 32
77 4 32
76 4 31
74 4 31
75 4 31
76 4 32
76 4 32
74 4 31
74 4 31
74 4 31
73 4 31
76 28 45
109 114 135
129 147 172
127 145 169
129 146 171
130 147 172
128 145 169
128 146 169
128 146 169
129 147 171
130 148 172
128 146 170
129 146 171
129 147 171
129 147 171
129 146 170
128 146 169
127 145 169
128 145 169
127 145 168
125 143 166
125 142 166
124 141 164
123 141 163
121 138 160
122 140 162
118 134 156
117 133 155
114 130 151
108 123 142
104 118 137
98 111 130
91 103 120
84 95 110
78 88 102
69 78 89
59 66 77
50 57 67
52 58 68
52 59 68
60 69 80
71 80 93
77 87 101
87 99 113
94 107 123
100 115 131
96 122 124
84 123 102
84 128 101
85 129 102
84 129 102
85 128 102
86 130 103
86 131 104
86 132 105
87 133 105
86 131 104
86 132 104
86 132 104
85 130 103
86 132 104
87 133 104
86 132 104
86 130 104
103 134 131
122 143 160
125 144 166
124 143 164
125 143 165
123 141 163
122 140 161
119 138 158
122 140 161
122 140 161
119 137 158
117 135 155
116 134 153
113 131 149
111 129 147
112 131 149
109 127 144
109 128 145
108 126 144
112 130 148
107 125 142
110 128 146
113 131 150
110 128 146
115 133 153
115 134 154
117 136 155
118 136 156
118 136 156
121 140 161
124 142 165
119 137 158
119 138 158
139 158 182
136 156 179
134 154 176
134 152 175
133 151 174
125 143 165
131 149 171
134 152 175
133 152 175
133 150 173
132 150 173
133 151 175
132 150 174
133 151 174
134 152 175
133 151 173
132 149 172
133 151 174
133 151 174
132 150 173
133 151 174
134 152 175
133 151 174
134 152 174
132 149 172
132 150 173
134 152 175
134 152 175
134 152 175
133 151 174
132 149 172
132 150 173
133 151 174
132 150 173
132 150 173
133 151 175
133 151 169
154 172 170
191 212 198
199 222 210
195 220 211
191 218 211
188 216 211
185 215 211
184 214 211
183 213 211
183 213 211
183 213 211
184 214 211
186 215 211
188 216 211
192 218 211
195 220 211
198 221 209
181 199 186
126 141 137
109 126 142
124 142 166
124 141 164
123 140 163
115 132 154
119 136 158
113 129 151
112 128 149
106 120 141
102 116 135
99 113 131
92 104 121
79 90 105
76 86 100
67 76 89
69 78 90
69 77 90
72 81 95
75 85 100
80 91 110
85 96 114
91 104 124
97 110 131
101 116 139
108 123 147
111 127 149
108 123 148
114 129 154
116 132 156
108 117 140
79 50 65
74 4 30
74 4 30
74 4 31
74 4 30
75 4 31
73 4 30
74 4 31
76 4 31
74 4 30
73 4 30
72 4 30
73 4 30
73 4 30
74 4 31
72 4 30
72 4 30
79 53 68
117 128 151
127 145 169
127 145 169
128 146 171
128 146 170
129 146 170
129 147 170
127 145 169
128 145 169
129 146 170
129 147 171
129 147 171
129 146 170
129 147 171
127 145 168
126 144 168
126 144 167
127 145 169
128 146 169
127 145 168
127 145 168
125 143 166
124 142 165
124 142 165
121 139 162
120 136 159
118 134 155
115 131 152
114 130 151
110 125 146
107 122 142
103 117 135
95 108 126
91 103 119
84 96 111
78 89 102
77 87 100
76 85 99
74 83 96
76 86 99
83 94 109
88 100 115
94 106 123
95 108 125
101 119 132
90 123 113
82 124 99
82 124 98
82 125 99
84 128 101
82 125 100
83 127 101
83 127 100
85 130 103
85 130 103
86 131 103
85 130 103
85 131 103
85 130 102
86 132 103
85 131 103
84 129 101
83 128 100
92 132 114
116 141 151
126 145 167
127 145 168
126 145 167
125 143 165
125 144 165
125 143 164
125 144 166
125 143 164
124 142 163
121 140 160
121 140 160
124 142 164
121 139 160
120 139 159
118 137 157
121 139 160
119 138 158
120 139 159
118 136 156
118 137 157
121 139 160
116 135 154
121 139 160
119 138 159
119 138 159
121 140 161
122 141 163
123 142 164
123 142 164
124 143 165
123 142 163
139 157 181
137 157 180
134 153 176
137 156 179
133 151 174
128 146 169
132 150 173
134 152 175
133 151 175
133 150 173
133 151 175
132 151 173
133 151 175
133 152 175
134 152 175
135 153 177
134 152 175
134 151 174
134 152 175
134 152 175
133 151 174
133 151 174
134 152 175
133 151 175
132 149 171
133 151 175
133 151 174
133 151 175
133 152 175
134 152 175
132 151 174
134 152 175
133 151 175
133 151 175
133 151 175
134 153 176
134 152 168
153 174 168
183 203 191
197 218 206
198 221 210
195 220 211
192 218 211
190 217 211
189 216 211
188 216 211
188 216 211
188 216 211
189 217 211
191 218 211
193 219 211
196 220 211
199 222 211
200 221 207
176 190 178
130 142 135
110 128 139
125 143 166
124 142 165
122 140 163
121 138 160
121 138 161
119 136 158
116 133 154
112 128 150
112 128 149
107 122 142
109 125 144
100 113 131
96 110 128
99 113 131
95 107 125
99 112 130
96 109 127
99 113 132
104 118 138
106 120 140
104 119 140
107 121 143
111 127 150
109 125 147
114 131 155
114 130 154
117 133 157
119 136 160
116 131 155
89 77 94
70 7 30
74 4 30
72 4 29
73 4 30
71 4 29
72 4 29
73 4 30
72 4 30
72 4 30
72 4 30
73 4 30
71 4 29
71 4 30
70 4 29
68 3 28
69 6 29
88 78 95
124 138 161
128 146 170
129 147 171
129 146 170
129 146 170
129 146 170
128 146 169
130 147 171
130 147 171
131 148 172
129 146 170
130 148 171
129 146 170
128 145 169
130 147 171
127 144 168
128 145 169
127 145 168
127 145 169
128 146 169
126 143 167
126 144 167
127 144 168
124 142 165
124 141 164
122 140 162
119 136 158
119 136 158
118 134 156
116 132 154
115 131 152
115 130 152
109 125 146
108 123 144
105 119 138
101 115 133
98 111 129
98 111 129
98 111 129
97 110 127
100 114 133
104 117 136
107 122 142
108 123 143
100 122 130
85 123 106
80 122 96
80 121 96
82 124 99
84 127 100
82 125 99
82 125 99
83 126 99
84 128 101
84 128 101
84 128 100
83 128 100
84 129 102
84 129 101
84 128 101
82 126 98
84 129 100
83 128 100
85 128 104
107 136 138
126 146 166
129 147 169
127 145 168
128 146 169
126 145 168
126 145 167
125 144 166
127 146 168
125 144 166
125 144 165
125 143 165
124 143 165
125 144 165
125 144 165
124 142 164
123 142 163
124 143 163
125 144 165
121 139 160
121 141 162
124 143 165
122 141 161
123 142 163
122 141 161
123 142 162
124 143 164
124 143 164
122 141 162
122 141 162
125 143 165
123 142 163
139 158 182
140 159 183
139 157 180
136 154 177
132 151 174
127 145 169
130 148 172
132 151 174
134 153 176
133 152 176
133 152 175
134 152 175
134 152 175
134 153 176
135 153 176
135 153 176
134 152 175
134 153 176
133 151 175
132 150 173
134 152 175
134 152 175
134 153 176
134 153 177
133 151 175
134 152 176
134 152 175
133 152 175
132 150 173
133 151 174
132 151 174
133 151 175
134 152 175
133 151 174
132 151 175
134 152 175
130 150 163
141 159 155
166 184 176
188 209 197
198 220 207
197 220 208
197 221 211
195 220 211
194 220 211
194 219 211
194 220 211
194 219 211
195 220 211
196 219 210
198 221 210
199 220 208
198 219 206
187 207 192
156 167 155
113 117 111
106 121 130
125 143 164
127 146 168
126 143 166
125 142 166
126 143 166
121 139 161
121 138 160
120 138 160
118 135 157
117 133 155
113 129 151
112 128 150
112 128 149
113 129 150
111 126 148
111 126 147
113 129 150
113 129 150
115 131 153
115 131 153
115 131 153
116 132 155
118 134 157
119 136 160
119 136 159
118 134 157
122 139 163
118 135 159
121 138 163
104 108 128
72 34 49
69 4 28
70 4 29
69 4 28
70 4 28
70 4 28
71 4 29
71 4 29
67 3 28
70 4 29
71 4 29
69 4 29
69 4 29
67 3 28
66 3 28
70 31 45
106 111 131
125 142 166
127 144 167
129 146 171
128 145 169
129 146 170
127 144 168
129 147 171
128 145 168
128 146 169
132 150 174
129 147 170
128 146 170
129 147 171
129 147 171
128 146 170
130 147 171
127 145 169
128 146 170
127 145 169
128 146 169
126 143 167
127 145 169
124 141 164
126 144 167
126 144 167
125 142 165
124 141 165
124 141 164
124 141 164
119 135 158
120 137 159
121 138 161
115 132 153
113 129 151
118 135 158
117 133 155
119 135 158
115 130 151
112 128 149
117 133 155
114 130 152
117 133 155
113 129 150
116 132 153
102 128 133
79 117 96
78 118 94
80 121 95
81 123 98
79 120 95
80 122 97
83 125 99
82 125 99
82 125 98
83 126 99
83 127 99
82 125 99
83 127 99
82 125 98
82 126 98
83 127 99
82 126 98
81 124 96
81 124 98
99 131 125
121 142 160
128 147 170
127 145 168
129 148 171
129 148 171
128 146 168
130 148 171
128 147 169
129 147 169
126 145 167
127 145 167
127 146 168
126 145 167
126 145 167
125 144 166
125 144 166
127 146 169
127 146 168
126 145 167
126 145 167
125 143 165
127 146 167
126 145 166
126 144 167
125 143 165
125 144 166
126 145 166
125 144 165
124 142 164
124 143 163
122 140 161
139 156 180
139 156 179
139 157 180
135 154 176
121 139 160
115 132 154
125 143 168
134 152 176
134 153 177
134 152 176
135 153 176
135 153 177
133 151 175
134 153 176
134 152 175
133 152 176
134 152 176
135 153 177
134 152 176
135 153 177
134 153 176
133 152 175
133 151 175
134 152 176
135 153 177
134 152 175
133 152 175
132 151 174
133 151 173
134 152 175
134 152 176
133 152 175
133 151 175
133 152 176
134 152 176
133 151 174
127 145 156
130 149 147
145 163 159
167 187 176
181 202 189
188 210 196
197 219 205
198 220 207
199 221 209
199 221 209
200 222 210
200 222 210
198 217 205
193 207 197
187 197 188
187 201 191
173 190 178
163 182 167
132 144 134
101 105 102
109 124 130
128 145 166
129 147 171
128 145 169
128 145 169
127 145 168
127 144 168
123 141 164
124 141 165
124 141 164
122 140 163
121 138 161
122 139 162
122 139 162
119 137 159
121 138 161
120 138 160
121 137 160
121 138 161
121 138 161
121 138 161
121 138 161
122 138 161
122 137 161
121 135 159
122 137 161
120 135 158
121 137 161
121 138 161
120 136 160
117 130 153
89 80 96
67 17 33
66 3 27
68 3 28
67 3 27
66 3 27
69 4 29
68 3 28
67 3 28
67 3 28
65 3 27
66 3 27
66 3 27
65 3 27
65 19 34
93 87 104
120 133 156
126 143 166
127 144 167
125 142 165
127 144 168
129 146 170
126 142 166
128 145 168
129 147 170
127 145 168
130 148 172
129 147 171
129 147 171
128 145 169
127 145 168
129 147 171
127 145 168
129 147 170
129 146 170
128 146 170
128 146 170
127 145 168
127 145 168
130 148 171
125 142 166
127 144 169
125 138 165
120 130 160
117 122 156
115 116 153
116 120 156
115 117 153
119 126 158
118 130 158
120 134 160
126 144 167
123 140 162
122 139 161
122 139 162
122 139 162
122 139 162
125 142 165
123 140 163
120 137 160
121 139 161
106 130 137
80 117 96
77 117 93
79 119 94
78 118 94
80 121 96
79 119 94
80 122 96
80 122 96
81 123 97
80 121 95
81 123 96
80 122 95
81 124 97
81 123 96
81 124 97
81 124 96
80 123 96
80 123 96
80 122 95
93 127 117
122 144 160
128 146 169
128 147 170
129 147 170
127 146 168
129 147 170
128 147 170
129 148 171
128 146 169
131 149 172
128 146 168
127 145 166
127 145 168
126 145 166
128 146 168
127 146 167
129 147 170
125 143 165
128 146 169
126 145 167
125 143 164
125 144 166
127 145 168
124 143 164
123 142 162
124 142 163
125 143 164
124 143 165
124 143 164
123 141 162
121 140 160
138 157 181
137 155 178
135 154 177
126 145 165
101 121 131
111 127 145
135 153 178
135 153 177
134 151 175
134 152 176
134 152 176
134 152 177
134 152 175
133 152 175
135 153 177
135 154 179
134 153 176
134 153 177
133 151 175
134 153 177
133 152 175
134 152 175
134 153 176
135 153 177
134 152 176
133 152 175
135 153 177
134 153 177
134 152 176
133 151 175
133 152 176
134 152 176
134 152 175
134 152 175
133 151 174
133 151 174
129 148 160
126 145 145
137 155 153
141 161 154
154 174 163
158 180 166
174 192 177
184 201 186
187 204 189
190 207 193
194 212 199
189 206 192
183 194 182
167 158 154
160 145 145
154 156 153
139 151 147
129 147 137
115 130 124
103 113 110
118 134 140
125 144 164
127 145 168
128 147 170
130 148 172
127 145 168
126 144 168
129 147 171
126 144 166
125 143 165
127 145 169
124 141 165
125 142 165
125 143 166
125 142 165
124 141 165
125 142 165
126 143 166
125 142 165
126 139 163
125 130 155
130 126 153
129 118 146
132 111 140
131 107 137
132 115 144
131 119 147
125 125 151
122 128 152
122 136 159
120 136 159
111 120 141
83 69 84
67 22 37
65 3 27
64 3 27
64 3 26
66 3 27
65 3 27
63 3 26
64 3 26
63 3 26
63 3 26
64 3 27
63 16 31
79 67 81
110 121 141
121 137 159
121 137 160
121 138 160
122 138 161
126 143 166
126 143 167
126 142 166
127 143 166
126 143 166
128 145 168
128 146 169
127 145 168
128 146 169
129 147 171
129 147 170
129 146 170
129 146 170
128 146 169
129 146 170
130 148 171
129 147 171
128 146 170
128 146 169
127 144 168
125 138 165
119 122 157
112 103 149
108 92 144
105 83 141
101 70 136
102 74 138
102 73 137
105 85 141
109 95 145
118 121 157
119 128 159
123 138 163
127 145 168
125 143 166
128 146 169
125 144 167
127 145 168
127 145 168
127 145 168
126 144 166
103 128 134
76 112 91
75 113 90
75 113 90
76 114 91
77 117 93
77 117 93
78 118 94
78 118 93
79 119 94
79 119 94
80 121 95
78 120 94
80 123 96
78 119 92
80 122 95
78 120 93
79 121 94
78 120 93
79 121 93
89 125 111
117 139 154
130 148 171
128 147 170
131 149 172
129 148 171
130 148 171
129 148 171
129 148 170
129 148 171
129 148 171
129 147 170
128 147 169
132 151 170
130 149 166
136 154 168
138 157 168
139 158 171
134 152 168
133 152 168
128 147 166
128 146 168
127 146 168
126 144 166
125 143 164
123 142 162
126 145 166
121 139 159
120 138 158
120 138 157
122 139 160
119 136 156
133 152 173
131 149 173
130 146 173
119 137 154
107 132 133
146 163 180
144 161 185
135 153 177
133 151 175
135 153 177
135 153 177
134 152 176
134 152 176
134 153 177
135 154 178
134 152 176
134 153 176
134 153 176
134 153 177
134 152 176
133 152 176
134 153 176
134 153 176
132 151 174
133 152 175
133 152 177
134 153 176
133 151 174
134 152 176
133 151 175
133 152 176
133 152 175
133 152 175
134 153 176
133 152 176
132 151 174
129 148 160
133 152 150
134 153 150
137 157 152
140 160 151
133 158 145
141 160 148
150 163 150
152 165 153
161 175 164
163 178 168
156 171 160
148 155 146
132 113 115
126 100 107
120 119 122
119 132 131
120 139 134
116 132 129
114 129 127
122 140 148
129 147 168
130 149 172
131 149 172
130 148 171
129 146 169
130 147 171
129 147 171
129 147 170
129 147 171
129 146 170
127 146 169
125 142 165
127 145 168
126 143 166
125 142 165
127 144 167
125 142 165
129 131 156
134 118 146
139 102 135
142 83 122
142 74 117
146 62 110
144 65 111
144 67 113
142 73 115
139 89 125
135 102 133
128 114 142
119 123 147
116 129 151
103 112 131
79 67 81
62 27 39
60 3 24
60 3 25
60 3 25
60 3 25
60 3 25
58 3 24
59 3 24
59 3 24
63 27 39
82 74 88
105 113 132
119 134 155
118 133 155
119 134 156
120 135 158
119 135 158
122 137 159
125 141 166
125 142 165
125 141 164
127 144 167
125 142 166
128 145 168
128 146 170
129 146 169
128 145 169
129 147 170
127 145 169
128 145 168
128 145 168
130 147 171
131 150 173
128 146 169
130 147 171
127 142 167
122 131 162
111 104 149
102 76 136
97 51 131
93 30 126
93 23 126
92 19 125
93 19 126
93 20 126
93 24 126
96 45 130
100 65 135
108 94 145
114 113 152
125 138 165
127 145 169
130 149 172
128 146 169
130 148 172
129 148 171
129 147 171
128 146 169
106 130 138
78 113 95
75 112 90
74 110 88
74 111 88
75 113 90
75 113 89
74 113 89
77 118 93
76 116 91
77 117 92
79 119 93
77 117 92
79 120 93
76 117 91
77 118 92
78 118 93
78 119 93
76 117 90
77 119 93
93 126 116
119 141 155
130 148 171
130 149 171
129 147 170
131 149 173
128 146 169
130 148 171
130 148 171
129 147 169
128 147 169
130 148 165
136 155 165
146 165 167
154 175 171
158 180 172
161 183 175
161 183 174
161 182 175
154 175 172
150 169 172
134 153 165
130 148 166
125 144 165
124 143 164
125 143 164
126 144 165
120 138 158
122 140 159
119 136 155
118 135 154
115 132 149
136 154 175
151 169 193
165 178 208
160 177 200
158 179 190
168 186 206
145 163 187
133 151 175
133 151 175
134 153 177
133 151 175
135 153 176
135 153 177
134 152 176
135 154 177
134 152 175
133 152 176
135 153 176
133 152 175
133 152 176
135 154 178
134 152 176
134 153 176
134 153 177
133 152 175
133 152 175
133 151 174
133 152 175
134 153 176
133 152 176
134 152 175
134 152 175
134 153 176
133 151 175
133 152 175
133 151 175
131 150 167
128 148 148
132 152 148
130 150 146
134 154 148
128 149 142
124 143 137
127 144 138
128 145 140
134 150 143
135 153 148
131 147 142
122 132 128
115 116 116
113 114 115
119 131 129
124 141 138
125 143 140
123 141 137
122 141 139
126 144 154
130 148 170
134 152 176
131 149 172
132 150 173
130 148 171
129 147 169
129 147 170
131 149 173
130 148 171
129 146 170
128 146 169
129 147 170
128 146 169
127 145 168
127 144 167
127 140 165
132 126 152
138 103 135
145 70 113
148 45 101
150 25 95
150 15 93
150 11 93
150 15 93
150 13 93
151 17 94
148 26 95
143 49 101
140 76 116
128 99 129
120 108 133
107 117 136
98 106 122
85 83 97
61 43 53
59 26 37
57 19 31
56 3 23
56 7 24
56 10 25
57 21 34
63 46 56
80 77 90
98 105 122
103 114 132
111 123 143
111 124 144
114 128 148
117 131 152
118 132 154
121 136 158
123 138 160
125 141 164
125 140 163
125 142 166
125 141 165
127 144 168
127 144 168
128 145 169
129 147 170
128 146 169
128 145 168
128 145 169
131 148 172
130 148 171
128 146 170
129 147 170
128 144 169
119 122 158
105 88 140
95 49 128
92 23 124
92 19 124
92 19 124
92 19 124
92 19 125
92 19 125
92 19 125
92 19 125
92 19 125
92 19 125
95 38 127
100 68 134
111 105 147
122 132 162
128 146 170
128 147 170
127 146 169
129 147 171
129 147 171
129 148 171
113 135 148
83 116 103
72 109 87
71 107 85
72 108 86
73 111 87
75 113 89
76 115 91
75 113 89
74 112 88
74 112 87
74 113 88
76 116 90
75 115 89
73 112 87
76 117 91
76 117 91
74 114 88
74 114 89
75 114 89
94 124 119
121 142 159
128 147 170
131 150 173
130 148 171
131 150 173
130 149 172
130 148 171
130 149 171
127 146 166
131 149 160
144 163 158
155 176 163
168 191 172
174 199 178
176 203 182
179 207 186
179 207 185
180 207 185
175 200 181
171 195 179
163 185 175
149 169 167
137 156 167
128 146 165
124 142 162
125 143 164
122 140 159
122 139 159
118 136 154
118 135 154
117 134 152
148 166 187
185 203 225
202 219 246
201 218 243
187 206 228
164 183 207
137 155 179
134 153 177
135 153 177
134 152 176
133 151 176
132 150 174
135 153 178
133 151 174
134 153 177
133 152 175
134 152 175
133 151 175
134 152 176
135 153 177
134 152 175
134 153 176
135 154 178
134 153 176
133 151 175
133 152 176
134 152 175
133 152 175
133 151 175
132 151 174
133 152 175
133 152 175
134 152 176
133 151 175
134 153 176
133 151 175
131 149 169
128 146 152
127 147 142
129 149 144
130 150 146
129 148 144
128 147 143
128 147 143
129 148 144
129 148 144
127 146 142
128 147 143
124 142 138
122 137 134
123 138 135
125 141 138
127 145 142
125 143 139
124 142 138
124 143 144
127 145 161
130 148 171
132 150 173
130 148 171
131 149 172
132 151 174
132 151 174
130 148 172
130 148 171
129 147 170
131 148 171
127 144 167
128 146 169
129 146 170
128 145 169
131 143 167
135 119 147
141 87 124
148 52 104
148 21 93
151 11 92
150 11 92
150 11 92
149 11 92
150 11 93
151 11 93
149 11 92
149 11 92
147 11 91
146 29 94
141 50 101
128 78 112
114 98 122
101 107 125
87 93 107
82 85 99
71 69 80
62 54 62
57 44 51
57 45 53
61 52 61
66 63 73
77 78 90
87 92 105
95 104 120
95 103 119
104 115 133
109 121 140
112 125 145
115 129 149
120 135 156
121 136 159
120 136 158
124 139 162
124 140 163
125 141 164
127 143 166
125 142 165
129 146 170
128 145 168
128 145 168
131 149 172
128 146 169
129 146 170
130 148 172
129 147 170
129 146 169
128 144 168
118 122 157
105 87 139
92 36 123
90 19 121
91 18 123
90 18 122
90 18 122
91 18 123
90 18 122
92 19 124
91 18 123
92 19 124
91 18 124
91 18 123
91 18 122
92 27 124
96 57 129
113 106 150
122 133 163
128 146 170
129 148 171
129 147 171
129 148 171
129 148 171
121 141 159
88 116 111
71 107 85
70 105 83
71 107 85
71 107 85
72 108 85
73 109 86
71 107 84
72 109 86
74 112 87
74 113 88
73 112 87
72 110 85
72 110 86
73 111 86
74 113 87
71 110 85
72 111 86
72 109 87
103 129 132
127 146 168
131 149 172
132 150 173
130 149 172
129 148 171
130 149 172
130 149 171
126 144 161
129 147 150
148 167 157
162 184 164
174 200 177
178 207 185
177 208 188
176 207 188
175 207 189
175 207 189
177 208 189
179 209 188
180 209 188
182 208 185
171 194 177
161 182 171
145 163 168
126 144 162
125 143 164
120 138 158
123 141 161
120 138 158
118 136 154
116 133 151
144 161 183
182 200 223
206 225 250
203 222 248
180 200 226
145 163 188
135 153 177
133 151 175
135 153 177
134 153 176
133 151 175
135 153 177
134 153 176
133 151 175
134 152 176
133 152 175
134 152 175
134 153 176
134 152 176
135 153 177
134 153 176
133 152 176
134 153 177
134 153 176
133 152 175
133 152 175
134 152 176
133 151 174
133 152 175
135 153 176
133 151 175
133 151 174
133 151 174
134 152 175
133 151 174
132 150 174
133 151 173
128 147 158
128 147 145
128 147 142
127 146 142
127 147 142
127 146 142
128 147 143
128 147 143
128 147 142
128 147 143
127 146 142
126 145 141
126 144 139
127 145 141
127 146 141
124 142 138
127 145 141
123 142 137
127 145 152
131 149 169
130 149 172
131 148 171
129 147 170
133 151 174
131 149 172
131 148 172
130 149 171
130 148 171
132 151 174
130 148 171
129 147 170
130 148 171
128 145 168
130 143 166
135 119 147
140 84 121
147 41 98
149 13 91
148 11 91
148 11 91
149 11 91
148 11 91
149 11 91
149 11 91
147 11 91
148 11 91
147 11 90
143 11 89
145 11 89
142 16 88
140 46 97
124 66 101
101 83 104
89 93 108
81 88 100
76 80 91
62 63 72
62 63 71
70 74 83
70 72 83
76 80 92
77 82 94
86 93 107
92 99 114
96 104 120
101 110 127
106 116 135
113 126 146
114 127 148
115 129 150
118 131 153
119 134 156
122 138 160
123 139 162
122 138 160
127 144 167
128 145 168
127 144 167
127 144 167
128 146 170
130 147 171
129 147 171
129 147 171
129 147 170
130 148 171
128 145 169
120 127 158
107 94 142
91 40 121
88 18 118
89 18 119
89 18 120
90 18 122
90 18 122
90 18 122
90 18 122
91 18 122
91 18 123
91 18 122
89 18 120
91 18 122
91 18 122
90 18 121
91 22 122
97 64 130
113 111 150
123 135 163
128 147 170
128 146 169
127 146 169
129 147 170
123 143 163
103 126 135
72 104 88
66 100 79
68 103 81
68 103 82
70 106 84
70 105 83
69 104 82
68 103 81
71 106 83
69 105 82
71 108 84
71 108 84
71 109 84
72 110 85
71 108 84
72 110 85
70 108 83
81 114 101
111 134 145
126 145 167
130 150 172
131 150 172
131 150 173
130 149 172
130 149 172
124 144 159
130 149 151
150 170 153
169 192 169
179 206 183
180 209 188
176 208 189
173 206 189
171 205 189
170 204 189
170 204 189
171 205 189
173 206 189
175 207 189
179 209 189
183 210 187
178 203 181
165 187 174
146 165 168
127 145 161
125 142 163
122 140 159
122 139 159
123 140 160
118 135 153
130 148 170
165 183 207
195 215 242
185 205 232
155 174 200
134 151 174
133 151 175
134 153 176
134 153 176
134 152 175
136 154 178
134 151 174
134 153 176
134 153 176
134 152 176
134 152 175
134 152 176
133 151 175
133 152 175
134 152 176
134 153 176
134 152 175
134 153 176
135 154 177
134 152 175
134 152 176
133 152 175
133 152 175
134 152 175
133 152 175
134 152 175
133 151 175
133 151 174
133 151 174
132 151 173
132 151 173
131 149 172
131 149 166
128 147 151
126 145 141
126 146 140
126 145 140
127 146 140
126 145 140
127 146 141
124 143 138
125 144 138
126 144 139
125 144 138
126 144 138
124 142 137
125 143 137
124 143 137
123 141 135
124 142 143
126 144 157
130 148 170
131 149 171
131 149 172
131 148 170
129 148 169
130 147 169
130 148 170
131 149 172
131 149 171
129 147 169
131 149 172
129 147 170
130 148 171
130 146 169
132 128 154
141 91 127
146 38 96
148 11 90
145 11 89
148 11 90
147 11 90
148 11 91
146 11 90
146 11 89
147 11 91
146 11 90
145 11 89
143 11 88
143 11 89
140 10 87
140 10 87
138 27 89
132 54 98
111 88 112
93 101 117
85 99 113
82 97 110
84 98 110
81 91 104
84 92 105
89 96 110
90 97 111
94 102 116
95 103 118
100 109 126
105 114 132
108 119 137
111 124 144
114 127 147
117 130 151
119 134 155
120 134 156
123 138 160
124 139 161
121 136 158
125 142 164
126 142 165
126 143 166
125 142 165
126 142 165
127 144 168
129 147 171
129 146 170
130 148 171
129 146 169
130 148 172
125 139 165
110 105 145
94 59 125
86 18 115
87 17 116
88 18 118
89 18 119
88 18 119
90 18 121
90 18 121
90 18 121
90 18 121
90 18 121
89 18 120
91 18 122
89 18 120
92 18 123
90 18 120
89 18 119
89 26 119
100 74 133
118 121 155
125 142 164
127 145 167
127 145 168
126 144 166
128 147 169
117 138 154
84 110 108
66 99 79
66 99 79
67 101 80
68 102 80
67 102 80
67 102 80
67 101 79
68 103 81
69 105 81
68 105 81
68 104 81
67 103 80
69 105 82
69 106 81
67 103 79
71 106 85
95 121 121
119 140 157
128 147 168
129 148 170
130 149 172
130 149 172
129 147 169
126 146 165
127 148 149
152 175 158
173 196 170
183 209 185
181 210 188
177 208 189
174 206 189
171 205 189
169 204 189
168 203 189
168 203 189
169 204 189
170 204 189
172 206 189
175 207 189
180 210 189
184 212 188
182 206 182
164 185 171
138 157 162
126 144 162
123 142 162
123 141 161
125 143 163
122 139 159
120 138 159
145 164 189
170 191 218
157 177 203
136 155 179
134 153 176
134 153 177
135 153 176
135 152 176
135 153 177
134 153 176
134 153 176
133 152 175
135 153 176
135 153 176
134 152 176
133 151 175
133 152 175
133 152 175
133 152 175
133 152 175
133 151 174
134 152 175
134 153 176
133 152 175
134 152 176
134 153 175
133 151 174
133 152 175
133 152 175
133 151 175
133 151 174
132 150 172
131 150 172
132 151 172
133 151 174
132 150 172
132 150 171
127 145 157
124 143 142
123 142 135
124 143 136
125 143 136
124 143 136
123 141 134
124 142 135
124 142 136
123 141 135
123 141 134
123 141 134
121 139 132
119 136 129
118 136 129
120 137 134
123 139 148
127 144 164
129 146 166
129 147 167
130 148 169
130 148 170
131 148 169
131 149 171
131 149 171
128 146 168
130 148 170
131 149 172
130 148 171
130 147 169
128 146 169
130 134 158
137 106 137
142 55 103
145 13 88
145 11 88
147 11 89
146 11 89
146 11 89
145 11 89
144 11 89
145 11 89
143 11 88
142 11 87
141 11 87
139 10 86
136 15 85
133 32 89
129 50 95
120 63 98
113 77 105
98 99 117
86 111 124
81 116 128
79 112 124
84 114 126
82 109 121
91 113 127
97 116 131
102 115 132
106 117 135
109 120 139
110 121 140
113 125 144
114 126 146
116 130 150
116 130 150
121 136 158
119 134 155
124 141 164
123 139 161
124 140 163
125 142 164
127 144 166
126 142 165
128 146 169
128 145 168
127 144 167
126 143 167
128 146 170
129 146 170
130 148 171
129 147 170
129 145 169
119 127 156
103 87 136
88 28 116
86 17 115
86 17 115
88 18 117
87 18 117
90 18 120
89 18 119
89 18 120
89 18 120
89 18 119
89 18 120
90 18 120
88 18 119
89 18 119
90 18 120
89 18 119
88 18 118
87 18 117
91 47 121
106 97 140
122 133 160
125 143 166
126 144 165
126 144 167
125 144 166
122 141 161
103 125 134
77 105 97
62 93 74
64 97 77
66 100 79
65 98 78
63 96 76
65 99 78
66 100 79
66 101 79
65 99 77
65 100 78
66 102 79
67 103 79
66 102 79
66 101 78
85 115 107
112 133 146
126 145 166
127 146 168
129 148 170
128 147 169
130 149 172
128 147 169
123 145 150
146 168 152
172 196 169
187 212 185
185 212 189
180 210 189
176 208 189
173 206 189
171 205 189
169 204 189
168 203 189
168 203 189
168 204 189
169 204 189
171 205 189
174 207 189
178 209 189
182 211 189
187 213 188
179 202 178
162 182 169
136 154 163
128 146 167
126 144 166
126 144 165
125 143 165
106 122 143
123 141 163
139 158 183
137 156 180
135 153 177
133 152 175
135 153 177
135 153 177
135 153 175
134 152 176
135 153 176
135 153 177
133 152 175
134 152 176
134 153 176
134 152 176
134 153 176
134 153 176
133 151 174
133 152 175
132 149 172
135 153 176
133 152 175
133 151 174
132 151 173
134 152 175
133 151 173
133 151 173
133 151 174
132 151 173
132 151 173
131 149 171
132 150 172
131 149 171
132 151 172
131 149 170
129 148 169
130 148 168
128 145 164
126 143 154
121 139 138
121 139 130
123 141 133
122 139 130
119 136 128
120 137 128
121 139 131
119 135 126
119 136 127
117 133 124
114 130 120
116 132 123
115 131 128
121 137 144
123 139 155
129 146 165
126 143 162
129 146 166
128 145 165
127 145 166
129 147 169
130 147 169
129 147 169
130 148 170
131 149 171
130 147 169
130 147 168
129 146 168
131 146 169
133 122 148
140 75 114
141 22 88
145 11 88
142 10 87
144 11 87
143 10 87
144 11 87
143 11 88
142 10 87
141 10 86
141 10 87
139 10 85
137 10 84
133 20 84
125 45 90
117 65 98
104 85 108
92 99 116
83 106 119
77 111 123
72 117 127
70 117 127
70 117 127
71 117 127
74 116 127
80 117 129
88 118 132
94 118 134
106 126 144
115 130 150
119 133 154
118 131 152
120 134 155
123 139 161
123 138 159
125 141 163
125 141 164
124 140 163
128 144 167
127 145 168
126 143 166
127 144 168
126 143 165
129 146 170
128 145 169
129 146 169
129 147 170
129 146 170
130 147 170
130 148 171
130 148 171
126 142 167
113 114 150
89 53 117
84 18 112
84 17 111
85 17 113
86 17 115
86 17 115
88 18 117
87 18 117
88 18 118
89 18 119
88 18 118
88 18 118
88 18 119
88 18 119
89 18 119
89 18 119
88 18 117
88 18 117
87 17 115
88 27 116
100 79 131
114 118 150
122 139 161
122 140 161
121 138 158
119 137 158
120 138 158
116 134 152
96 117 125
70 97 88
61 93 74
62 94 74
63 96 75
62 94 73
63 95 75
63 96 75
64 97 75
62 94 73
62 96 74
64 99 76
61 95 74
63 96 76
78 106 98
102 124 133
122 141 161
126 144 166
125 144 165
127 146 169
126 145 166
126 145 166
122 142 159
125 147 145
159 182 157
186 209 182
189 215 188
185 212 189
181 210 189
177 208 189
174 207 189
172 206 189
171 205 189
170 204 189
170 204 189
170 204 189
171 205 189
172 206 189
174 207 189
177 208 189
181 210 189
186 213 189
189 213 186
172 192 170
145 164 164
128 146 163
130 149 172
127 145 167
128 146 169
91 106 133
104 121 148
129 147 171
133 152 176
133 152 175
135 153 176
135 153 176
134 152 175
134 153 176
134 152 175
135 153 176
133 151 174
135 153 176
135 153 176
134 152 175
134 153 176
133 152 174
133 151 175
134 153 176
134 152 175
134 152 174
133 151 174
132 151 174
133 151 175
131 150 172
133 151 174
133 151 175
132 151 174
132 151 173
132 150 171
132 150 172
131 149 169
131 150 171
130 148 169
131 149 169
129 146 166
130 148 168
128 146 165
127 145 163
127 145 162
121 138 147
116 132 132
115 131 124
114 130 120
113 130 119
113 129 118
113 129 118
111 125 116
110 125 114
110 124 114
108 122 114
110 124 122
115 129 135
119 134 147
123 140 156
124 141 157
125 142 160
126 142 160
127 144 163
128 145 164
129 146 166
130 148 169
129 147 168
128 145 165
129 147 169
129 146 168
131 149 171
131 148 170
131 141 164
135 103 134
139 52 99
142 10 86
144 11 87
144 11 87
144 11 87
143 11 87
142 10 86
139 10 85
139 10 85
139 10 85
137 10 84
131 10 81
131 19 83
120 52 91
108 75 102
89 95 111
80 107 120
70 115 125
68 116 126
69 117 127
68 117 127
69 117 127
68 117 126
68 117 127
68 116 126
68 116 126
70 115 126
81 118 130
97 125 141
107 131 149
118 136 157
121 136 158
124 139 161
125 141 163
124 139 162
126 142 165
126 142 165
126 142 165
126 143 166
128 144 167
128 146 169
128 145 168
129 146 169
128 145 167
128 145 168
129 147 170
130 148 171
129 146 170
130 147 170
130 147 170
130 147 171
124 137 163
105 98 138
85 42 113
82 16 109
84 17 112
84 17 113
85 17 112
84 17 113
85 17 114
86 17 115
86 17 115
87 17 116
88 18 117
87 18 117
85 17 114
88 18 118
86 17 115
86 17 114
86 17 115
86 17 115
86 17 114
86 17 114
90 56 119
105 103 139
119 135 157
120 138 157
118 136 155
118 136 155
115 132 151
113 130 147
109 126 142
92 111 118
70 95 89
61 89 74
56 85 67
60 91 71
57 88 69
59 91 71
61 93 72
62 95 74
58 90 69
59 92 71
61 92 74
76 102 97
100 121 130
116 135 153
122 140 160
122 140 161
122 140 160
123 141 161
124 142 163
125 144 164
119 139 149
131 153 142
167 188 163
188 211 183
190 216 189
186 213 189
183 211 189
179 209 189
177 208 189
175 207 189
174 206 189
173 206 189
172 206 189
173 206 189
173 206 189
174 207 189
176 208 189
179 209 189
182 211 189
186 213 189
190 214 187
182 204 178
154 172 162
130 149 161
129 148 169
128 146 168
129 147 169
75 90 128
99 115 149
125 143 168
133 151 175
134 153 177
134 153 176
132 150 173
135 154 177
134 152 175
135 153 176
133 152 175
133 152 175
135 153 176
133 152 175
133 151 174
132 150 173
134 153 176
133 151 174
133 152 175
132 150 172
134 152 175
133 152 175
133 152 174
133 151 174
132 151 173
133 151 173
132 150 172
132 150 173
131 149 171
132 151 173
131 149 170
131 150 171
131 149 169
130 148 168
128 145 165
129 146 165
128 145 163
128 145 162
127 144 160
123 140 154
123 138 153
118 133 144
113 127 131
111 125 123
104 117 109
106 120 111
101 114 105
101 114 103
97 109 101
97 109 105
105 118 119
111 124 132
113 127 137
118 132 144
119 135 149
120 135 150
121 137 152
124 141 157
126 142 160
127 144 162
128 144 163
128 145 165
127 143 163
131 148 169
131 149 170
131 148 170
129 146 168
130 147 169
130 133 156
134 89 121
139 36 91
141 10 85
140 10 85
142 10 86
142 10 86
141 10 85
140 10 85
140 10 85
136 10 83
136 10 83
131 10 81
128 22 82
114 56 91
101 81 103
85 100 114
71 113 123
68 115 125
67 115 124
68 116 125
68 117 126
68 116 126
68 116 125
68 116 125
68 117 126
68 116 126
68 116 125
68 116 125
68 115 124
77 118 130
91 123 138
108 132 150
122 140 162
125 141 164
126 143 166
126 142 165
127 144 167
128 145 168
129 146 169
129 147 171
128 145 168
129 146 170
127 144 167
129 146 170
131 148 172
129 146 170
128 145 168
130 147 170
130 147 171
130 147 171
131 149 173
130 147 171
120 131 159
101 90 133
79 22 105
80 16 105
83 16 108
81 16 108
84 17 111
84 17 112
84 17 112
85 17 114
85 17 113
85 17 113
86 17 116
86 17 114
86 17 114
84 17 113
85 17 113
86 17 115
84 17 112
84 17 112
84 17 111
84 17 112
87 42 115
99 91 131
115 128 151
116 133 152
115 132 150
114 131 149
108 125 141
108 124 140
105 120 135
100 116 129
91 109 117
72 91 92
66 90 81
55 81 67
55 82 66
55 85 67
54 83 65
59 88 71
61 89 74
71 96 86
82 104 104
96 115 124
109 127 142
116 134 151
118 136 154
118 136 155
121 139 159
123 141 161
122 141 161
121 141 160
116 136 142
130 149 135
166 184 161
185 205 179
189 212 186
189 214 188
186 213 188
183 211 189
181 210 189
179 209 189
178 209 189
177 208 189
176 208 189
176 208 189
177 208 189
178 209 189
180 210 189
182 211 189
185 212 189
188 214 189
191 216 188
180 202 175
150 169 152
131 150 155
129 147 168
128 147 170
130 148 170
78 90 139
111 126 162
133 152 178
134 152 176
133 152 176
134 153 176
135 153 177
135 153 176
135 153 176
133 151 175
135 153 176
134 152 175
134 152 174
133 151 174
133 152 175
132 151 173
133 151 175
133 152 175
133 151 175
133 151 174
131 150 173
133 151 174
133 151 173
133 152 174
133 151 174
132 150 173
132 151 173
133 151 173
131 149 171
131 149 171
131 148 170
131 149 169
130 148 168
130 148 167
130 147 166
127 144 162
125 141 158
126 143 159
124 140 156
121 136 150
116 131 143
114 128 138
110 124 132
107 120 125
102 113 115
95 106 104
95 105 105
91 101 99
92 102 102
99 110 113
101 112 116
106 118 125
114 127 135
114 128 140
118 132 145
122 137 152
123 139 154
124 140 156
125 142 160
125 142 159
128 144 163
128 145 166
129 147 168
130 147 168
129 146 168
129 146 168
132 150 172
130 147 169
132 127 152
135 74 111
137 19 85
138 10 83
138 10 83
139 10 84
139 10 84
138 10 84
137 10 83
136 10 83
133 10 81
127 9 78
126 14 79
115 49 86
97 79 100
84 99 113
68 113 122
67 115 124
67 115 124
67 114 124
67 115 124
68 116 125
68 116 126
67 115 124
68 116 125
68 116 125
67 115 124
68 116 125
68 115 124
67 114 123
68 115 124
76 116 127
93 124 138
110 132 151
124 140 162
127 144 166
129 145 168
129 146 170
129 146 170
126 142 166
127 144 167
128 145 167
129 146 170
129 147 171
129 146 170
130 148 171
131 149 172
130 147 171
130 148 171
130 147 171
128 145 168
130 147 171
129 147 171
119 127 156
92 76 121
78 24 104
78 16 105
79 16 105
82 16 109
82 17 110
82 16 109
82 16 110
85 17 113
84 17 113
84 17 112
83 17 111
84 17 111
83 17 112
84 17 112
84 17 111
84 17 111
84 17 112
83 17 110
84 17 111
83 17 109
84 34 111
98 87 129
114 126 150
118 135 154
112 129 146
110 127 143
108 124 140
106 122 137
100 115 128
96 111 123
88 102 112
81 95 101
73 87 91
67 84 83
63 82 77
61 80 75
67 86 81
66 85 81
75 93 93
85 101 106
92 107 117
98 114 125
105 122 136
106 123 137
112 129 145
112 130 146
118 136 155
117 135 152
120 138 158
121 139 157
110 129 136
118 135 122
142 153 139
164 177 158
177 195 173
188 212 185
190 215 189
188 214 189
185 213 189
184 212 189
182 211 189
182 211 189
181 210 189
181 210 189
181 211 189
182 211 189
184 212 189
185 213 189
187 214 189
190 215 188
189 213 185
173 194 169
142 162 144
125 143 145
127 145 163
130 149 172
132 150 173
93 105 152
131 147 177
137 154 179
134 153 176
133 150 174
135 153 177
134 152 175
134 153 175
133 151 175
134 152 175
134 153 176
134 152 175
133 151 174
134 152 175
132 151 173
134 152 175
133 151 175
133 152 175
134 153 176
134 152 175
133 151 173
132 151 173
133 152 174
133 151 173
133 151 174
133 151 173
132 151 173
132 150 172
131 149 170
131 149 170
131 149 170
132 150 171
130 147 166
128 146 166
130 148 167
127 144 161
126 143 159
125 141 156
123 139 153
122 138 150
117 132 142
113 127 137
111 125 132
107 119 126
104 116 121
99 110 114
96 107 110
99 110 114
98 107 111
102 114 118
107 119 126
111 123 131
115 129 139
115 128 140
119 134 148
123 138 153
123 140 156
126 143 160
128 145 164
128 145 163
129 146 165
128 146 166
127 144 165
130 147 168
132 149 171
131 148 170
131 149 171
130 147 169
132 121 147
135 68 106
135 14 81
137 10 82
139 10 83
136 10 82
136 10 82
135 10 82
135 10 82
131 10 80
131 10 80
125 11 77
119 33 80
98 67 91
85 94 109
70 111 120
66 113 121
66 113 121
67 114 123
67 114 123
67 113 122
68 115 124
68 115 124
68 115 124
67 114 123
67 115 123
68 115 124
67 113 122
67 114 122
67 114 122
66 113 122
66 112 121
77 116 127
99 128 145
117 137 157
129 146 170
129 146 170
129 146 170
130 148 171
129 147 170
130 147 170
129 146 170
129 146 169
130 148 171
129 147 170
131 148 172
128 145 168
128 145 168
128 145 168
130 147 170
130 147 171
130 147 171
130 148 172
120 131 157
93 80 123
77 19 102
78 15 103
79 16 105
80 16 106
78 16 105
81 16 108
81 16 108
80 16 107
82 18 109
83 23 111
86 32 114
86 38 115
87 36 115
86 34 114
84 27 111
83 19 111
84 20 111
83 17 110
82 16 109
81 16 106
81 29 107
96 85 127
110 120 145
116 134 152
114 131 149
108 125 141
109 126 141
103 119 134
95 111 123
93 109 120
91 105 115
84 98 106
78 91 98
73 86 91
72 84 89
65 77 80
69 81 85
74 87 92
84 97 104
82 97 103
89 104 114
95 111 121
98 113 125
102 119 132
112 128 145
112 130 146
112 130 147
112 130 147
120 138 158
116 135 151
106 125 127
114 130 118
119 129 120
131 133 129
154 164 150
177 196 172
188 212 184
189 214 186
189 214 187
188 214 188
188 214 189
187 214 189
186 213 189
186 213 189
186 213 189
187 214 189
188 214 189
190 215 189
191 216 188
192 216 188
180 202 176
155 175 156
125 145 130
115 134 134
124 143 159
131 149 172
132 150 174
